Mimicamera/Resources/CuratedLUTs/bleach-bypass.cube
# Mimicamera generated LUT
TITLE "Bleach Bypass"
LUT_3D_SIZE 33
DOMAIN_MIN 0.0 0.0 0.0
DOMAIN_MAX 1.0 1.0 1.0
0.000001 0.000001 0.000001
0.000260 0.000074 0.000074
0.005408 0.001447 0.001447
0.010673 0.002720 0.002720
0.016372 0.003980 0.003980
0.022602 0.005245 0.005245
0.029433 0.006524 0.006524
0.036929 0.007822 0.007822
0.045149 0.009142 0.009142
0.054154 0.010488 0.010488
0.064001 0.011861 0.011861
0.074747 0.013263 0.013262
0.086447 0.014695 0.014694
0.099154 0.016158 0.016158
0.112916 0.017655 0.017655
0.127775 0.019186 0.019186
0.143766 0.020752 0.020752
0.160917 0.022355 0.022355
0.179242 0.023995 0.023994
0.198746 0.025673 0.025673
0.219418 0.027390 0.027390
0.241233 0.029148 0.029148
0.264150 0.030947 0.030947
0.288109 0.032788 0.032788
0.313034 0.034673 0.034672
0.338832 0.036601 0.036600
0.365394 0.038574 0.038574
0.392595 0.040593 0.040593
0.420299 0.042659 0.042659
0.448358 0.044773 0.044772
0.476620 0.046935 0.046935
0.478061 0.047047 0.047046
0.478061 0.047047 0.047046
0.000248 0.000435 0.000247
0.000509 0.000509 0.000321
0.005696 0.001901 0.001705
0.011001 0.003191 0.002988
0.016742 0.004467 0.004257
0.023018 0.005749 0.005531
0.029899 0.007045 0.006820
0.037449 0.008360 0.008128
0.045727 0.009699 0.009458
0.054794 0.011062 0.010814
0.064708 0.012453 0.012197
0.075525 0.013873 0.013610
0.087300 0.015324 0.015052
0.100087 0.016807 0.016527
0.113932 0.018323 0.018035
0.128877 0.019874 0.019577
0.144958 0.021461 0.021155
0.162200 0.023084 0.022769
0.180617 0.024745 0.024421
0.200214 0.026444 0.026112
0.220978 0.028184 0.027842
0.242884 0.029964 0.029612
0.265887 0.031786 0.031424
0.289928 0.033650 0.033278
0.314929 0.035558 0.035176
0.340796 0.037511 0.037118
0.367417 0.039509 0.039105
0.394669 0.041553 0.041139
0.422411 0.043644 0.043219
0.450499 0.045784 0.045348
0.478776 0.047973 0.047525
0.480218 0.048086 0.047637
0.480218 0.048086 0.047637
0.005130 0.009520 0.005130
0.005430 0.009615 0.005215
0.011391 0.011391 0.006806
0.017477 0.013036 0.008280
0.024054 0.014662 0.009738
0.031229 0.016294 0.011202
0.039080 0.017943 0.012682
0.047676 0.019615 0.014182
0.057080 0.021315 0.015709
0.067352 0.023045 0.017263
0.078551 0.024810 0.018849
0.090733 0.026609 0.020467
0.103951 0.028447 0.022119
0.118250 0.030323 0.023807
0.133672 0.032241 0.025533
0.150249 0.034200 0.027296
0.168004 0.036202 0.029100
0.186947 0.038249 0.030944
0.207076 0.040341 0.032831
0.228374 0.042481 0.034760
0.250808 0.044668 0.036734
0.274328 0.046904 0.038753
0.298866 0.049191 0.040818
0.324336 0.051528 0.042930
0.350636 0.053918 0.045090
0.377649 0.056360 0.047300
0.405241 0.058857 0.049560
0.433268 0.061409 0.051870
0.461579 0.064017 0.054233
0.490016 0.066682 0.056649
0.518417 0.069405 0.059119
0.519859 0.069545 0.059246
0.519859 0.069545 0.059246
0.010092 0.019691 0.010092
0.010432 0.019808 0.010187
0.017169 0.022005 0.011987
0.024038 0.024038 0.013654
0.031446 0.026046 0.015302
0.039515 0.028060 0.016956
0.048327 0.030094 0.018626
0.057953 0.032154 0.020321
0.068459 0.034246 0.022043
0.079905 0.036375 0.023796
0.092349 0.038544 0.025584
0.105843 0.040754 0.027407
0.120435 0.043008 0.029268
0.136165 0.045308 0.031169
0.153063 0.047656 0.033111
0.171150 0.050053 0.035095
0.190436 0.052500 0.037123
0.210914 0.055000 0.039196
0.232565 0.057552 0.041315
0.255350 0.060159 0.043481
0.279214 0.062822 0.045696
0.304086 0.065541 0.047960
0.329873 0.068318 0.050275
0.356470 0.071154 0.052641
0.383753 0.074050 0.055060
0.411584 0.077007 0.057533
0.439815 0.080026 0.060060
0.468292 0.083107 0.062642
0.496852 0.086253 0.065281
0.525335 0.089463 0.067978
0.553582 0.092738 0.070733
0.555011 0.092907 0.070875
0.555011 0.092907 0.070875
0.015431 0.031617 0.015430
0.015812 0.031760 0.015538
0.023375 0.034438 0.017560
0.031072 0.036915 0.019431
0.039359 0.039359 0.021281
0.048367 0.041808 0.023136
0.058184 0.044278 0.025010
0.068883 0.046779 0.026909
0.080529 0.049316 0.028838
0.093183 0.051894 0.030802
0.106899 0.054518 0.032803
0.121724 0.057190 0.034843
0.137699 0.059912 0.036925
0.154855 0.062687 0.039050
0.173210 0.065516 0.041219
0.192771 0.068401 0.043435
0.213532 0.071344 0.045699
0.235468 0.074346 0.048011
0.258539 0.077408 0.050374
0.282686 0.080532 0.052788
0.307833 0.083718 0.055255
0.333884 0.086969 0.057775
0.360729 0.090284 0.060351
0.388239 0.093665 0.062982
0.416275 0.097113 0.065670
0.444684 0.100629 0.068416
0.473308 0.104214 0.071220
0.501984 0.107868 0.074085
0.530548 0.111592 0.077010
0.558842 0.115388 0.079997
0.586712 0.119255 0.083046
0.588116 0.119454 0.083203
0.588116 0.119454 0.083203
0.021235 0.045649 0.021235
0.021662 0.045822 0.021355
0.030110 0.049051 0.023615
0.038692 0.052034 0.025706
0.047914 0.054974 0.027772
0.057917 0.057917 0.029843
0.068793 0.060881 0.031934
0.080616 0.063879 0.034052
0.093452 0.066918 0.036203
0.107357 0.070003 0.038391
0.122381 0.073138 0.040620
0.138564 0.076326 0.042891
0.155937 0.079571 0.045207
0.174518 0.082875 0.047570
0.194315 0.086239 0.049981
0.215316 0.089665 0.052443
0.237497 0.093156 0.054956
0.260815 0.096711 0.057522
0.285207 0.100333 0.060142
0.310594 0.104023 0.062818
0.336877 0.107782 0.065551
0.363942 0.111611 0.068341
0.391657 0.115511 0.071190
0.419878 0.119482 0.074099
0.448450 0.123526 0.077069
0.477214 0.127642 0.080101
0.506002 0.131833 0.083195
0.534651 0.136098 0.086354
0.563001 0.140439 0.089577
0.590898 0.144854 0.092866
0.618200 0.149346 0.096222
0.619571 0.149577 0.096394
0.619571 0.149577 0.096394
0.027567 0.062112 0.027567
0.028042 0.062318 0.027701
0.037442 0.066171 0.030217
0.046972 0.069725 0.032545
0.057190 0.073224 0.034843
0.068247 0.076722 0.037146
0.080241 0.080241 0.039469
0.093243 0.083794 0.041821
0.107318 0.087392 0.044210
0.122517 0.091039 0.046638
0.138883 0.094741 0.049109
0.156446 0.098501 0.051626
0.175227 0.102322 0.054192
0.195229 0.106206 0.056808
0.216443 0.110156 0.059477
0.238840 0.114173 0.062199
0.262377 0.118259 0.064977
0.286988 0.122415 0.067811
0.312591 0.126643 0.070704
0.339085 0.130942 0.073656
0.366351 0.135316 0.076669
0.394255 0.139763 0.079743
0.422650 0.144285 0.082880
0.451379 0.148882 0.086080
0.480278 0.153555 0.089346
0.509180 0.158304 0.092677
0.537919 0.163130 0.096075
0.566333 0.168033 0.099540
0.594271 0.173013 0.103074
0.621589 0.178070 0.106677
0.648159 0.183205 0.110350
0.649490 0.183468 0.110538
0.649490 0.183468 0.110538
0.034481 0.081317 0.034481
0.035009 0.081560 0.034630
0.045431 0.086111 0.037422
0.055973 0.090301 0.040004
0.067251 0.094422 0.042551
0.079425 0.098533 0.045102
0.092594 0.102664 0.047675
0.106829 0.106829 0.050278
0.122190 0.111039 0.052920
0.138721 0.115302 0.055604
0.156457 0.119621 0.058334
0.175415 0.124000 0.061114
0.195603 0.128444 0.063945
0.217007 0.132955 0.066830
0.239601 0.137534 0.069771
0.263336 0.142183 0.072770
0.288148 0.146903 0.075827
0.313950 0.151697 0.078945
0.340639 0.156564 0.082125
0.368094 0.161505 0.085368
0.396177 0.166522 0.088675
0.424739 0.171614 0.092048
0.453620 0.176782 0.095486
0.482654 0.182027 0.098993
0.511672 0.187347 0.102567
0.540507 0.192744 0.106210
0.568996 0.198217 0.109924
0.596987 0.203765 0.113708
0.624336 0.209390 0.117564
0.650917 0.215089 0.121491
0.676618 0.220864 0.125492
0.677901 0.221160 0.125698
0.677901 0.221160 0.125698
0.042029 0.103560 0.042029
0.042613 0.103844 0.042194
0.054130 0.109162 0.045283
0.065753 0.114050 0.048136
0.078155 0.118847 0.050951
0.091507 0.123626 0.053768
0.105907 0.128420 0.056607
0.121425 0.133245 0.059478
0.138114 0.138114 0.062390
0.156008 0.143034 0.065346
0.175131 0.148011 0.068352
0.195488 0.153049 0.071410
0.217068 0.158151 0.074523
0.239842 0.163320 0.077693
0.263762 0.168558 0.080922
0.288760 0.173866 0.084212
0.314748 0.179245 0.087565
0.341622 0.184697 0.090981
0.369256 0.190222 0.094463
0.397512 0.195819 0.098011
0.426237 0.201490 0.101627
0.455269 0.207235 0.105311
0.484440 0.213053 0.109065
0.513578 0.218944 0.112889
0.542517 0.224908 0.116784
0.571090 0.230945 0.120752
0.599146 0.237053 0.124792
0.626541 0.243232 0.128906
0.653149 0.249480 0.133093
0.678859 0.255798 0.137356
0.703579 0.262184 0.141693
0.704809 0.262511 0.141916
0.704809 0.262511 0.141916
0.050261 0.129100 0.050261
0.050906 0.129429 0.050443
0.063594 0.135574 0.053850
0.076364 0.141209 0.056994
0.089954 0.146730 0.060094
0.104542 0.152220 0.063195
0.120227 0.157714 0.066318
0.137072 0.163235 0.069474
0.155121 0.168794 0.072672
0.174400 0.174400 0.075918
0.194917 0.180060 0.079216
0.216662 0.185778 0.082568
0.239605 0.191558 0.085978
0.263697 0.197400 0.089449
0.288871 0.203308 0.092982
0.315037 0.209282 0.096578
0.342087 0.215324 0.100240
0.369896 0.221433 0.103969
0.398320 0.227610 0.107767
0.427207 0.233856 0.111633
0.456391 0.240169 0.115570
0.485702 0.246549 0.119579
0.514967 0.252995 0.123659
0.544016 0.259508 0.127813
0.572684 0.266085 0.132040
0.600817 0.272727 0.136342
0.628273 0.279430 0.140718
0.654924 0.286195 0.145171
0.680660 0.293020 0.149699
0.705389 0.299903 0.154303
0.729039 0.306843 0.158984
0.730213 0.307198 0.159224
0.730213 0.307198 0.159224
0.059228 0.158140 0.059228
0.059937 0.158516 0.059428
0.073872 0.165531 0.063174
0.087857 0.171949 0.066629
0.102697 0.178223 0.070032
0.118576 0.184448 0.073435
0.135591 0.190664 0.076858
0.153798 0.196896 0.080317
0.173232 0.203158 0.083819
0.193905 0.209460 0.087370
0.215807 0.215807 0.090975
0.238912 0.222205 0.094637
0.263171 0.228656 0.098360
0.288514 0.235163 0.102146
0.314851 0.241728 0.105996
0.342073 0.248351 0.109913
0.370052 0.255032 0.113898
0.398645 0.261772 0.117953
0.427693 0.268571 0.122078
0.457031 0.275428 0.126275
0.486487 0.282342 0.130545
0.515885 0.289312 0.134889
0.545053 0.296337 0.139306
0.573827 0.303416 0.143799
0.602050 0.310547 0.148367
0.629580 0.317728 0.153011
0.656288 0.324959 0.157731
0.682067 0.332236 0.162528
0.706824 0.339558 0.167402
0.730487 0.346923 0.172353
0.753003 0.354329 0.177381
0.754118 0.354707 0.177639
0.754118 0.354707 0.177639
0.068978 0.190794 0.068978
0.069755 0.191219 0.069197
0.085013 0.199124 0.073304
0.100279 0.206338 0.077089
0.116425 0.213372 0.080814
0.133644 0.220333 0.084535
0.152027 0.227269 0.088277
0.171624 0.234205 0.092054
0.192453 0.241157 0.095875
0.214513 0.248136 0.099747
0.237777 0.255148 0.103675
0.262198 0.262198 0.107662
0.287706 0.269289 0.111712
0.314212 0.276424 0.115826
0.341604 0.283604 0.120008
0.369753 0.290828 0.124258
0.398514 0.298098 0.128578
0.427726 0.305413 0.132970
0.457223 0.312772 0.137434
0.486829 0.320174 0.141971
0.516367 0.327618 0.146583
0.545665 0.335102 0.151270
0.574555 0.342625 0.156032
0.602880 0.350186 0.160871
0.630498 0.357781 0.165786
0.657280 0.365409 0.170777
0.683117 0.373068 0.175846
0.707918 0.380755 0.180991
0.731611 0.388468 0.186214
0.754145 0.396204 0.191513
0.775484 0.403961 0.196889
0.776538 0.404357 0.197165
0.776538 0.404357 0.197165
0.079560 0.227065 0.079559
0.080409 0.227538 0.079799
0.097064 0.236323 0.084288
0.113670 0.244317 0.088421
0.131175 0.252090 0.092486
0.149775 0.259761 0.096542
0.169555 0.267384 0.100619
0.190554 0.274986 0.104730
0.212776 0.282586 0.108886
0.236202 0.290195 0.113093
0.260786 0.297819 0.117358
0.286460 0.305465 0.121683
0.313134 0.313134 0.126072
0.340696 0.320829 0.130527
0.369016 0.328551 0.135051
0.397947 0.336300 0.139645
0.427328 0.344076 0.144310
0.456988 0.351879 0.149048
0.486751 0.359706 0.153859
0.516439 0.367558 0.158745
0.545876 0.375432 0.163706
0.574894 0.383326 0.168742
0.603335 0.391239 0.173854
0.631054 0.399168 0.179043
0.657924 0.407111 0.184308
0.683835 0.415065 0.189649
0.708696 0.423029 0.195067
0.732437 0.430999 0.200560
0.755005 0.438972 0.206130
0.776366 0.446947 0.211775
0.796505 0.454920 0.217496
0.797497 0.455326 0.217789
0.797497 0.455326 0.217789
0.091018 0.266816 0.091018
0.091945 0.267334 0.091279
0.110065 0.276953 0.096170
0.128069 0.285677 0.100670
0.146976 0.294134 0.105091
0.166988 0.302457 0.109499
0.188182 0.310702 0.113925
0.210583 0.318903 0.118384
0.234180 0.327076 0.122888
0.258933 0.335236 0.127444
0.284776 0.343389 0.132058
0.311621 0.351541 0.136732
0.339357 0.359694 0.141472
0.367852 0.367852 0.146278
0.396958 0.376014 0.151153
0.426512 0.384181 0.156099
0.456344 0.392353 0.161117
0.486272 0.400529 0.166207
0.516119 0.408707 0.171372
0.545707 0.416886 0.176611
0.574865 0.425064 0.181924
0.603434 0.433240 0.187313
0.631269 0.441410 0.192777
0.658242 0.449574 0.198316
0.684243 0.457727 0.203931
0.709180 0.465869 0.209620
0.732984 0.473995 0.215384
0.755602 0.482105 0.221222
0.777002 0.490194 0.227134
0.797169 0.498261 0.233119
0.816101 0.506303 0.239176
0.817032 0.506712 0.239487
0.817032 0.506712 0.239487
0.103397 0.309751 0.103396
0.104404 0.310311 0.103681
0.124056 0.320677 0.108993
0.143505 0.330046 0.113876
0.163850 0.339099 0.118668
0.185293 0.347980 0.123443
0.207904 0.356752 0.128232
0.231691 0.365449 0.133052
0.256626 0.374091 0.137916
0.282648 0.382692 0.142832
0.309672 0.391260 0.147804
0.337587 0.399801 0.152837
0.366264 0.408318 0.157935
0.395552 0.416813 0.163100
0.425288 0.425288 0.168333
0.455298 0.433742 0.173637
0.485403 0.442176 0.179011
0.515419 0.450588 0.184458
0.545169 0.458977 0.189978
0.574480 0.467343 0.195572
0.603192 0.475682 0.201238
0.631158 0.483994 0.206979
0.658250 0.492275 0.212792
0.684356 0.500525 0.218679
0.709385 0.508741 0.224639
0.733268 0.516920 0.230671
0.755952 0.525060 0.236775
0.777407 0.533159 0.242949
0.797616 0.541214 0.249194
0.816581 0.549224 0.255508
0.834315 0.557185 0.261890
0.835186 0.557589 0.262216
0.835186 0.557589 0.262216
0.116736 0.355412 0.116735
0.117827 0.356007 0.117043
0.139067 0.366994 0.122795
0.160001 0.376888 0.128075
0.181806 0.386416 0.133253
0.204688 0.395732 0.138406
0.228702 0.404904 0.143569
0.253843 0.413968 0.148761
0.280061 0.422946 0.153995
0.307276 0.431853 0.159278
0.335383 0.440698 0.164617
0.364250 0.449488 0.170015
0.393729 0.458226 0.175477
0.423657 0.466914 0.181004
0.453857 0.475555 0.186599
0.484148 0.484148 0.192262
0.514347 0.492695 0.197995
0.544272 0.501193 0.203799
0.573750 0.509643 0.209673
0.602619 0.518043 0.215619
0.630732 0.526392 0.221635
0.657957 0.534688 0.227722
0.684184 0.542929 0.233879
0.709322 0.551115 0.240106
0.733300 0.559242 0.246402
0.756067 0.567310 0.252767
0.777591 0.575316 0.259199
0.797858 0.583258 0.265697
0.816870 0.591135 0.272261
0.834642 0.598945 0.278888
0.851201 0.606685 0.285578
0.852012 0.607077 0.285920
0.852012 0.607077 0.285920
0.131069 0.403187 0.131068
0.132246 0.403808 0.131401
0.155124 0.415255 0.137607
0.177571 0.425524 0.143298
0.200847 0.435378 0.148872
0.225156 0.444980 0.154413
0.250545 0.454401 0.159959
0.276987 0.463681 0.165531
0.304415 0.472843 0.171140
0.332729 0.481903 0.176797
0.361801 0.490872 0.182506
0.391486 0.499755 0.188273
0.421617 0.508559 0.194101
0.452020 0.517286 0.199992
0.482511 0.525938 0.205948
0.512906 0.534516 0.211970
0.543020 0.543020 0.218058
0.572681 0.551452 0.224214
0.601722 0.559810 0.230438
0.629997 0.568094 0.236728
0.657372 0.576303 0.243086
0.683737 0.584436 0.249511
0.708999 0.592492 0.256001
0.733088 0.600470 0.262556
0.755953 0.608368 0.269176
0.777563 0.616186 0.275859
0.797904 0.623923 0.282603
0.816977 0.631576 0.289407
0.834800 0.639145 0.296271
0.851400 0.646629 0.303192
0.866814 0.654027 0.310168
0.867568 0.654401 0.310525
0.867568 0.654401 0.310525
0.146425 0.452338 0.146424
0.147692 0.452975 0.146782
0.172242 0.464693 0.153454
0.196217 0.475164 0.159566
0.220958 0.485177 0.165545
0.246670 0.494898 0.171482
0.273385 0.504405 0.177416
0.301059 0.513737 0.183371
0.329604 0.522921 0.189360
0.358903 0.531974 0.195392
0.388809 0.540906 0.201473
0.419161 0.549726 0.207608
0.449782 0.558439 0.213800
0.480489 0.567049 0.220052
0.511094 0.575559 0.226364
0.541415 0.583971 0.232739
0.571273 0.592286 0.239176
0.600504 0.600504 0.245676
0.628958 0.608627 0.252239
0.656500 0.616655 0.258864
0.683020 0.624587 0.265551
0.708423 0.632424 0.272299
0.732640 0.640164 0.279107
0.755619 0.647808 0.285974
0.777330 0.655355 0.292899
0.797758 0.662804 0.299880
0.816908 0.670156 0.306916
0.834796 0.677410 0.314005
0.851450 0.684565 0.321145
0.866909 0.691621 0.328334
0.881219 0.698577 0.335571
0.881918 0.698929 0.335941
0.881918 0.698929 0.335941
0.162824 0.502043 0.162823
0.164182 0.502685 0.163207
0.190429 0.514471 0.170355
0.215931 0.524961 0.176894
0.242115 0.534956 0.183282
0.269185 0.544626 0.189618
0.297159 0.554050 0.195944
0.325975 0.563272 0.202283
0.355528 0.572317 0.208650
0.385681 0.581204 0.215056
0.416274 0.589946 0.221505
0.447133 0.598550 0.228004
0.478073 0.607025 0.234554
0.508908 0.615374 0.241159
0.539452 0.623601 0.247819
0.569527 0.631710 0.254536
0.598965 0.639702 0.261311
0.627615 0.647579 0.268142
0.655343 0.655343 0.275029
0.682034 0.662994 0.281973
0.707596 0.670533 0.288972
0.731958 0.677960 0.296025
0.755068 0.685277 0.303131
0.776895 0.692484 0.310289
0.797427 0.699581 0.317496
0.816668 0.706568 0.324752
0.834634 0.713447 0.332053
0.851355 0.720216 0.339400
0.866871 0.726877 0.346788
0.881229 0.733430 0.354217
0.894481 0.739875 0.361683
0.895127 0.740200 0.362064
0.895127 0.740200 0.362064
0.180280 0.551449 0.180279
0.181730 0.552085 0.180689
0.209680 0.563734 0.188318
0.236692 0.574062 0.195285
0.264279 0.583866 0.202084
0.292644 0.593321 0.208819
0.321790 0.602504 0.215533
0.351641 0.611461 0.222253
0.382073 0.620218 0.228995
0.412935 0.628796 0.235767
0.444056 0.637208 0.242577
0.475253 0.645463 0.249429
0.506338 0.653570 0.256328
0.537126 0.661533 0.263274
0.567437 0.669358 0.270269
0.597102 0.677049 0.277314
0.625968 0.684608 0.284408
0.653900 0.692039 0.291553
0.680782 0.699342 0.298746
0.706521 0.706521 0.305988
0.731044 0.713576 0.313277
0.754302 0.720510 0.320612
0.776262 0.727323 0.327991
0.796913 0.734017 0.335413
0.816259 0.740593 0.342876
0.834317 0.747052 0.350377
0.851118 0.753395 0.357915
0.866703 0.759624 0.365487
0.881120 0.765739 0.373092
0.894422 0.771741 0.380727
0.906667 0.777632 0.388389
0.907263 0.777929 0.388779
0.907263 0.777929 0.388779
0.198794 0.599732 0.198793
0.200336 0.600351 0.199229
0.229978 0.611670 0.207338
0.258464 0.621668 0.214733
0.287395 0.631127 0.221940
0.316972 0.640217 0.229067
0.347186 0.649019 0.236164
0.377946 0.657576 0.243257
0.409115 0.665918 0.250363
0.440529 0.674065 0.257491
0.472009 0.682031 0.264650
0.503371 0.689827 0.271842
0.534426 0.697461 0.279073
0.564995 0.704940 0.286343
0.594909 0.712269 0.293655
0.624012 0.719453 0.301008
0.652168 0.726497 0.308402
0.679260 0.733402 0.315837
0.705195 0.740173 0.323313
0.729899 0.746813 0.330827
0.753322 0.753322 0.338380
0.775432 0.759704 0.345968
0.796218 0.765961 0.353591
0.815683 0.772094 0.361247
0.833848 0.778106 0.368933
0.850743 0.783998 0.376647
0.866409 0.789773 0.384388
0.880895 0.795431 0.392151
0.894257 0.800974 0.399936
0.906553 0.806404 0.407740
0.917845 0.811723 0.415559
0.918394 0.811991 0.415957
0.918394 0.811991 0.415957
0.218357 0.646147 0.218356
0.219991 0.646740 0.218818
0.251294 0.657562 0.227402
0.281199 0.667085 0.235219
0.311394 0.676065 0.242824
0.342081 0.684669 0.250335
0.373241 0.692974 0.257803
0.404769 0.701025 0.265256
0.436518 0.708851 0.272712
0.468317 0.716472 0.280181
0.499985 0.723904 0.287670
0.531336 0.731158 0.295184
0.562189 0.738243 0.302727
0.592376 0.745167 0.310300
0.621739 0.751935 0.317904
0.650141 0.758553 0.325541
0.677465 0.765026 0.333208
0.703616 0.771358 0.340907
0.728520 0.777552 0.348636
0.752127 0.783612 0.356394
0.774404 0.789541 0.364178
0.795341 0.795341 0.371989
0.814942 0.801015 0.379822
0.833227 0.806566 0.387677
0.850229 0.811997 0.395551
0.865988 0.817308 0.403442
0.880557 0.822503 0.411347
0.893989 0.827584 0.419264
0.906346 0.832553 0.427189
0.917689 0.837412 0.435122
0.928083 0.842162 0.443058
0.928587 0.842401 0.443462
0.928587 0.842401 0.443462
0.238948 0.690073 0.238947
0.240672 0.690633 0.239434
0.273584 0.700821 0.248483
0.304833 0.709756 0.256708
0.336193 0.718155 0.264699
0.367870 0.726179 0.272579
0.399837 0.733902 0.280402
0.431979 0.741368 0.288197
0.464143 0.748607 0.295984
0.496155 0.755638 0.303772
0.527834 0.762478 0.311569
0.559002 0.769137 0.319381
0.589489 0.775626 0.327211
0.619138 0.781952 0.335060
0.647812 0.788122 0.342930
0.675391 0.794142 0.350821
0.701779 0.800017 0.358732
0.726905 0.805752 0.366662
0.750714 0.811351 0.374612
0.773177 0.816817 0.382578
0.794282 0.822154 0.390560
0.814034 0.827366 0.398556
0.832455 0.832455 0.406563
0.849577 0.837424 0.414579
0.865443 0.842277 0.422602
0.880104 0.847014 0.430630
0.893618 0.851641 0.438659
0.906046 0.856157 0.446688
0.917450 0.860567 0.454713
0.927895 0.864872 0.462732
0.937445 0.869075 0.470743
0.937909 0.869286 0.471150
0.937909 0.869286 0.471150
0.260533 0.731036 0.260531
0.262343 0.731557 0.261043
0.296791 0.741012 0.270539
0.329287 0.749279 0.279157
0.361696 0.757027 0.287514
0.394226 0.764409 0.295742
0.426846 0.771496 0.303898
0.459437 0.778330 0.312013
0.491843 0.784940 0.320105
0.523893 0.791345 0.328187
0.555412 0.797561 0.336266
0.586232 0.803600 0.344347
0.616197 0.809472 0.352434
0.645168 0.815184 0.360528
0.673027 0.820744 0.368631
0.699678 0.826158 0.376743
0.725045 0.831432 0.384862
0.749079 0.836570 0.392989
0.771746 0.841577 0.401123
0.793038 0.846456 0.409260
0.812958 0.851212 0.417401
0.831530 0.855847 0.425543
0.848787 0.860367 0.433683
0.864772 0.864772 0.441820
0.879539 0.869067 0.449951
0.893145 0.873255 0.458073
0.905653 0.877337 0.466185
0.917127 0.881317 0.474283
0.927632 0.885197 0.482364
0.937234 0.888979 0.490427
0.945998 0.892667 0.498468
0.946423 0.892852 0.498876
0.946423 0.892852 0.498876
0.283063 0.768719 0.283061
0.284956 0.769197 0.283597
0.320843 0.777859 0.293517
0.354471 0.785410 0.302502
0.387792 0.792469 0.311203
0.421024 0.799177 0.319754
0.454133 0.805602 0.328216
0.487001 0.811784 0.336622
0.519474 0.817749 0.344991
0.551388 0.823518 0.353336
0.582579 0.829105 0.361664
0.612894 0.834522 0.369982
0.642195 0.839779 0.378291
0.670362 0.844883 0.386596
0.697301 0.849842 0.394895
0.722935 0.854663 0.403190
0.747215 0.859350 0.411480
0.770108 0.863909 0.419764
0.791605 0.868344 0.428041
0.811712 0.872660 0.436310
0.830450 0.876859 0.444568
0.847856 0.880947 0.452814
0.863975 0.884925 0.461046
0.878859 0.888799 0.469260
0.892569 0.892569 0.477456
0.905168 0.896240 0.485630
0.916721 0.899815 0.493780
0.927295 0.903295 0.501903
0.936956 0.906683 0.509997
0.945771 0.909983 0.518059
0.953801 0.913195 0.526087
0.954190 0.913356 0.526495
0.954190 0.913356 0.526495
0.306476 0.802958 0.306475
0.308446 0.803391 0.307032
0.345653 0.811233 0.317346
0.380279 0.818051 0.326671
0.414362 0.824410 0.335685
0.448131 0.830439 0.344528
0.481557 0.836201 0.353265
0.514526 0.841734 0.361929
0.546892 0.847063 0.370541
0.578502 0.852206 0.379114
0.609207 0.857178 0.387656
0.638872 0.861991 0.396172
0.667381 0.866652 0.404667
0.694636 0.871172 0.413142
0.720564 0.875555 0.421598
0.745114 0.879810 0.430036
0.768255 0.883940 0.438456
0.789978 0.887951 0.446855
0.810289 0.891848 0.455234
0.829212 0.895634 0.463591
0.846784 0.899314 0.471923
0.863049 0.902890 0.480230
0.878065 0.906367 0.488509
0.891890 0.909748 0.496757
0.904589 0.913035 0.504973
0.916231 0.916231 0.513155
0.926882 0.919339 0.521299
0.936611 0.922363 0.529404
0.945483 0.925303 0.537467
0.953563 0.928163 0.545486
0.960913 0.930945 0.553458
0.961269 0.931084 0.553862
0.961269 0.931084 0.553862
0.330696 0.833721 0.330695
0.332737 0.834109 0.331272
0.371124 0.841134 0.341945
0.406595 0.847228 0.351575
0.441276 0.852898 0.360867
0.475410 0.858265 0.369968
0.508976 0.863384 0.378943
0.541870 0.868290 0.387828
0.573958 0.873007 0.396645
0.605103 0.877552 0.405406
0.635176 0.881939 0.414122
0.664062 0.886178 0.422797
0.691667 0.890278 0.431435
0.717919 0.894247 0.440039
0.742766 0.898092 0.448610
0.766180 0.901818 0.457148
0.788150 0.905430 0.465653
0.808686 0.908934 0.474125
0.827812 0.912334 0.482561
0.845565 0.915633 0.490962
0.861993 0.918835 0.499325
0.877152 0.921944 0.507648
0.891105 0.924963 0.515930
0.903917 0.927895 0.524168
0.915657 0.930743 0.532361
0.926394 0.933510 0.540506
