Mimicamera/Resources/CuratedLUTs/bleach-bypass.cube
# Mimicamera generated LUT
TITLE "Bleach Bypass"
LUT_3D_SIZE 5
DOMAIN_MIN 0.0 0.0 0.0
DOMAIN_MAX 1.0 1.0 1.0
0.000001 0.000001 0.000001
0.045149 0.009142 0.009142
0.143766 0.020752 0.020752
0.313034 0.034673 0.034672
0.478061 0.047047 0.047046
0.042029 0.103560 0.042029
0.138114 0.138114 0.062390
0.314748 0.179245 0.087565
0.542517 0.224908 0.116784
0.704809 0.262511 0.141916
0.131069 0.403187 0.131068
0.304415 0.472843 0.171140
0.543020 0.543020 0.218058
0.755953 0.608368 0.269176
0.867568 0.654401 0.310525
0.283063 0.768719 0.283061
0.519474 0.817749 0.344991
0.747215 0.859350 0.411480
0.892569 0.892569 0.477456
0.954190 0.913356 0.526495
0.435043 0.925572 0.435041
0.677485 0.948330 0.505440
0.857122 0.966414 0.575227
0.951935 0.980116 0.639206
0.988378 0.988378 0.683705
0.002986 0.002986 0.035684
0.052113 0.012966 0.054433
0.158006 0.025618 0.077707
0.335363 0.040750 0.104849
0.503130 0.054169 0.128307
0.048731 0.115065 0.118869
0.151988 0.151988 0.156556
0.337131 0.195635 0.201005
0.567325 0.243708 0.249833
0.725765 0.282996 0.289640
0.144479 0.427628 0.272696
0.326463 0.497901 0.333578
0.567825 0.567825 0.399315
0.774769 0.632159 0.464930
0.880215 0.677036 0.513950
0.304355 0.786933 0.481773
0.544461 0.833401 0.552322
0.766427 0.872521 0.620646
0.903558 0.903558 0.681922
0.960665 0.922890 0.723795
0.459874 0.934218 0.643224
0.699404 0.955259 0.706175
0.870433 0.971922 0.762648
0.958586 0.984513 0.809922
0.992090 0.992090 0.840549
0.006247 0.006247 0.106792
0.059655 0.017136 0.142020
0.173138 0.030911 0.183873
0.358354 0.047344 0.230232
0.528186 0.061879 0.268327
0.055993 0.127385 0.253211
0.166748 0.166748 0.311956
0.360171 0.212936 0.376071
0.591840 0.263384 0.440788
0.745896 0.304286 0.489617
0.158765 0.452386 0.469238
0.349202 0.522969 0.539854
0.592332 0.592332 0.608669
0.792687 0.655398 0.670745
0.892036 0.698970 0.713361
0.326401 0.804240 0.685729
0.569251 0.848152 0.744712
0.784750 0.884847 0.796618
0.913785 0.913785 0.839355
0.966630 0.931732 0.866704
0.484884 0.942221 0.812760
0.720560 0.961650 0.855370
0.882895 0.976987 0.890848
0.964715 0.988546 0.918745
0.995491 0.995491 0.936010
0.009807 0.009807 0.233455
0.067810 0.021680 0.289802
0.189175 0.036664 0.351982
0.381932 0.054491 0.415481
0.553117 0.070213 0.463887
0.063852 0.140550 0.445063
0.182408 0.182408 0.515587
0.383791 0.231143 0.585147
0.615957 0.283904 0.648612
0.765167 0.326330 0.692583
0.173943 0.477353 0.674612
0.372558 0.547935 0.734709
0.616440 0.616440 0.787859
0.809697 0.678004 0.831808
0.903061 0.720142 0.860022
0.349138 0.820637 0.841901
0.593737 0.862018 0.879844
0.802169 0.896358 0.911052
0.923288 0.923288 0.935349
0.972121 0.939922 0.950280
0.509961 0.949620 0.920372
0.740903 0.967538 0.944148
0.894537 0.981640 0.963083
0.970359 0.992244 0.977452
0.998605 0.998605 0.986126
0.011623 0.011623 0.316299
0.071938 0.023994 0.381169
0.197167 0.039589 0.449573
0.393391 0.058116 0.516211
0.564964 0.074431 0.564964
0.067832 0.147151 0.546208
0.190219 0.190219 0.615192
0.395267 0.240167 0.679945
0.627323 0.294006 0.736373
0.774071 0.337121 0.774071
0.181522 0.489337 0.758798
0.383923 0.559806 0.809167
0.627801 0.627801 0.852088
0.817511 0.688571 0.886483
0.908062 0.729983 0.908062
0.360235 0.828157 0.894247
0.605311 0.868342 0.922995
0.810178 0.901585 0.946132
0.927587 0.927587 0.963838
0.974589 0.943619 0.974589
0.521945 0.952955 0.952955
0.750333 0.970186 0.970186
0.899824 0.983728 0.983728
0.972896 0.993902 0.993902
1.000000 1.000000 1.000000
