Mimicamera/Resources/CuratedLUTs/bleach-bypass.cube
# Mimicamera generated LUT
TITLE "Bleach Bypass"
LUT_3D_SIZE 9
DOMAIN_MIN 0.0 0.0 0.0
DOMAIN_MAX 1.0 1.0 1.0
0.000001 0.000001 0.000001
0.016372 0.003980 0.003980
0.045149 0.009142 0.009142
0.086447 0.014695 0.014694
0.143766 0.020752 0.020752
0.219418 0.027390 0.027390
0.313034 0.034673 0.034672
0.420299 0.042659 0.042659
0.478061 0.047047 0.047046
0.015431 0.031617 0.015430
0.039359 0.039359 0.021281
0.080529 0.049316 0.028838
0.137699 0.059912 0.036925
0.213532 0.071344 0.045699
0.307833 0.083718 0.055255
0.416275 0.097113 0.065670
0.530548 0.111592 0.077010
0.588116 0.119454 0.083203
0.042029 0.103560 0.042029
0.078155 0.118847 0.050951
0.138114 0.138114 0.062390
0.217068 0.158151 0.074523
0.314748 0.179245 0.087565
0.426237 0.201490 0.101627
0.542517 0.224908 0.116784
0.653149 0.249480 0.133093
0.704809 0.262511 0.141916
0.079560 0.227065 0.079559
0.131175 0.252090 0.092486
0.212776 0.282586 0.108886
0.313134 0.313134 0.126072
0.427328 0.344076 0.144310
0.545876 0.375432 0.163706
0.657924 0.407111 0.184308
0.755005 0.438972 0.206130
0.797497 0.455326 0.217789
0.131069 0.403187 0.131068
0.200847 0.435378 0.148872
0.304415 0.472843 0.171140
0.421617 0.508559 0.194101
0.543020 0.543020 0.218058
0.657372 0.576303 0.243086
0.755953 0.608368 0.269176
0.834800 0.639145 0.296271
0.867568 0.654401 0.310525
0.198794 0.599732 0.198793
0.287395 0.631127 0.221940
0.409115 0.665918 0.250363
0.534426 0.697461 0.279073
0.652168 0.726497 0.308402
0.753322 0.753322 0.338380
0.833848 0.778106 0.368933
0.894257 0.800974 0.399936
0.918394 0.811991 0.415957
0.283063 0.768719 0.283061
0.387792 0.792469 0.311203
0.519474 0.817749 0.344991
0.642195 0.839779 0.378291
0.747215 0.859350 0.411480
0.830450 0.876859 0.444568
0.892569 0.892569 0.477456
0.936956 0.906683 0.509997
0.954190 0.913356 0.526495
0.381189 0.885222 0.381188
0.495596 0.900154 0.412901
0.626524 0.915628 0.450019
0.737272 0.928771 0.485615
0.824499 0.940191 0.520156
0.889209 0.950209 0.553701
0.935166 0.959043 0.586193
0.966858 0.966858 0.617540
0.978915 0.970513 0.633138
0.435043 0.925572 0.435041
0.551008 0.936800 0.467717
0.677485 0.948330 0.505440
0.779619 0.958039 0.541098
0.857122 0.966414 0.575227
0.913026 0.973715 0.607932
0.951935 0.980116 0.639206
0.978392 0.985751 0.669009
0.988378 0.988378 0.683705
0.001460 0.001460 0.014629
0.018562 0.005619 0.020384
0.048562 0.011013 0.027820
0.091477 0.016811 0.035778
0.150775 0.023133 0.044415
0.228572 0.030058 0.053826
0.324111 0.037649 0.064085
0.432599 0.045969 0.075260
0.490591 0.050537 0.081365
0.017579 0.034464 0.036830
0.042532 0.042532 0.045167
0.085337 0.052898 0.055871
0.144514 0.063921 0.067245
0.222538 0.075801 0.079492
0.318824 0.088646 0.092723
0.428548 0.102535 0.107015
0.543029 0.117528 0.122429
0.600262 0.125661 0.130782
0.045312 0.109212 0.074381
0.082872 0.125034 0.086778
0.144941 0.144941 0.102528
0.226163 0.165609 0.119061
0.325853 0.187326 0.136637
0.438574 0.210184 0.155363
0.554951 0.234197 0.175293
0.664568 0.259339 0.196447
0.715387 0.272650 0.207768
0.084331 0.236406 0.125872
0.137776 0.262006 0.143216
0.221763 0.293126 0.164940
0.324212 0.324212 0.187376
0.439672 0.355614 0.210825
0.558296 0.387347 0.235364
0.669275 0.419316 0.260992
0.764545 0.451379 0.287657
0.805990 0.467801 0.301706
0.137666 0.415362 0.193837
0.209523 0.447767 0.216633
0.315349 0.485364 0.244664
0.433926 0.521090 0.273019
0.555453 0.555453 0.302029
0.668731 0.588541 0.331726
0.765472 0.620327 0.362042
0.842246 0.650752 0.392853
0.873997 0.665802 0.408795
0.207415 0.611775 0.278745
0.298025 0.642833 0.306675
0.421335 0.677151 0.340247
0.546893 0.708172 0.373375
0.663600 0.736653 0.406432
0.762901 0.762901 0.439429
0.841322 0.787096 0.472266
0.899790 0.809374 0.504797
0.923065 0.820091 0.521304
0.293611 0.777939 0.377916
0.399831 0.801094 0.409548
0.531985 0.825688 0.446602
0.653762 0.847076 0.482168
0.756930 0.866042 0.516711
0.838024 0.882983 0.550285
0.898161 0.898161 0.582831
0.940931 0.911779 0.614255
0.957493 0.918212 0.629900
0.393164 0.891065 0.485219
0.508136 0.905481 0.518171
0.638285 0.920400 0.555735
0.747204 0.933057 0.590782
0.832246 0.944042 0.623912
0.894916 0.953670 0.655289
0.939210 0.962153 0.684960
0.969651 0.969651 0.712935
0.981211 0.973157 0.726624
0.447430 0.929977 0.540705
0.563403 0.940781 0.573277
0.688536 0.951864 0.609900
0.788571 0.961189 0.643591
0.863885 0.969226 0.675023
0.917894 0.976226 0.704427
0.955328 0.982362 0.731909
0.980709 0.987759 0.757540
0.990275 0.990275 0.769983
0.002986 0.002986 0.035684
0.020847 0.007332 0.043892
0.052113 0.012966 0.054433
0.096692 0.019020 0.065637
0.158006 0.025618 0.077707
0.237949 0.032838 0.090752
0.335363 0.040750 0.104849
0.444973 0.049415 0.120060
0.503130 0.054169 0.128307
0.019822 0.037431 0.067112
0.045836 0.045836 0.078753
0.090325 0.056626 0.093573
0.151547 0.068088 0.109166
0.231769 0.080429 0.125782
0.329993 0.093757 0.143534
0.440899 0.108151 0.162479
0.555461 0.123670 0.182648
0.612301 0.132078 0.193467
0.048731 0.115065 0.118869
0.087768 0.131430 0.135582
0.151988 0.151988 0.156556
0.235483 0.173292 0.178265
0.337131 0.195635 0.201005
0.450979 0.219104 0.224859
0.567325 0.243708 0.249833
0.675820 0.269412 0.275886
0.725765 0.282996 0.289640
0.089281 0.245969 0.187118
0.144592 0.272134 0.209429
0.230975 0.303861 0.236913
0.335466 0.335466 0.264771
0.452082 0.367301 0.293331
0.570652 0.399382 0.322630
0.680456 0.431610 0.352602
0.773863 0.463840 0.383132
0.814254 0.480311 0.398954
0.144479 0.427628 0.272696
0.218426 0.460213 0.300320
0.326463 0.497901 0.333578
0.446307 0.533597 0.366454
0.567825 0.567825 0.399315
0.679920 0.600684 0.432174
0.774769 0.632159 0.464930
0.849469 0.662203 0.497434
0.880215 0.677036 0.513950
0.216264 0.623699 0.373002
0.308847 0.654391 0.404507
0.433642 0.688207 0.441460
0.559308 0.718688 0.476976
0.674867 0.746598 0.511515
0.772258 0.772258 0.545127
0.848572 0.795859 0.577750
0.905130 0.817546 0.609285
0.927564 0.827963 0.624999
0.304355 0.786933 0.481773
0.411978 0.809490 0.514725
0.544461 0.833401 0.552322
0.665171 0.854151 0.587430
0.766427 0.872521 0.620646
0.845374 0.888901 0.652129
0.903558 0.903558 0.681922
0.944754 0.916691 0.710034
0.960665 0.922890 0.723795
0.405253 0.896708 0.590398
0.520668 0.910619 0.622031
0.649903 0.924998 0.657167
0.756920 0.937181 0.689095
0.839767 0.947744 0.718546
0.900426 0.956994 0.745808
0.943099 0.965137 0.771040
0.972330 0.972330 0.794360
0.983410 0.975692 0.805607
0.459874 0.934218 0.643224
0.575728 0.944609 0.673249
0.699404 0.955259 0.706175
0.797297 0.964212 0.735714
0.870433 0.971922 0.762648
0.922583 0.978634 0.787315
0.958586 0.984513 0.809922
0.982929 0.989682 0.830626
0.992090 0.992090 0.840549
0.004581 0.004581 0.065506
0.023232 0.009122 0.076978
0.055810 0.015006 0.091590
0.102098 0.021326 0.106971
0.165459 0.028209 0.123371
0.247547 0.035737 0.140901
0.346780 0.043980 0.159623
0.457407 0.053001 0.179567
0.515667 0.057948 0.190270
0.022163 0.040523 0.108984
0.049277 0.049277 0.124784
0.095498 0.060504 0.144666
0.158801 0.072419 0.165309
0.241222 0.085233 0.187002
0.341333 0.099057 0.209835
0.453315 0.113966 0.233825
0.567833 0.130020 0.258944
0.624219 0.138709 0.272244
0.052290 0.121122 0.178015
0.092847 0.138039 0.199650
0.159256 0.159256 0.226366
0.245024 0.181201 0.253522
0.348574 0.204172 0.281439
0.463438 0.228250 0.310160
0.579626 0.253438 0.339629
0.686899 0.279692 0.369736
0.735936 0.293543 0.385375
0.094416 0.255749 0.264453
0.151628 0.282470 0.291647
0.240410 0.314785 0.324459
0.346885 0.346885 0.356969
0.464545 0.379127 0.389543
0.582930 0.411525 0.422191
0.691459 0.443978 0.454813
0.782958 0.476340 0.487262
0.822292 0.492844 0.503778
0.151511 0.439974 0.366083
0.227555 0.472703 0.397401
0.337750 0.510441 0.434198
0.458747 0.546067 0.469632
0.580122 0.580122 0.504154
0.690932 0.612718 0.537809
0.783841 0.643853 0.570531
0.856470 0.673491 0.602215
0.886227 0.688095 0.618022
0.225339 0.635493 0.476581
0.319856 0.665792 0.509528
0.446022 0.699081 0.547167
0.571658 0.729001 0.582363
0.685960 0.756327 0.615704
0.781392 0.781392 0.647343
0.855602 0.804395 0.677317
0.910281 0.825491 0.705630
0.931895 0.835610 0.719501
0.315288 0.795700 0.587045
0.424220 0.817660 0.618760
0.556887 0.840888 0.654015
0.676415 0.861007 0.686076
0.775701 0.878787 0.715674
0.852502 0.894619 0.743090
0.908764 0.908764 0.768481
0.948428 0.921425 0.791962
0.963709 0.927395 0.803292
0.417444 0.902156 0.688749
0.533176 0.915574 0.716893
0.661366 0.929425 0.747421
0.766416 0.941147 0.774515
0.847064 0.951302 0.798983
0.905744 0.960185 0.821194
0.946837 0.968000 0.841388
0.974899 0.974899 0.859748
0.985517 0.978121 0.868501
0.472364 0.938297 0.735397
0.587971 0.948289 0.761144
0.710081 0.958520 0.788766
0.805795 0.967113 0.813019
0.876768 0.974508 0.834710
0.927100 0.980941 0.854231
0.961713 0.986573 0.871841
0.985057 0.991523 0.887739
0.993828 0.993828 0.895281
0.006247 0.006247 0.106792
0.025721 0.010992 0.122386
0.059655 0.017136 0.142020
0.107699 0.023731 0.162420
0.173138 0.030911 0.183873
0.257363 0.038758 0.206471
0.358354 0.047344 0.230232
0.469889 0.056733 0.255134
0.528186 0.061879 0.268327
0.024605 0.043744 0.165071
0.052858 0.052858 0.185707
0.100861 0.064536 0.211280
0.166279 0.076917 0.237375
0.250896 0.090217 0.264310
0.352834 0.104548 0.292136
0.465783 0.119985 0.320809
0.580130 0.136582 0.350231
0.636007 0.145556 0.365565
0.055993 0.127385 0.253211
0.098113 0.144864 0.279790
0.166748 0.166748 0.311956
0.254783 0.189338 0.343930
0.360171 0.212936 0.376071
0.475938 0.237620 0.408390
0.591840 0.263384 0.440788
0.697794 0.290177 0.473120
0.745896 0.304286 0.489617
0.099739 0.265745 0.356603
0.158885 0.293007 0.387643
0.250065 0.325891 0.424204
0.358460 0.358460 0.459503
0.477048 0.391081 0.493980
0.595118 0.423764 0.527673
0.702276 0.456408 0.560511
0.791827 0.488867 0.592382
0.830102 0.505384 0.608310
0.158765 0.452386 0.469238
0.236908 0.485224 0.502166
0.349202 0.522969 0.539854
0.471233 0.558486 0.575162
0.592332 0.592332 0.608669
0.701759 0.624632 0.640521
0.792687 0.655398 0.670745
0.863254 0.684607 0.699337
0.892036 0.698970 0.713361
0.234639 0.647145 0.581977
0.331042 0.677026 0.613809
0.458461 0.709763 0.649238
0.583929 0.739106 0.681499
0.696872 0.765837 0.711314
0.790299 0.790299 0.738960
0.862413 0.812703 0.764591
0.915247 0.833209 0.788313
0.936063 0.843032 0.799767
0.326401 0.804240 0.685729
0.436545 0.825601 0.714011
0.569251 0.848152 0.744712
0.687484 0.867647 0.771980
0.784750 0.884847 0.796618
0.859409 0.900140 0.818998
0.913785 0.913785 0.839355
0.951959 0.925984 0.857873
0.966630 0.931732 0.866704
0.429725 0.907412 0.774225
0.545647 0.920348 0.797622
0.672667 0.933686 0.822495
0.775690 0.944961 0.844142
0.854140 0.954719 0.863353
0.910873 0.963249 0.880523
0.950430 0.970747 0.895916
0.977362 0.977362 0.909734
0.987535 0.980450 0.916264
0.484884 0.942221 0.812760
0.600118 0.951825 0.833509
0.720560 0.961650 0.855370
0.814065 0.969896 0.874233
0.882895 0.976987 0.890848
0.931449 0.983152 0.905600
0.964715 0.988546 0.918745
0.987094 0.993285 0.930484
0.995491 0.995491 0.936010
0.007988 0.007988 0.162184
0.028316 0.012944 0.182593
0.063653 0.019360 0.207902
0.113499 0.026241 0.233751
0.181043 0.033728 0.260456
0.267393 0.041906 0.288070
0.370075 0.050847 0.316552
0.482404 0.060615 0.345806
0.540674 0.065965 0.361066
0.027152 0.047098 0.237076
0.056584 0.056584 0.262717
0.106417 0.068728 0.293880
0.173982 0.081588 0.325004
0.260786 0.095386 0.356438
0.364486 0.110236 0.388196
0.478288 0.126210 0.420185
0.592340 0.143360 0.452260
0.647653 0.152622 0.468686
0.059846 0.133860 0.343569
0.103570 0.151908 0.374193
0.174465 0.174465 0.410386
0.264758 0.197703 0.445454
0.371914 0.221927 0.479826
0.488464 0.247210 0.513533
0.603954 0.273541 0.546493
0.708500 0.300858 0.578587
0.755641 0.315217 0.594665
0.105255 0.275951 0.459110
0.166365 0.303740 0.491992
0.259937 0.337169 0.529724
0.370182 0.370182 0.565165
0.489576 0.403151 0.598884
0.607204 0.436086 0.631011
0.712901 0.468887 0.661566
0.800468 0.501407 0.690533
0.837686 0.517919 0.704763
0.166241 0.464850 0.574774
0.246482 0.497761 0.606763
0.360808 0.535471 0.642431
0.483751 0.570840 0.674965
0.604442 0.604442 0.705083
0.712393 0.636415 0.733052
0.801306 0.666785 0.759017
0.869822 0.695541 0.783081
0.897646 0.709655 0.794711
0.244160 0.658647 0.681149
0.342397 0.688085 0.709638
0.470946 0.720249 0.740597
0.596109 0.748998 0.768124
0.707594 0.775125 0.793020
0.798980 0.798980 0.815654
0.869007 0.820784 0.836259
0.920034 0.840702 0.855015
0.940073 0.850231 0.863964
0.337688 0.812553 0.771688
0.448940 0.833316 0.795248
0.581538 0.855194 0.820309
0.698369 0.874073 0.842133
0.793573 0.890703 0.861511
0.866100 0.905467 0.878837
0.918625 0.918625 0.894376
0.955350 0.930375 0.908331
0.969433 0.935907 0.914926
0.442082 0.912482 0.843913
0.558068 0.924947 0.862293
0.683795 0.937786 0.881521
0.784740 0.948628 0.898000
0.860997 0.958001 0.912428
0.915818 0.966189 0.925171
0.953882 0.973381 0.936475
0.979722 0.979722 0.946526
0.989467 0.982681 0.951245
0.497421 0.945994 0.874034
0.612158 0.955222 0.889935
0.730836 0.964655 0.906454
0.822107 0.972565 0.920519
0.888816 0.979363 0.932766
0.935633 0.985270 0.943528
0.967596 0.990435 0.953033
0.989045 0.994972 0.961453
0.997083 0.997083 0.965396
0.009807 0.009807 0.233455
0.031023 0.014983 0.258875
0.067810 0.021680 0.289802
0.119501 0.028859 0.320721
0.189175 0.036664 0.351982
0.277633 0.045184 0.383599
0.381932 0.054491 0.415481
0.494939 0.064652 0.447485
0.553117 0.070213 0.463887
0.029809 0.050591 0.324652
0.060460 0.060460 0.354597
0.112171 0.073083 0.390162
0.181911 0.086435 0.424804
0.270889 0.100745 0.458933
0.376280 0.116125 0.492571
0.490818 0.132646 0.525627
0.604450 0.150357 0.557970
0.659147 0.159909 0.574232
0.063852 0.140550 0.445063
0.109224 0.159174 0.477842
0.182408 0.182408 0.515587
0.274944 0.206295 0.551173
0.383791 0.231143 0.585147
0.501003 0.257019 0.617625
0.615957 0.283904 0.648612
0.719009 0.311730 0.678077
0.765167 0.326330 0.692583
0.110969 0.286362 0.564776
0.174071 0.314662 0.596964
0.270021 0.348612 0.632940
0.382040 0.382040 0.665838
0.502116 0.415325 0.696361
0.619175 0.448478 0.724767
0.723326 0.481400 0.751190
0.808882 0.513945 0.775722
0.845046 0.530433 0.787594
0.173943 0.477353 0.674612
0.256275 0.510301 0.703389
0.372558 0.547935 0.734709
0.496287 0.583117 0.762599
0.616440 0.616440 0.787859
0.722828 0.648056 0.810852
0.809697 0.678004 0.831808
0.876177 0.706287 0.850903
0.903061 0.720142 0.860022
0.253900 0.669987 0.767829
0.353912 0.698961 0.791635
0.483463 0.730531 0.816980
0.608186 0.758674 0.839071
0.718120 0.784189 0.858701
0.807434 0.807434 0.876264
0.875389 0.828637 0.892026
0.924645 0.847971 0.906188
0.943928 0.857209 0.912884
0.349138 0.820637 0.841901
0.461391 0.840806 0.860441
0.593737 0.862018 0.879844
0.709065 0.880289 0.896480
0.802169 0.896358 0.911052
0.872576 0.910606 0.923926
0.923288 0.923288 0.935349
0.958607 0.934600 0.945509
0.972121 0.939922 0.950280
0.454504 0.917368 0.897826
0.570425 0.929376 0.911637
0.694743 0.941729 0.925907
0.793564 0.952150 0.937996
0.867637 0.961153 0.948476
0.920583 0.969010 0.957650
0.957198 0.975907 0.965726
0.981984 0.981984 0.972859
0.991317 0.984819 0.976192
0.509961 0.949620 0.920372
0.624078 0.958484 0.932096
0.740903 0.967538 0.944148
0.829923 0.975124 0.954310
0.894537 0.981640 0.963083
0.939659 0.987298 0.970736
0.970359 0.992244 0.977452
0.990913 0.996585 0.983367
0.998605 0.998605 0.986126
0.011623 0.011623 0.316299
0.033720 0.017018 0.345917
0.071938 0.023994 0.381169
0.125435 0.031468 0.415587
0.197167 0.039589 0.449573
0.287619 0.048447 0.483145
0.393391 0.058116 0.516211
0.506934 0.068662 0.548635
0.564964 0.074431 0.564964
0.032457 0.054064 0.419904
0.064312 0.064312 0.452380
0.117864 0.077407 0.490016
0.189709 0.091242 0.525735
0.280747 0.106052 0.560052
0.387683 0.121948 0.593059
0.502813 0.139001 0.624734
0.615929 0.157255 0.655020
0.669991 0.167090 0.669991
0.067832 0.147151 0.546208
0.114818 0.166333 0.578704
0.190219 0.190219 0.615192
0.284879 0.214727 0.648712
0.395267 0.240167 0.679945
0.512996 0.266602 0.709127
0.627323 0.294006 0.736373
0.728872 0.322302 0.761756
0.774071 0.337121 0.774071
0.116621 0.296508 0.661306
0.181653 0.325279 0.690638
0.279863 0.359703 0.722665
0.393500 0.393500 0.751274
0.514108 0.427056 0.777259
0.630507 0.460385 0.800972
0.733107 0.493388 0.822635
0.816716 0.525923 0.842417
0.851878 0.542372 0.851878
0.181522 0.489337 0.758798
0.265842 0.522285 0.783167
0.383923 0.559806 0.809167
0.508282 0.594776 0.831874
0.627801 0.627801 0.852088
0.732618 0.659049 0.870204
0.817511 0.688571 0.886483
0.882060 0.716383 0.901130
0.908062 0.729983 0.908062
0.263418 0.680675 0.836087
0.365068 0.709185 0.855081
0.495454 0.740171 0.874987
0.619630 0.767724 0.892075
0.728000 0.792647 0.907060
0.815306 0.815306 0.920312
0.881297 0.835937 0.932080
0.928895 0.854718 0.942555
0.947477 0.863679 0.947477
0.360235 0.828157 0.894247
0.473341 0.847761 0.908380
0.605311 0.868342 0.922995
0.719111 0.886041 0.935384
0.810178 0.901585 0.946132
0.878573 0.915349 0.955547
0.927587 0.927587 0.963838
0.961601 0.938492 0.971164
0.974589 0.943619 0.974589
0.466433 0.921876 0.936381
0.582173 0.933457 0.946561
0.705039 0.945359 0.956989
0.801791 0.955390 0.965751
0.873788 0.964048 0.973294
0.924978 0.971600 0.979859
0.960245 0.978225 0.985606
0.984059 0.984059 0.990659
0.993013 0.986779 0.993013
0.521945 0.952955 0.952955
0.635358 0.961483 0.961483
0.750333 0.970186 0.970186
0.837187 0.977473 0.977473
0.899824 0.983728 0.983728
0.943366 0.989158 0.989158
0.972896 0.993902 0.993902
0.992625 0.998064 0.998064
1.000000 1.000000 1.000000
0.011623 0.011623 0.316299
0.033720 0.017018 0.345917
0.071938 0.023994 0.381169
0.125435 0.031468 0.415587
0.197167 0.039589 0.449573
0.287619 0.048447 0.483145
0.393391 0.058116 0.516211
0.506934 0.068662 0.548635
0.564964 0.074431 0.564964
0.032457 0.054064 0.419904
0.064312 0.064312 0.452380
0.117864 0.077407 0.490016
0.189709 0.091242 0.525735
0.280747 0.106052 0.560052
0.387683 0.121948 0.593059
0.502813 0.139001 0.624734
0.615929 0.157255 0.655020
0.669991 0.167090 0.669991
0.067832 0.147151 0.546208
0.114818 0.166333 0.578704
0.190219 0.190219 0.615192
0.284879 0.214727 0.648712
0.395267 0.240167 0.679945
0.512996 0.266602 0.709127
0.627323 0.294006 0.736373
0.728872 0.322302 0.761756
0.774071 0.337121 0.774071
0.116621 0.296508 0.661306
0.181653 0.325279 0.690638
0.279863 0.359703 0.722665
0.393500 0.393500 0.751274
0.514108 0.427056 0.777259
0.630507 0.460385 0.800972
0.733107 0.493388 0.822635
0.816716 0.525923 0.842417
0.851878 0.542372 0.851878
0.181522 0.489337 0.758798
0.265842 0.522285 0.783167
0.383923 0.559806 0.809167
0.508282 0.594776 0.831874
0.627801 0.627801 0.852088
0.732618 0.659049 0.870204
0.817511 0.688571 0.886483
0.882060 0.716383 0.901130
0.908062 0.729983 0.908062
0.263418 0.680675 0.836087
0.365068 0.709185 0.855081
0.495454 0.740171 0.874987
0.619630 0.767724 0.892075
0.728000 0.792647 0.907060
0.815306 0.815306 0.920312
0.881297 0.835937 0.932080
0.928895 0.854718 0.942555
0.947477 0.863679 0.947477
0.360235 0.828157 0.894247
0.473341 0.847761 0.908380
0.605311 0.868342 0.922995
0.719111 0.886041 0.935384
0.810178 0.901585 0.946132
0.878573 0.915349 0.955547
0.927587 0.927587 0.963838
0.961601 0.938492 0.971164
0.974589 0.943619 0.974589
0.466433 0.921876 0.936381
0.582173 0.933457 0.946561
0.705039 0.945359 0.956989
0.801791 0.955390 0.965751
0.873788 0.964048 0.973294
0.924978 0.971600 0.979859
0.960245 0.978225 0.985606
0.984059 0.984059 0.990659
0.993013 0.986779 0.993013
0.521945 0.952955 0.952955
0.635358 0.961483 0.961483
0.750333 0.970186 0.970186
0.837187 0.977473 0.977473
0.899824 0.983728 0.983728
0.943366 0.989158 0.989158
0.972896 0.993902 0.993902
0.992625 0.998064 0.998064
1.000000 1.000000 1.000000
