Mimicamera/Resources/CuratedLUTs/demo-warm.cube
# Mimicamera generated LUT
TITLE "Demo Warm"
LUT_3D_SIZE 9
DOMAIN_MIN 0.0 0.0 0.0
DOMAIN_MAX 1.0 1.0 1.0
0.003343 0.003343 0.003343
0.125000 0.003343 0.003343
0.250000 0.003343 0.003343
0.375000 0.003343 0.003343
0.500000 0.003343 0.003343
0.625000 0.003343 0.003343
0.750000 0.003343 0.003343
0.875000 0.003343 0.003343
0.996657 0.003343 0.003343
0.003343 0.125000 0.003343
0.125000 0.125000 0.003343
0.250000 0.125000 0.003343
0.375000 0.125000 0.003343
0.500000 0.125000 0.003343
0.625000 0.125000 0.003343
0.750000 0.125000 0.003343
0.875000 0.125000 0.003343
0.996657 0.125000 0.003343
0.003343 0.250000 0.003343
0.125000 0.250000 0.003343
0.250000 0.250000 0.003343
0.375000 0.250000 0.003343
0.500000 0.250000 0.003343
0.625000 0.250000 0.003343
0.750000 0.250000 0.003343
0.875000 0.250000 0.003343
0.996657 0.250000 0.003343
0.003343 0.375000 0.003343
0.125000 0.375000 0.003343
0.250000 0.375000 0.003343
0.375000 0.375000 0.003343
0.500000 0.375000 0.003343
0.625000 0.375000 0.003343
0.750000 0.375000 0.003343
0.875000 0.375000 0.003343
0.996657 0.375000 0.003343
0.003343 0.500000 0.003343
0.125000 0.500000 0.003343
0.250000 0.500000 0.003343
0.375000 0.500000 0.003343
0.500000 0.500000 0.003343
0.625000 0.500000 0.003343
0.750000 0.500000 0.003343
0.875000 0.500000 0.003343
0.996657 0.500000 0.003343
0.003343 0.625000 0.003343
0.125000 0.625000 0.003343
0.250000 0.625000 0.003343
0.375000 0.625000 0.003343
0.500000 0.625000 0.003343
0.625000 0.625000 0.003343
0.750000 0.625000 0.003343
0.875000 0.625000 0.003343
0.996657 0.625000 0.003343
0.003343 0.750000 0.003343
0.125000 0.750000 0.003343
0.250000 0.750000 0.003343
0.375000 0.750000 0.003343
0.500000 0.750000 0.003343
0.625000 0.750000 0.003343
0.750000 0.750000 0.003343
0.875000 0.750000 0.003343
0.996657 0.750000 0.003343
0.003343 0.875000 0.003343
0.125000 0.875000 0.003343
0.250000 0.875000 0.003343
0.375000 0.875000 0.003343
0.500000 0.875000 0.003343
0.625000 0.875000 0.003343
0.750000 0.875000 0.003343
0.875000 0.875000 0.003343
0.996657 0.875000 0.003343
0.003343 0.996657 0.003343
0.125000 0.996657 0.003343
0.250000 0.996657 0.003343
0.375000 0.996657 0.003343
0.500000 0.996657 0.003343
0.625000 0.996657 0.003343
0.750000 0.996657 0.003343
0.875000 0.996657 0.003343
0.996657 0.996657 0.003343
0.003343 0.003343 0.125000
0.125000 0.003343 0.125000
0.250000 0.003343 0.125000
0.375000 0.003343 0.125000
0.500000 0.003343 0.125000
0.625000 0.003343 0.125000
0.750000 0.003343 0.125000
0.875000 0.003343 0.125000
0.996657 0.003343 0.125000
0.003343 0.125000 0.125000
0.125000 0.125000 0.125000
0.250000 0.125000 0.125000
0.375000 0.125000 0.125000
0.500000 0.125000 0.125000
0.625000 0.125000 0.125000
0.750000 0.125000 0.125000
0.875000 0.125000 0.125000
0.996657 0.125000 0.125000
0.003343 0.250000 0.125000
0.125000 0.250000 0.125000
0.250000 0.250000 0.125000
0.375000 0.250000 0.125000
0.500000 0.250000 0.125000
0.625000 0.250000 0.125000
0.750000 0.250000 0.125000
0.875000 0.250000 0.125000
0.996657 0.250000 0.125000
0.003343 0.375000 0.125000
0.125000 0.375000 0.125000
0.250000 0.375000 0.125000
0.375000 0.375000 0.125000
0.500000 0.375000 0.125000
0.625000 0.375000 0.125000
0.750000 0.375000 0.125000
0.875000 0.375000 0.125000
0.996657 0.375000 0.125000
0.003343 0.500000 0.125000
0.125000 0.500000 0.125000
0.250000 0.500000 0.125000
0.375000 0.500000 0.125000
0.500000 0.500000 0.125000
0.625000 0.500000 0.125000
0.750000 0.500000 0.125000
0.875000 0.500000 0.125000
0.996657 0.500000 0.125000
0.003343 0.625000 0.125000
0.125000 0.625000 0.125000
0.250000 0.625000 0.125000
0.375000 0.625000 0.125000
0.500000 0.625000 0.125000
0.625000 0.625000 0.125000
0.750000 0.625000 0.125000
0.875000 0.625000 0.125000
0.996657 0.625000 0.125000
0.003343 0.750000 0.125000
0.125000 0.750000 0.125000
0.250000 0.750000 0.125000
0.375000 0.750000 0.125000
0.500000 0.750000 0.125000
0.625000 0.750000 0.125000
0.750000 0.750000 0.125000
0.875000 0.750000 0.125000
0.996657 0.750000 0.125000
0.003343 0.875000 0.125000
0.125000 0.875000 0.125000
0.250000 0.875000 0.125000
0.375000 0.875000 0.125000
0.500000 0.875000 0.125000
0.625000 0.875000 0.125000
0.750000 0.875000 0.125000
0.875000 0.875000 0.125000
0.996657 0.875000 0.125000
0.003343 0.996657 0.125000
0.125000 0.996657 0.125000
0.250000 0.996657 0.125000
0.375000 0.996657 0.125000
0.500000 0.996657 0.125000
0.625000 0.996657 0.125000
0.750000 0.996657 0.125000
0.875000 0.996657 0.125000
0.996657 0.996657 0.125000
0.003343 0.003343 0.250000
0.125000 0.003343 0.250000
0.250000 0.003343 0.250000
0.375000 0.003343 0.250000
0.500000 0.003343 0.250000
0.625000 0.003343 0.250000
0.750000 0.003343 0.250000
0.875000 0.003343 0.250000
0.996657 0.003343 0.250000
0.003343 0.125000 0.250000
0.125000 0.125000 0.250000
0.250000 0.125000 0.250000
0.375000 0.125000 0.250000
0.500000 0.125000 0.250000
0.625000 0.125000 0.250000
0.750000 0.125000 0.250000
0.875000 0.125000 0.250000
0.996657 0.125000 0.250000
0.003343 0.250000 0.250000
0.125000 0.250000 0.250000
0.250000 0.250000 0.250000
0.375000 0.250000 0.250000
0.500000 0.250000 0.250000
0.625000 0.250000 0.250000
0.750000 0.250000 0.250000
0.875000 0.250000 0.250000
0.996657 0.250000 0.250000
0.003343 0.375000 0.250000
0.125000 0.375000 0.250000
0.250000 0.375000 0.250000
0.375000 0.375000 0.250000
0.500000 0.375000 0.250000
0.625000 0.375000 0.250000
0.750000 0.375000 0.250000
0.875000 0.375000 0.250000
0.996657 0.375000 0.250000
0.003343 0.500000 0.250000
0.125000 0.500000 0.250000
0.250000 0.500000 0.250000
0.375000 0.500000 0.250000
0.500000 0.500000 0.250000
0.625000 0.500000 0.250000
0.750000 0.500000 0.250000
0.875002 0.500001 0.250000
0.996657 0.500013 0.250001
0.003343 0.625000 0.250000
0.125000 0.625000 0.250000
0.250000 0.625000 0.250000
0.375000 0.625000 0.250000
0.500000 0.625000 0.250000
0.625000 0.625000 0.250000
0.750002 0.625000 0.249999
0.881126 0.624827 0.248736
0.995229 0.635881 0.261142
0.003343 0.750000 0.250000
0.125000 0.750000 0.250000
0.250000 0.750000 0.250000
0.375000 0.750000 0.250000
0.500000 0.750000 0.250000
0.625000 0.750000 0.250000
0.750000 0.750000 0.250000
0.875000 0.750000 0.250000
0.996657 0.750000 0.250000
0.003343 0.875000 0.250000
0.125000 0.875000 0.250000
0.250000 0.875000 0.250000
0.375000 0.875000 0.250000
0.500000 0.875000 0.250000
0.625000 0.875000 0.250000
0.750000 0.875000 0.250000
0.875000 0.875000 0.250000
0.996657 0.875000 0.250000
0.003343 0.996657 0.250000
0.125000 0.996657 0.250000
0.250000 0.996657 0.250000
0.375000 0.996657 0.250000
0.500000 0.996657 0.250000
0.625000 0.996657 0.250000
0.750000 0.996657 0.250000
0.875000 0.996657 0.250000
0.996657 0.996657 0.250000
0.003343 0.003343 0.375000
0.125000 0.003343 0.375000
0.250000 0.003343 0.375000
0.375000 0.003343 0.375000
0.500000 0.003343 0.375000
0.625000 0.003343 0.375000
0.750000 0.003343 0.375000
0.875000 0.003343 0.375000
0.996657 0.003343 0.375000
0.003343 0.125000 0.375000
0.125000 0.125000 0.375000
0.250000 0.125000 0.375000
0.375000 0.125000 0.375000
0.500000 0.125000 0.375000
0.625000 0.125000 0.375000
0.750000 0.125000 0.375000
0.875000 0.125000 0.375000
0.996657 0.125000 0.375000
0.003343 0.250000 0.375000
0.125000 0.250000 0.375000
0.250000 0.250000 0.375000
0.375000 0.250000 0.375000
0.500000 0.250000 0.375000
0.625000 0.250000 0.375000
0.750000 0.250000 0.375000
0.875000 0.250000 0.375000
0.996657 0.250000 0.375000
0.003343 0.375000 0.375000
0.125000 0.375000 0.375000
0.250000 0.375000 0.375000
0.375000 0.375000 0.375000
0.500000 0.375000 0.375000
0.625000 0.375000 0.375000
0.750000 0.375000 0.375000
0.875000 0.375000 0.375000
0.996657 0.375000 0.375000
0.003343 0.500000 0.375000
0.125000 0.500000 0.375000
0.250000 0.500000 0.375000
0.375000 0.500000 0.375000
0.500000 0.500000 0.375000
0.625000 0.500000 0.375000
0.750003 0.500001 0.374999
0.875000 0.500000 0.375000
0.996657 0.500000 0.375000
0.003343 0.625000 0.375000
0.125000 0.625000 0.375000
0.250000 0.625000 0.375000
0.375000 0.625000 0.375000
0.500000 0.625000 0.375000
0.625000 0.625000 0.375000
0.762658 0.624462 0.369476
0.875002 0.625000 0.374999
0.996657 0.625000 0.375000
0.003343 0.750000 0.375000
0.125000 0.750000 0.375000
0.250000 0.750000 0.375000
0.375000 0.750000 0.375000
0.500000 0.750000 0.375000
0.625000 0.750000 0.375000
0.750000 0.750000 0.375000
0.875000 0.750000 0.375000
0.996657 0.750000 0.375000
0.003343 0.875000 0.375000
0.125000 0.875000 0.375000
0.250000 0.875000 0.375000
0.375000 0.875000 0.375000
0.500000 0.875000 0.375000
0.625000 0.875000 0.375000
0.750000 0.875000 0.375000
0.875000 0.875000 0.375000
0.996657 0.875000 0.375000
0.003343 0.996657 0.375000
0.125000 0.996657 0.375000
0.250000 0.996657 0.375000
0.375000 0.996657 0.375000
0.500000 0.996657 0.375000
0.625000 0.996657 0.375000
0.750000 0.996657 0.375000
0.875000 0.996657 0.375000
0.996657 0.996657 0.375000
0.003343 0.003343 0.500000
0.125000 0.003343 0.500000
0.250000 0.003343 0.500000
0.375000 0.003343 0.500000
0.500000 0.003343 0.500000
0.625000 0.003343 0.500000
0.750000 0.003343 0.500000
0.875000 0.003343 0.500000
0.996657 0.003343 0.500000
0.003343 0.125000 0.500000
0.125000 0.125000 0.500000
0.250000 0.125000 0.500000
0.375000 0.125000 0.500000
0.500000 0.125000 0.500000
0.625000 0.125000 0.500000
0.750000 0.125000 0.500000
0.875000 0.125000 0.500000
0.996657 0.125000 0.500000
0.003343 0.250000 0.500000
0.125000 0.250000 0.500000
0.250000 0.250000 0.500000
0.375000 0.250000 0.500000
0.500000 0.250000 0.500000
0.625000 0.250000 0.500000
0.750000 0.250000 0.500000
0.875000 0.250000 0.500000
0.996657 0.250000 0.500000
0.003343 0.375000 0.500000
0.125000 0.375000 0.500000
0.250000 0.375000 0.500000
0.375000 0.375000 0.500000
0.500000 0.375000 0.500000
0.625000 0.375000 0.500000
0.750000 0.375000 0.500000
0.875000 0.375000 0.500000
0.996657 0.375000 0.500000
0.003343 0.500000 0.500000
0.125000 0.500000 0.500000
0.250000 0.500000 0.500000
0.375000 0.500000 0.500000
0.500000 0.500000 0.500000
0.625000 0.500000 0.500000
0.750000 0.500000 0.500000
0.875000 0.500000 0.500000
0.996657 0.500000 0.500000
0.003343 0.625000 0.500000
0.125000 0.625000 0.500000
0.250000 0.625000 0.500000
0.375000 0.625000 0.500000
0.500000 0.625000 0.500000
0.625000 0.625000 0.500000
0.750000 0.625000 0.500000
0.875000 0.625000 0.500000
0.996657 0.625000 0.500000
0.003343 0.750000 0.500000
0.125000 0.750000 0.500000
0.250000 0.750000 0.500000
0.375000 0.750000 0.500000
0.500000 0.750000 0.500000
0.625000 0.750000 0.500000
0.750000 0.750000 0.500000
0.875000 0.750000 0.500000
0.996657 0.750000 0.500000
0.003343 0.875000 0.500000
0.125000 0.875000 0.500000
0.250000 0.875000 0.500000
0.375000 0.875000 0.500000
0.500000 0.875000 0.500000
0.625000 0.875000 0.500000
0.750000 0.875000 0.500000
0.875000 0.875000 0.500000
0.996657 0.875000 0.500000
0.003343 0.996657 0.500000
0.125000 0.996657 0.500000
0.250000 0.996657 0.500000
0.375000 0.996657 0.500000
0.500000 0.996657 0.500000
0.625000 0.996657 0.500000
0.750000 0.996657 0.500000
0.875000 0.996657 0.500000
0.996657 0.996657 0.500000
0.003343 0.003343 0.625000
0.125000 0.003343 0.625000
0.250000 0.003343 0.625000
0.375000 0.003343 0.625000
0.500000 0.003343 0.625000
0.625000 0.003343 0.625000
0.750000 0.003343 0.625000
0.875000 0.003343 0.625000
0.996657 0.003343 0.625000
0.003343 0.125000 0.625000
0.125000 0.125000 0.625000
0.250000 0.125000 0.625000
0.375000 0.125000 0.625000
0.500000 0.125000 0.625000
0.625000 0.125000 0.625000
0.750000 0.125000 0.625000
0.875000 0.125000 0.625000
0.996657 0.125000 0.625000
0.003343 0.250000 0.625000
0.125000 0.250000 0.625000
0.250000 0.250000 0.625000
0.375000 0.250000 0.625000
0.500000 0.250000 0.625000
0.625000 0.250000 0.625000
0.750000 0.250000 0.625000
0.875000 0.250000 0.625000
0.996657 0.250000 0.625000
0.003343 0.375000 0.625000
0.125000 0.375000 0.625000
0.250000 0.375000 0.625000
0.375000 0.375000 0.625000
0.500000 0.375000 0.625000
0.625000 0.375000 0.625000
0.750000 0.375000 0.625000
0.875000 0.375000 0.625000
0.996657 0.375000 0.625000
0.003343 0.500000 0.625000
0.125000 0.500000 0.625000
0.250000 0.500000 0.625000
0.375000 0.500000 0.625000
0.500000 0.500000 0.625000
0.625000 0.500000 0.625000
0.750000 0.500000 0.625000
0.875000 0.500000 0.625000
0.996657 0.500000 0.625000
0.003343 0.625000 0.625000
0.125000 0.625000 0.625000
0.250000 0.625000 0.625000
0.375000 0.625000 0.625000
0.500000 0.625000 0.625000
0.625000 0.625000 0.625000
0.750000 0.625000 0.625000
0.875000 0.625000 0.625000
0.996657 0.625000 0.625000
0.003343 0.750000 0.625000
0.125000 0.750000 0.625000
0.250000 0.750000 0.625000
0.375000 0.750000 0.625000
0.500000 0.750000 0.625000
0.625000 0.750000 0.625000
0.750000 0.750000 0.625000
0.875000 0.750000 0.625000
0.996657 0.750000 0.625000
0.003343 0.875000 0.625000
0.125000 0.875000 0.625000
0.250000 0.875000 0.625000
0.375000 0.875000 0.625000
0.500000 0.875000 0.625000
0.625000 0.875000 0.625000
0.750000 0.875000 0.625000
0.875000 0.875000 0.625000
0.996657 0.875000 0.625000
0.003343 0.996657 0.625000
0.125000 0.996657 0.625000
0.250000 0.996657 0.625000
0.375000 0.996657 0.625000
0.500000 0.996657 0.625000
0.625000 0.996657 0.625000
0.750000 0.996657 0.625000
0.875000 0.996657 0.625000
0.996657 0.996657 0.625000
0.003343 0.003343 0.750000
0.125000 0.003343 0.750000
0.250000 0.003343 0.750000
0.375000 0.003343 0.750000
0.500000 0.003343 0.750000
0.625000 0.003343 0.750000
0.750000 0.003343 0.750000
0.875000 0.003343 0.750000
0.996657 0.003343 0.750000
0.003343 0.125000 0.750000
0.125000 0.125000 0.750000
0.250000 0.125000 0.750000
0.375000 0.125000 0.750000
0.500000 0.125000 0.750000
0.625000 0.125000 0.750000
0.750000 0.125000 0.750000
0.875000 0.125000 0.750000
0.996657 0.125000 0.750000
0.003343 0.250000 0.750000
0.125000 0.250000 0.750000
0.250000 0.250000 0.750000
0.375000 0.250000 0.750000
0.500000 0.250000 0.750000
0.625000 0.250000 0.750000
0.750000 0.250000 0.750000
0.875000 0.250000 0.750000
0.996657 0.250000 0.750000
0.003343 0.375000 0.750000
0.125000 0.375000 0.750000
0.250000 0.375000 0.750000
0.375000 0.375000 0.750000
0.500000 0.375000 0.750000
0.625000 0.375000 0.750000
0.750000 0.375000 0.750000
0.875000 0.375000 0.750000
0.996657 0.375000 0.750000
0.003343 0.500000 0.750000
0.125000 0.500000 0.750000
0.250000 0.500000 0.750000
0.375000 0.500000 0.750000
0.500000 0.500000 0.750000
0.625000 0.500000 0.750000
0.750000 0.500000 0.750000
0.875000 0.500000 0.750000
0.996657 0.500000 0.750000
0.003343 0.625000 0.750000
0.125000 0.625000 0.750000
0.250000 0.625000 0.750000
0.375000 0.625000 0.750000
0.500000 0.625000 0.750000
0.625000 0.625000 0.750000
0.750000 0.625000 0.750000
0.875000 0.625000 0.750000
0.996657 0.625000 0.750000
0.003343 0.750000 0.750000
0.125000 0.750000 0.750000
0.250000 0.750000 0.750000
0.375000 0.750000 0.750000
0.500000 0.750000 0.750000
0.625000 0.750000 0.750000
0.750000 0.750000 0.750000
0.875000 0.750000 0.750000
0.996657 0.750000 0.750000
0.003343 0.875000 0.750000
0.125000 0.875000 0.750000
0.250000 0.875000 0.750000
0.375000 0.875000 0.750000
0.500000 0.875000 0.750000
0.625000 0.875000 0.750000
0.750000 0.875000 0.750000
0.875000 0.875000 0.750000
0.996657 0.875000 0.750000
0.003343 0.996657 0.750000
0.125000 0.996657 0.750000
0.250000 0.996657 0.750000
0.375000 0.996657 0.750000
0.500000 0.996657 0.750000
0.625000 0.996657 0.750000
0.750000 0.996657 0.750000
0.875000 0.996657 0.750000
0.996657 0.996657 0.750000
0.003343 0.003343 0.875000
0.125000 0.003343 0.875000
0.250000 0.003343 0.875000
0.375000 0.003343 0.875000
0.500000 0.003343 0.875000
0.625000 0.003343 0.875000
0.750000 0.003343 0.875000
0.875000 0.003343 0.875000
0.996657 0.003343 0.875000
0.003343 0.125000 0.875000
0.125000 0.125000 0.875000
0.250000 0.125000 0.875000
0.375000 0.125000 0.875000
0.500000 0.125000 0.875000
0.625000 0.125000 0.875000
0.750000 0.125000 0.875000
0.875000 0.125000 0.875000
0.996657 0.125000 0.875000
0.003343 0.250000 0.875000
0.125000 0.250000 0.875000
0.250000 0.250000 0.875000
0.375000 0.250000 0.875000
0.500000 0.250000 0.875000
0.625000 0.250000 0.875000
0.750000 0.250000 0.875000
0.875000 0.250000 0.875000
0.996657 0.250000 0.875000
0.003343 0.375000 0.875000
0.125000 0.375000 0.875000
0.250000 0.375000 0.875000
0.375000 0.375000 0.875000
0.500000 0.375000 0.875000
0.625000 0.375000 0.875000
0.750000 0.375000 0.875000
0.875000 0.375000 0.875000
0.996657 0.375000 0.875000
0.003343 0.500000 0.875000
0.125000 0.500000 0.875000
0.250000 0.500000 0.875000
0.375000 0.500000 0.875000
0.500000 0.500000 0.875000
0.625000 0.500000 0.875000
0.750000 0.500000 0.875000
0.875000 0.500000 0.875000
0.996657 0.500000 0.875000
0.003343 0.625000 0.875000
0.125000 0.625000 0.875000
0.250000 0.625000 0.875000
0.375000 0.625000 0.875000
0.500000 0.625000 0.875000
0.625000 0.625000 0.875000
0.750000 0.625000 0.875000
0.875000 0.625000 0.875000
0.996657 0.625000 0.875000
0.003343 0.750000 0.875000
0.125000 0.750000 0.875000
0.250000 0.750000 0.875000
0.375000 0.750000 0.875000
0.500000 0.750000 0.875000
0.625000 0.750000 0.875000
0.750000 0.750000 0.875000
0.875000 0.750000 0.875000
0.996657 0.750000 0.875000
0.003343 0.875000 0.875000
0.125000 0.875000 0.875000
0.250000 0.875000 0.875000
0.375000 0.875000 0.875000
0.500000 0.875000 0.875000
0.625000 0.875000 0.875000
0.750000 0.875000 0.875000
0.875000 0.875000 0.875000
0.996657 0.875000 0.875000
0.003343 0.996657 0.875000
0.125000 0.996657 0.875000
0.250000 0.996657 0.875000
0.375000 0.996657 0.875000
0.500000 0.996657 0.875000
0.625000 0.996657 0.875000
0.750000 0.996657 0.875000
0.875000 0.996657 0.875000
0.996657 0.996657 0.875000
0.003343 0.003343 0.996657
0.125000 0.003343 0.996657
0.250000 0.003343 0.996657
0.375000 0.003343 0.996657
0.500000 0.003343 0.996657
0.625000 0.003343 0.996657
0.750000 0.003343 0.996657
0.875000 0.003343 0.996657
0.996657 0.003343 0.996657
0.003343 0.125000 0.996657
0.125000 0.125000 0.996657
0.250000 0.125000 0.996657
0.375000 0.125000 0.996657
0.500000 0.125000 0.996657
0.625000 0.125000 0.996657
0.750000 0.125000 0.996657
0.875000 0.125000 0.996657
0.996657 0.125000 0.996657
0.003343 0.250000 0.996657
0.125000 0.250000 0.996657
0.250000 0.250000 0.996657
0.375000 0.250000 0.996657
0.500000 0.250000 0.996657
0.625000 0.250000 0.996657
0.750000 0.250000 0.996657
0.875000 0.250000 0.996657
0.996657 0.250000 0.996657
0.003343 0.375000 0.996657
0.125000 0.375000 0.996657
0.250000 0.375000 0.996657
0.375000 0.375000 0.996657
0.500000 0.375000 0.996657
0.625000 0.375000 0.996657
0.750000 0.375000 0.996657
0.875000 0.375000 0.996657
0.996657 0.375000 0.996657
0.003343 0.500000 0.996657
0.125000 0.500000 0.996657
0.250000 0.500000 0.996657
0.375000 0.500000 0.996657
0.500000 0.500000 0.996657
0.625000 0.500000 0.996657
0.750000 0.500000 0.996657
0.875000 0.500000 0.996657
0.996657 0.500000 0.996657
0.003343 0.625000 0.996657
0.125000 0.625000 0.996657
0.250000 0.625000 0.996657
0.375000 0.625000 0.996657
0.500000 0.625000 0.996657
0.625000 0.625000 0.996657
0.750000 0.625000 0.996657
0.875000 0.625000 0.996657
0.996657 0.625000 0.996657
0.003343 0.750000 0.996657
0.125000 0.750000 0.996657
0.250000 0.750000 0.996657
0.375000 0.750000 0.996657
0.500000 0.750000 0.996657
0.625000 0.750000 0.996657
0.750000 0.750000 0.996657
0.875000 0.750000 0.996657
0.996657 0.750000 0.996657
0.003343 0.875000 0.996657
0.125000 0.875000 0.996657
0.250000 0.875000 0.996657
0.375000 0.875000 0.996657
0.500000 0.875000 0.996657
0.625000 0.875000 0.996657
0.750000 0.875000 0.996657
0.875000 0.875000 0.996657
0.996657 0.875000 0.996657
0.003343 0.996657 0.996657
0.125000 0.996657 0.996657
0.250000 0.996657 0.996657
0.375000 0.996657 0.996657
0.500000 0.996657 0.996657
0.625000 0.996657 0.996657
0.750000 0.996657 0.996657
0.875000 0.996657 0.996657
0.996657 0.996657 0.996657
