Mimicamera/Resources/CuratedLUTs/film.cube
# Mimicamera generated LUT
TITLE "Film"
LUT_3D_SIZE 5
DOMAIN_MIN 0.0 0.0 0.0
DOMAIN_MAX 1.0 1.0 1.0
0.003343 0.003343 0.003343
0.250000 0.003343 0.003343
0.500000 0.003343 0.003343
0.750000 0.003343 0.003343
0.996657 0.003343 0.003343
0.003343 0.250000 0.003343
0.250000 0.250000 0.003343
0.500000 0.250000 0.003343
0.750000 0.250000 0.003343
0.996657 0.250000 0.003343
0.003343 0.500000 0.003343
0.250000 0.500000 0.003343
0.500000 0.500000 0.003343
0.750000 0.500000 0.003343
0.996657 0.500000 0.003343
0.003343 0.750000 0.003343
0.250000 0.750000 0.003343
0.500000 0.750000 0.003343
0.750000 0.750000 0.003343
0.996657 0.750000 0.003343
0.003343 0.996657 0.003343
0.250000 0.996657 0.003343
0.500000 0.996657 0.003343
0.750000 0.996657 0.003343
0.996657 0.996657 0.003343
0.003343 0.003343 0.250000
0.250000 0.003343 0.250000
0.500000 0.003343 0.250000
0.750000 0.003343 0.250000
0.996657 0.003343 0.250000
0.003343 0.250000 0.250000
0.252833 0.263169 0.256256
0.499948 0.250043 0.250022
0.750000 0.250000 0.250000
0.996657 0.250000 0.250000
0.003343 0.500000 0.250000
0.266081 0.491330 0.263522
0.491626 0.497073 0.270155
0.750000 0.500000 0.250000
0.996657 0.500000 0.250000
0.003343 0.750000 0.250000
0.250000 0.750000 0.250000
0.500000 0.750000 0.250000
0.750000 0.750000 0.250000
0.996657 0.750000 0.250000
0.003343 0.996657 0.250000
0.250000 0.996657 0.250000
0.500000 0.996657 0.250000
0.750000 0.996657 0.250000
0.996657 0.996657 0.250000
0.003343 0.003343 0.500000
0.250000 0.003343 0.500000
0.500000 0.003343 0.500000
0.750000 0.003343 0.500000
0.996657 0.003343 0.500000
0.003343 0.250000 0.500000
0.250011 0.250035 0.499952
0.499997 0.250002 0.499998
0.750000 0.250000 0.500000
0.996657 0.250000 0.500000
0.003343 0.500000 0.500000
0.252062 0.499175 0.497933
0.483809 0.499230 0.450103
0.732062 0.513760 0.496985
0.996657 0.500000 0.500000
0.003343 0.750000 0.500000
0.250000 0.750000 0.500000
0.503667 0.746516 0.499661
0.753473 0.715832 0.524230
0.993112 0.749668 0.501685
0.003343 0.996657 0.500000
0.250000 0.996657 0.500000
0.500000 0.996657 0.500000
0.750000 0.996657 0.500000
0.996657 0.996657 0.500000
0.003343 0.003343 0.750000
0.250000 0.003343 0.750000
0.500000 0.003343 0.750000
0.750000 0.003343 0.750000
0.996657 0.003343 0.750000
0.003343 0.250000 0.750000
0.250000 0.250000 0.750000
0.500000 0.250000 0.750000
0.750000 0.250000 0.750000
0.996657 0.250000 0.750000
0.003343 0.500000 0.750000
0.250000 0.500000 0.750000
0.500000 0.500000 0.750000
0.750000 0.500000 0.750000
0.996657 0.500000 0.750000
0.003343 0.750000 0.750000
0.250000 0.750000 0.750000
0.500000 0.750000 0.750000
0.750756 0.748367 0.743832
0.995987 0.749969 0.749388
0.003343 0.996657 0.750000
0.250000 0.996657 0.750000
0.500000 0.996657 0.750000
0.750000 0.996657 0.750000
0.996657 0.996657 0.750000
0.003343 0.003343 0.996657
0.250000 0.003343 0.996657
0.500000 0.003343 0.996657
0.750000 0.003343 0.996657
0.996657 0.003343 0.996657
0.003343 0.250000 0.996657
0.250000 0.250000 0.996657
0.500000 0.250000 0.996657
0.750000 0.250000 0.996657
0.996657 0.250000 0.996657
0.003343 0.500000 0.996657
0.250000 0.500000 0.996657
0.500000 0.500000 0.996657
0.750000 0.500000 0.996657
0.996657 0.500000 0.996657
0.003343 0.750000 0.996657
0.250000 0.750000 0.996657
0.500000 0.750000 0.996657
0.750000 0.750000 0.996657
0.996657 0.750000 0.996657
0.003343 0.996657 0.996657
0.250000 0.996657 0.996657
0.500000 0.996657 0.996657
0.750000 0.996657 0.996657
0.996657 0.996657 0.996657
