Mimicamera/Resources/CuratedLUTs/golden-hour.cube
# Mimicamera generated LUT
TITLE "Golden Hour"
LUT_3D_SIZE 5
DOMAIN_MIN 0.0 0.0 0.0
DOMAIN_MAX 1.0 1.0 1.0
0.003343 0.003343 0.003343
0.250000 0.003343 0.003343
0.500000 0.003343 0.003343
0.750000 0.003343 0.003343
0.996657 0.003343 0.003343
0.003343 0.250000 0.003343
0.250000 0.250000 0.003343
0.500000 0.250000 0.003343
0.750000 0.250000 0.003343
0.996657 0.250000 0.003343
0.003343 0.500000 0.003343
0.250000 0.500000 0.003343
0.500000 0.500000 0.003343
0.750000 0.500000 0.003343
0.996657 0.500000 0.003343
0.003343 0.750000 0.003343
0.250000 0.750000 0.003343
0.500000 0.750000 0.003343
0.750000 0.750000 0.003343
0.996657 0.750000 0.003343
0.003343 0.996657 0.003343
0.250000 0.996657 0.003343
0.500000 0.996657 0.003343
0.750000 0.996657 0.003343
0.996657 0.996657 0.003343
0.003343 0.003343 0.250000
0.250000 0.003343 0.250000
0.500000 0.003343 0.250000
0.750000 0.003343 0.250000
0.996657 0.003343 0.250000
0.003343 0.250000 0.250000
0.250000 0.250000 0.250000
0.500228 0.250279 0.250084
0.750000 0.250000 0.250000
0.996657 0.250000 0.250000
0.003343 0.500000 0.250000
0.250000 0.500000 0.250000
0.511122 0.505560 0.254166
0.771445 0.530677 0.272937
0.996656 0.500002 0.250001
0.003343 0.750000 0.250000
0.250000 0.750000 0.250000
0.500000 0.750000 0.250000
0.754763 0.748864 0.254757
0.994194 0.749067 0.254060
0.003343 0.996657 0.250000
0.250000 0.996657 0.250000
0.500000 0.996657 0.250000
0.750000 0.996657 0.250000
0.996657 0.996657 0.250000
0.003343 0.003343 0.500000
0.250000 0.003343 0.500000
0.500000 0.003343 0.500000
0.750000 0.003343 0.500000
0.996657 0.003343 0.500000
0.003343 0.250000 0.500000
0.250000 0.250000 0.500000
0.500000 0.250000 0.500000
0.750000 0.250000 0.500000
0.996657 0.250000 0.500000
0.003343 0.500000 0.500000
0.250000 0.500000 0.500000
0.500000 0.500000 0.500000
0.758176 0.511959 0.494125
0.996622 0.500066 0.499970
0.003343 0.750000 0.500000
0.250000 0.750000 0.500000
0.500000 0.750000 0.500000
0.771733 0.743482 0.485821
0.964131 0.737738 0.473796
0.003343 0.996657 0.500000
0.250000 0.996657 0.500000
0.500000 0.996657 0.500000
0.750000 0.996657 0.500000
0.996656 0.996652 0.500001
0.003343 0.003343 0.750000
0.250000 0.003343 0.750000
0.500000 0.003343 0.750000
0.750000 0.003343 0.750000
0.996657 0.003343 0.750000
0.003343 0.250000 0.750000
0.250000 0.250000 0.750000
0.500000 0.250000 0.750000
0.750000 0.250000 0.750000
0.996657 0.250000 0.750000
0.003343 0.500000 0.750000
0.250000 0.500000 0.750000
0.500000 0.500000 0.750000
0.750000 0.500000 0.750000
0.996657 0.500000 0.750000
0.003343 0.750000 0.750000
0.250000 0.750000 0.750000
0.500000 0.750000 0.750000
0.750000 0.750000 0.750000
0.996291 0.749877 0.748896
0.003343 0.996657 0.750000
0.250000 0.996657 0.750000
0.500000 0.996657 0.750000
0.750000 0.996657 0.750000
0.996657 0.996657 0.750000
0.003343 0.003343 0.996657
0.250000 0.003343 0.996657
0.500000 0.003343 0.996657
0.750000 0.003343 0.996657
0.996657 0.003343 0.996657
0.003343 0.250000 0.996657
0.250000 0.250000 0.996657
0.500000 0.250000 0.996657
0.750000 0.250000 0.996657
0.996657 0.250000 0.996657
0.003343 0.500000 0.996657
0.250000 0.500000 0.996657
0.500000 0.500000 0.996657
0.750000 0.500000 0.996657
0.996657 0.500000 0.996657
0.003343 0.750000 0.996657
0.250000 0.750000 0.996657
0.500000 0.750000 0.996657
0.750000 0.750000 0.996657
0.996657 0.750000 0.996657
0.003343 0.996657 0.996657
0.250000 0.996657 0.996657
0.500000 0.996657 0.996657
0.750000 0.996657 0.996657
0.996657 0.996657 0.996657
