Mimicamera/Resources/CuratedLUTs/golden-hour.cube
# Mimicamera generated LUT
TITLE "Golden Hour"
LUT_3D_SIZE 33
DOMAIN_MIN 0.0 0.0 0.0
DOMAIN_MAX 1.0 1.0 1.0
0.003343 0.003343 0.003343
0.031258 0.003343 0.003343
0.062500 0.003343 0.003343
0.093750 0.003343 0.003343
0.125000 0.003343 0.003343
0.156250 0.003343 0.003343
0.187500 0.003343 0.003343
0.218750 0.003343 0.003343
0.250000 0.003343 0.003343
0.281250 0.003343 0.003343
0.312500 0.003343 0.003343
0.343750 0.003343 0.003343
0.375000 0.003343 0.003343
0.406250 0.003343 0.003343
0.437500 0.003343 0.003343
0.468750 0.003343 0.003343
0.500000 0.003343 0.003343
0.531250 0.003343 0.003343
0.562500 0.003343 0.003343
0.593750 0.003343 0.003343
0.625000 0.003343 0.003343
0.656250 0.003343 0.003343
0.687500 0.003343 0.003343
0.718750 0.003343 0.003343
0.750000 0.003343 0.003343
0.781250 0.003343 0.003343
0.812500 0.003343 0.003343
0.843750 0.003343 0.003343
0.875000 0.003343 0.003343
0.906250 0.003343 0.003343
0.937500 0.003343 0.003343
0.968742 0.003343 0.003343
0.996657 0.003343 0.003343
0.003343 0.031258 0.003343
0.031258 0.031258 0.003343
0.062500 0.031258 0.003343
0.093750 0.031258 0.003343
0.125000 0.031258 0.003343
0.156250 0.031258 0.003343
0.187500 0.031258 0.003343
0.218750 0.031258 0.003343
0.250000 0.031258 0.003343
0.281250 0.031258 0.003343
0.312500 0.031258 0.003343
0.343750 0.031258 0.003343
0.375000 0.031258 0.003343
0.406250 0.031258 0.003343
0.437500 0.031258 0.003343
0.468750 0.031258 0.003343
0.500000 0.031258 0.003343
0.531250 0.031258 0.003343
0.562500 0.031258 0.003343
0.593750 0.031258 0.003343
0.625000 0.031258 0.003343
0.656250 0.031258 0.003343
0.687500 0.031258 0.003343
0.718750 0.031258 0.003343
0.750000 0.031258 0.003343
0.781250 0.031258 0.003343
0.812500 0.031258 0.003343
0.843750 0.031258 0.003343
0.875000 0.031258 0.003343
0.906250 0.031258 0.003343
0.937500 0.031258 0.003343
0.968742 0.031258 0.003343
0.996657 0.031258 0.003343
0.003343 0.062500 0.003343
0.031258 0.062500 0.003343
0.062500 0.062500 0.003343
0.093750 0.062500 0.003343
0.125000 0.062500 0.003343
0.156250 0.062500 0.003343
0.187500 0.062500 0.003343
0.218750 0.062500 0.003343
0.250000 0.062500 0.003343
0.281250 0.062500 0.003343
0.312500 0.062500 0.003343
0.343750 0.062500 0.003343
0.375000 0.062500 0.003343
0.406250 0.062500 0.003343
0.437500 0.062500 0.003343
0.468750 0.062500 0.003343
0.500000 0.062500 0.003343
0.531250 0.062500 0.003343
0.562500 0.062500 0.003343
0.593750 0.062500 0.003343
0.625000 0.062500 0.003343
0.656250 0.062500 0.003343
0.687500 0.062500 0.003343
0.718750 0.062500 0.003343
0.750000 0.062500 0.003343
0.781250 0.062500 0.003343
0.812500 0.062500 0.003343
0.843750 0.062500 0.003343
0.875000 0.062500 0.003343
0.906250 0.062500 0.003343
0.937500 0.062500 0.003343
0.968742 0.062500 0.003343
0.996657 0.062500 0.003343
0.003343 0.093750 0.003343
0.031258 0.093750 0.003343
0.062500 0.093750 0.003343
0.093750 0.093750 0.003343
0.125000 0.093750 0.003343
0.156250 0.093750 0.003343
0.187500 0.093750 0.003343
0.218750 0.093750 0.003343
0.250000 0.093750 0.003343
0.281250 0.093750 0.003343
0.312500 0.093750 0.003343
0.343750 0.093750 0.003343
0.375000 0.093750 0.003343
0.406250 0.093750 0.003343
0.437500 0.093750 0.003343
0.468750 0.093750 0.003343
0.500000 0.093750 0.003343
0.531250 0.093750 0.003343
0.562500 0.093750 0.003343
0.593750 0.093750 0.003343
0.625000 0.093750 0.003343
0.656250 0.093750 0.003343
0.687500 0.093750 0.003343
0.718750 0.093750 0.003343
0.750000 0.093750 0.003343
0.781250 0.093750 0.003343
0.812500 0.093750 0.003343
0.843750 0.093750 0.003343
0.875000 0.093750 0.003343
0.906250 0.093750 0.003343
0.937500 0.093750 0.003343
0.968742 0.093750 0.003343
0.996657 0.093750 0.003343
0.003343 0.125000 0.003343
0.031258 0.125000 0.003343
0.062500 0.125000 0.003343
0.093750 0.125000 0.003343
0.125000 0.125000 0.003343
0.156250 0.125000 0.003343
0.187500 0.125000 0.003343
0.218750 0.125000 0.003343
0.250000 0.125000 0.003343
0.281250 0.125000 0.003343
0.312500 0.125000 0.003343
0.343750 0.125000 0.003343
0.375000 0.125000 0.003343
0.406250 0.125000 0.003343
0.437500 0.125000 0.003343
0.468750 0.125000 0.003343
0.500000 0.125000 0.003343
0.531250 0.125000 0.003343
0.562500 0.125000 0.003343
0.593750 0.125000 0.003343
0.625000 0.125000 0.003343
0.656250 0.125000 0.003343
0.687500 0.125000 0.003343
0.718750 0.125000 0.003343
0.750000 0.125000 0.003343
0.781250 0.125000 0.003343
0.812500 0.125000 0.003343
0.843750 0.125000 0.003343
0.875000 0.125000 0.003343
0.906250 0.125000 0.003343
0.937500 0.125000 0.003343
0.968742 0.125000 0.003343
0.996657 0.125000 0.003343
0.003343 0.156250 0.003343
0.031258 0.156250 0.003343
0.062500 0.156250 0.003343
0.093750 0.156250 0.003343
0.125000 0.156250 0.003343
0.156250 0.156250 0.003343
0.187500 0.156250 0.003343
0.218750 0.156250 0.003343
0.250000 0.156250 0.003343
0.281250 0.156250 0.003343
0.312500 0.156250 0.003343
0.343750 0.156250 0.003343
0.375000 0.156250 0.003343
0.406250 0.156250 0.003343
0.437500 0.156250 0.003343
0.468750 0.156250 0.003343
0.500000 0.156250 0.003343
0.531250 0.156250 0.003343
0.562500 0.156250 0.003343
0.593750 0.156250 0.003343
0.625000 0.156250 0.003343
0.656250 0.156250 0.003343
0.687500 0.156250 0.003343
0.718750 0.156250 0.003343
0.750000 0.156250 0.003343
0.781250 0.156250 0.003343
0.812500 0.156250 0.003343
0.843750 0.156250 0.003343
0.875000 0.156250 0.003343
0.906250 0.156250 0.003343
0.937500 0.156250 0.003343
0.968742 0.156250 0.003343
0.996657 0.156250 0.003343
0.003343 0.187500 0.003343
0.031258 0.187500 0.003343
0.062500 0.187500 0.003343
0.093750 0.187500 0.003343
0.125000 0.187500 0.003343
0.156250 0.187500 0.003343
0.187500 0.187500 0.003343
0.218750 0.187500 0.003343
0.250000 0.187500 0.003343
0.281250 0.187500 0.003343
0.312500 0.187500 0.003343
0.343750 0.187500 0.003343
0.375000 0.187500 0.003343
0.406250 0.187500 0.003343
0.437500 0.187500 0.003343
0.468750 0.187500 0.003343
0.500000 0.187500 0.003343
0.531250 0.187500 0.003343
0.562500 0.187500 0.003343
0.593750 0.187500 0.003343
0.625000 0.187500 0.003343
0.656250 0.187500 0.003343
0.687500 0.187500 0.003343
0.718750 0.187500 0.003343
0.750000 0.187500 0.003343
0.781250 0.187500 0.003343
0.812500 0.187500 0.003343
0.843750 0.187500 0.003343
0.875000 0.187500 0.003343
0.906250 0.187500 0.003343
0.937500 0.187500 0.003343
0.968742 0.187500 0.003343
0.996657 0.187500 0.003343
0.003343 0.218750 0.003343
0.031258 0.218750 0.003343
0.062500 0.218750 0.003343
0.093750 0.218750 0.003343
0.125000 0.218750 0.003343
0.156250 0.218750 0.003343
0.187500 0.218750 0.003343
0.218750 0.218750 0.003343
0.250000 0.218750 0.003343
0.281250 0.218750 0.003343
0.312500 0.218750 0.003343
0.343750 0.218750 0.003343
0.375000 0.218750 0.003343
0.406250 0.218750 0.003343
0.437500 0.218750 0.003343
0.468750 0.218750 0.003343
0.500000 0.218750 0.003343
0.531250 0.218750 0.003343
0.562500 0.218750 0.003343
0.593750 0.218750 0.003343
0.625000 0.218750 0.003343
0.656250 0.218750 0.003343
0.687500 0.218750 0.003343
0.718750 0.218750 0.003343
0.750000 0.218750 0.003343
0.781250 0.218750 0.003343
0.812500 0.218750 0.003343
0.843750 0.218750 0.003343
0.875000 0.218750 0.003343
0.906250 0.218750 0.003343
0.937500 0.218750 0.003343
0.968742 0.218750 0.003343
0.996657 0.218750 0.003343
0.003343 0.250000 0.003343
0.031258 0.250000 0.003343
0.062500 0.250000 0.003343
0.093750 0.250000 0.003343
0.125000 0.250000 0.003343
0.156250 0.250000 0.003343
0.187500 0.250000 0.003343
0.218750 0.250000 0.003343
0.250000 0.250000 0.003343
0.281250 0.250000 0.003343
0.312500 0.250000 0.003343
0.343750 0.250000 0.003343
0.375000 0.250000 0.003343
0.406250 0.250000 0.003343
0.437500 0.250000 0.003343
0.468750 0.250000 0.003343
0.500000 0.250000 0.003343
0.531250 0.250000 0.003343
0.562500 0.250000 0.003343
0.593750 0.250000 0.003343
0.625000 0.250000 0.003343
0.656250 0.250000 0.003343
0.687500 0.250000 0.003343
0.718750 0.250000 0.003343
0.750000 0.250000 0.003343
0.781250 0.250000 0.003343
0.812500 0.250000 0.003343
0.843750 0.250000 0.003343
0.875000 0.250000 0.003343
0.906250 0.250000 0.003343
0.937500 0.250000 0.003343
0.968742 0.250000 0.003343
0.996657 0.250000 0.003343
0.003343 0.281250 0.003343
0.031258 0.281250 0.003343
0.062500 0.281250 0.003343
0.093750 0.281250 0.003343
0.125000 0.281250 0.003343
0.156250 0.281250 0.003343
0.187500 0.281250 0.003343
0.218750 0.281250 0.003343
0.250000 0.281250 0.003343
0.281250 0.281250 0.003343
0.312500 0.281250 0.003343
0.343750 0.281250 0.003343
0.375000 0.281250 0.003343
0.406250 0.281250 0.003343
0.437500 0.281250 0.003343
0.468750 0.281250 0.003343
0.500000 0.281250 0.003343
0.531250 0.281250 0.003343
0.562500 0.281250 0.003343
0.593750 0.281250 0.003343
0.625000 0.281250 0.003343
0.656250 0.281250 0.003343
0.687500 0.281250 0.003343
0.718750 0.281250 0.003343
0.750000 0.281250 0.003343
0.781250 0.281250 0.003343
0.812500 0.281250 0.003343
0.843750 0.281250 0.003343
0.875000 0.281250 0.003343
0.906250 0.281250 0.003343
0.937500 0.281250 0.003343
0.968742 0.281250 0.003343
0.996657 0.281250 0.003343
0.003343 0.312500 0.003343
0.031258 0.312500 0.003343
0.062500 0.312500 0.003343
0.093750 0.312500 0.003343
0.125000 0.312500 0.003343
0.156250 0.312500 0.003343
0.187500 0.312500 0.003343
0.218750 0.312500 0.003343
0.250000 0.312500 0.003343
0.281250 0.312500 0.003343
0.312500 0.312500 0.003343
0.343750 0.312500 0.003343
0.375000 0.312500 0.003343
0.406250 0.312500 0.003343
0.437500 0.312500 0.003343
0.468750 0.312500 0.003343
0.500000 0.312500 0.003343
0.531250 0.312500 0.003343
0.562500 0.312500 0.003343
0.593750 0.312500 0.003343
0.625000 0.312500 0.003343
0.656250 0.312500 0.003343
0.687500 0.312500 0.003343
0.718750 0.312500 0.003343
0.750000 0.312500 0.003343
0.781250 0.312500 0.003343
0.812500 0.312500 0.003343
0.843750 0.312500 0.003343
0.875000 0.312500 0.003343
0.906250 0.312500 0.003343
0.937500 0.312500 0.003343
0.968742 0.312500 0.003343
0.996657 0.312500 0.003343
0.003343 0.343750 0.003343
0.031258 0.343750 0.003343
0.062500 0.343750 0.003343
0.093750 0.343750 0.003343
0.125000 0.343750 0.003343
0.156250 0.343750 0.003343
0.187500 0.343750 0.003343
0.218750 0.343750 0.003343
0.250000 0.343750 0.003343
0.281250 0.343750 0.003343
0.312500 0.343750 0.003343
0.343750 0.343750 0.003343
0.375000 0.343750 0.003343
0.406250 0.343750 0.003343
0.437500 0.343750 0.003343
0.468750 0.343750 0.003343
0.500000 0.343750 0.003343
0.531250 0.343750 0.003343
0.562500 0.343750 0.003343
0.593750 0.343750 0.003343
0.625000 0.343750 0.003343
0.656250 0.343750 0.003343
0.687500 0.343750 0.003343
0.718750 0.343750 0.003343
0.750000 0.343750 0.003343
0.781250 0.343750 0.003343
0.812500 0.343750 0.003343
0.843750 0.343750 0.003343
0.875000 0.343750 0.003343
0.906250 0.343750 0.003343
0.937500 0.343750 0.003343
0.968742 0.343750 0.003343
0.996657 0.343750 0.003343
0.003343 0.375000 0.003343
0.031258 0.375000 0.003343
0.062500 0.375000 0.003343
0.093750 0.375000 0.003343
0.125000 0.375000 0.003343
0.156250 0.375000 0.003343
0.187500 0.375000 0.003343
0.218750 0.375000 0.003343
0.250000 0.375000 0.003343
0.281250 0.375000 0.003343
0.312500 0.375000 0.003343
0.343750 0.375000 0.003343
0.375000 0.375000 0.003343
0.406250 0.375000 0.003343
0.437500 0.375000 0.003343
0.468750 0.375000 0.003343
0.500000 0.375000 0.003343
0.531250 0.375000 0.003343
0.562500 0.375000 0.003343
0.593750 0.375000 0.003343
0.625000 0.375000 0.003343
0.656250 0.375000 0.003343
0.687500 0.375000 0.003343
0.718750 0.375000 0.003343
0.750000 0.375000 0.003343
0.781250 0.375000 0.003343
0.812500 0.375000 0.003343
0.843750 0.375000 0.003343
0.875000 0.375000 0.003343
0.906250 0.375000 0.003343
0.937500 0.375000 0.003343
0.968742 0.375000 0.003343
0.996657 0.375000 0.003343
0.003343 0.406250 0.003343
0.031258 0.406250 0.003343
0.062500 0.406250 0.003343
0.093750 0.406250 0.003343
0.125000 0.406250 0.003343
0.156250 0.406250 0.003343
0.187500 0.406250 0.003343
0.218750 0.406250 0.003343
0.250000 0.406250 0.003343
0.281250 0.406250 0.003343
0.312500 0.406250 0.003343
0.343750 0.406250 0.003343
0.375000 0.406250 0.003343
0.406250 0.406250 0.003343
0.437500 0.406250 0.003343
0.468750 0.406250 0.003343
0.500000 0.406250 0.003343
0.531250 0.406250 0.003343
0.562500 0.406250 0.003343
0.593750 0.406250 0.003343
0.625000 0.406250 0.003343
0.656250 0.406250 0.003343
0.687500 0.406250 0.003343
0.718750 0.406250 0.003343
0.750000 0.406250 0.003343
0.781250 0.406250 0.003343
0.812500 0.406250 0.003343
0.843750 0.406250 0.003343
0.875000 0.406250 0.003343
0.906250 0.406250 0.003343
0.937500 0.406250 0.003343
0.968742 0.406250 0.003343
0.996657 0.406250 0.003343
0.003343 0.437500 0.003343
0.031258 0.437500 0.003343
0.062500 0.437500 0.003343
0.093750 0.437500 0.003343
0.125000 0.437500 0.003343
0.156250 0.437500 0.003343
0.187500 0.437500 0.003343
0.218750 0.437500 0.003343
0.250000 0.437500 0.003343
0.281250 0.437500 0.003343
0.312500 0.437500 0.003343
0.343750 0.437500 0.003343
0.375000 0.437500 0.003343
0.406250 0.437500 0.003343
0.437500 0.437500 0.003343
0.468750 0.437500 0.003343
0.500000 0.437500 0.003343
0.531250 0.437500 0.003343
0.562500 0.437500 0.003343
0.593750 0.437500 0.003343
0.625000 0.437500 0.003343
0.656250 0.437500 0.003343
0.687500 0.437500 0.003343
0.718750 0.437500 0.003343
0.750000 0.437500 0.003343
0.781250 0.437500 0.003343
0.812500 0.437500 0.003343
0.843750 0.437500 0.003343
0.875000 0.437500 0.003343
0.906250 0.437500 0.003343
0.937500 0.437500 0.003343
0.968742 0.437500 0.003343
0.996657 0.437500 0.003343
0.003343 0.468750 0.003343
0.031258 0.468750 0.003343
0.062500 0.468750 0.003343
0.093750 0.468750 0.003343
0.125000 0.468750 0.003343
0.156250 0.468750 0.003343
0.187500 0.468750 0.003343
0.218750 0.468750 0.003343
0.250000 0.468750 0.003343
0.281250 0.468750 0.003343
0.312500 0.468750 0.003343
0.343750 0.468750 0.003343
0.375000 0.468750 0.003343
0.406250 0.468750 0.003343
0.437500 0.468750 0.003343
0.468750 0.468750 0.003343
0.500000 0.468750 0.003343
0.531250 0.468750 0.003343
0.562500 0.468750 0.003343
0.593750 0.468750 0.003343
0.625000 0.468750 0.003343
0.656250 0.468750 0.003343
0.687500 0.468750 0.003343
0.718750 0.468750 0.003343
0.750000 0.468750 0.003343
0.781250 0.468750 0.003343
0.812500 0.468750 0.003343
0.843750 0.468750 0.003343
0.875000 0.468750 0.003343
0.906250 0.468750 0.003343
0.937500 0.468750 0.003343
0.968742 0.468750 0.003343
0.996657 0.468750 0.003343
0.003343 0.500000 0.003343
0.031258 0.500000 0.003343
0.062500 0.500000 0.003343
0.093750 0.500000 0.003343
0.125000 0.500000 0.003343
0.156250 0.500000 0.003343
0.187500 0.500000 0.003343
0.218750 0.500000 0.003343
0.250000 0.500000 0.003343
0.281250 0.500000 0.003343
0.312500 0.500000 0.003343
0.343750 0.500000 0.003343
0.375000 0.500000 0.003343
0.406250 0.500000 0.003343
0.437500 0.500000 0.003343
0.468750 0.500000 0.003343
0.500000 0.500000 0.003343
0.531250 0.500000 0.003343
0.562500 0.500000 0.003343
0.593750 0.500000 0.003343
0.625000 0.500000 0.003343
0.656250 0.500000 0.003343
0.687500 0.500000 0.003343
0.718750 0.500000 0.003343
0.750000 0.500000 0.003343
0.781250 0.500000 0.003343
0.812500 0.500000 0.003343
0.843750 0.500000 0.003343
0.875000 0.500000 0.003343
0.906250 0.500000 0.003343
0.937500 0.500000 0.003343
0.968742 0.500000 0.003343
0.996657 0.500000 0.003343
0.003343 0.531250 0.003343
0.031258 0.531250 0.003343
0.062500 0.531250 0.003343
0.093750 0.531250 0.003343
0.125000 0.531250 0.003343
0.156250 0.531250 0.003343
0.187500 0.531250 0.003343
0.218750 0.531250 0.003343
0.250000 0.531250 0.003343
0.281250 0.531250 0.003343
0.312500 0.531250 0.003343
0.343750 0.531250 0.003343
0.375000 0.531250 0.003343
0.406250 0.531250 0.003343
0.437500 0.531250 0.003343
0.468750 0.531250 0.003343
0.500000 0.531250 0.003343
0.531250 0.531250 0.003343
0.562500 0.531250 0.003343
0.593750 0.531250 0.003343
0.625000 0.531250 0.003343
0.656250 0.531250 0.003343
0.687500 0.531250 0.003343
0.718750 0.531250 0.003343
0.750000 0.531250 0.003343
0.781250 0.531250 0.003343
0.812500 0.531250 0.003343
0.843750 0.531250 0.003343
0.875000 0.531250 0.003343
0.906250 0.531250 0.003343
0.937500 0.531250 0.003343
0.968742 0.531250 0.003343
0.996657 0.531250 0.003343
0.003343 0.562500 0.003343
0.031258 0.562500 0.003343
0.062500 0.562500 0.003343
0.093750 0.562500 0.003343
0.125000 0.562500 0.003343
0.156250 0.562500 0.003343
0.187500 0.562500 0.003343
0.218750 0.562500 0.003343
0.250000 0.562500 0.003343
0.281250 0.562500 0.003343
0.312500 0.562500 0.003343
0.343750 0.562500 0.003343
0.375000 0.562500 0.003343
0.406250 0.562500 0.003343
0.437500 0.562500 0.003343
0.468750 0.562500 0.003343
0.500000 0.562500 0.003343
0.531250 0.562500 0.003343
0.562500 0.562500 0.003343
0.593750 0.562500 0.003343
0.625000 0.562500 0.003343
0.656250 0.562500 0.003343
0.687500 0.562500 0.003343
0.718750 0.562500 0.003343
0.750000 0.562500 0.003343
0.781250 0.562500 0.003343
0.812500 0.562500 0.003343
0.843750 0.562500 0.003343
0.875000 0.562500 0.003343
0.906250 0.562500 0.003343
0.937500 0.562500 0.003343
0.968742 0.562500 0.003343
0.996657 0.562500 0.003343
0.003343 0.593750 0.003343
0.031258 0.593750 0.003343
0.062500 0.593750 0.003343
0.093750 0.593750 0.003343
0.125000 0.593750 0.003343
0.156250 0.593750 0.003343
0.187500 0.593750 0.003343
0.218750 0.593750 0.003343
0.250000 0.593750 0.003343
0.281250 0.593750 0.003343
0.312500 0.593750 0.003343
0.343750 0.593750 0.003343
0.375000 0.593750 0.003343
0.406250 0.593750 0.003343
0.437500 0.593750 0.003343
0.468750 0.593750 0.003343
0.500000 0.593750 0.003343
0.531250 0.593750 0.003343
0.562500 0.593750 0.003343
0.593750 0.593750 0.003343
0.625000 0.593750 0.003343
0.656250 0.593750 0.003343
0.687500 0.593750 0.003343
0.718750 0.593750 0.003343
0.750000 0.593750 0.003343
0.781250 0.593750 0.003343
0.812500 0.593750 0.003343
0.843750 0.593750 0.003343
0.875000 0.593750 0.003343
0.906250 0.593750 0.003343
0.937500 0.593750 0.003343
0.968742 0.593750 0.003343
0.996657 0.593750 0.003343
0.003343 0.625000 0.003343
0.031258 0.625000 0.003343
0.062500 0.625000 0.003343
0.093750 0.625000 0.003343
0.125000 0.625000 0.003343
0.156250 0.625000 0.003343
0.187500 0.625000 0.003343
0.218750 0.625000 0.003343
0.250000 0.625000 0.003343
0.281250 0.625000 0.003343
0.312500 0.625000 0.003343
0.343750 0.625000 0.003343
0.375000 0.625000 0.003343
0.406250 0.625000 0.003343
0.437500 0.625000 0.003343
0.468750 0.625000 0.003343
0.500000 0.625000 0.003343
0.531250 0.625000 0.003343
0.562500 0.625000 0.003343
0.593750 0.625000 0.003343
0.625000 0.625000 0.003343
0.656250 0.625000 0.003343
0.687500 0.625000 0.003343
0.718750 0.625000 0.003343
0.750000 0.625000 0.003343
0.781250 0.625000 0.003343
0.812500 0.625000 0.003343
0.843750 0.625000 0.003343
0.875000 0.625000 0.003343
0.906250 0.625000 0.003343
0.937500 0.625000 0.003343
0.968742 0.625000 0.003343
0.996657 0.625000 0.003343
0.003343 0.656250 0.003343
0.031258 0.656250 0.003343
0.062500 0.656250 0.003343
0.093750 0.656250 0.003343
0.125000 0.656250 0.003343
0.156250 0.656250 0.003343
0.187500 0.656250 0.003343
0.218750 0.656250 0.003343
0.250000 0.656250 0.003343
0.281250 0.656250 0.003343
0.312500 0.656250 0.003343
0.343750 0.656250 0.003343
0.375000 0.656250 0.003343
0.406250 0.656250 0.003343
0.437500 0.656250 0.003343
0.468750 0.656250 0.003343
0.500000 0.656250 0.003343
0.531250 0.656250 0.003343
0.562500 0.656250 0.003343
0.593750 0.656250 0.003343
0.625000 0.656250 0.003343
0.656250 0.656250 0.003343
0.687500 0.656250 0.003343
0.718750 0.656250 0.003343
0.750000 0.656250 0.003343
0.781250 0.656250 0.003343
0.812500 0.656250 0.003343
0.843750 0.656250 0.003343
0.875000 0.656250 0.003343
0.906250 0.656250 0.003343
0.937500 0.656250 0.003343
0.968742 0.656250 0.003343
0.996657 0.656250 0.003343
0.003343 0.687500 0.003343
0.031258 0.687500 0.003343
0.062500 0.687500 0.003343
0.093750 0.687500 0.003343
0.125000 0.687500 0.003343
0.156250 0.687500 0.003343
0.187500 0.687500 0.003343
0.218750 0.687500 0.003343
0.250000 0.687500 0.003343
0.281250 0.687500 0.003343
0.312500 0.687500 0.003343
0.343750 0.687500 0.003343
0.375000 0.687500 0.003343
0.406250 0.687500 0.003343
0.437500 0.687500 0.003343
0.468750 0.687500 0.003343
0.500000 0.687500 0.003343
0.531250 0.687500 0.003343
0.562500 0.687500 0.003343
0.593750 0.687500 0.003343
0.625000 0.687500 0.003343
0.656250 0.687500 0.003343
0.687500 0.687500 0.003343
0.718750 0.687500 0.003343
0.750000 0.687500 0.003343
0.781250 0.687500 0.003343
0.812500 0.687500 0.003343
0.843750 0.687500 0.003343
0.875000 0.687500 0.003343
0.906250 0.687500 0.003343
0.937500 0.687500 0.003343
0.968742 0.687500 0.003343
0.996657 0.687500 0.003343
0.003343 0.718750 0.003343
0.031258 0.718750 0.003343
0.062500 0.718750 0.003343
0.093750 0.718750 0.003343
0.125000 0.718750 0.003343
0.156250 0.718750 0.003343
0.187500 0.718750 0.003343
0.218750 0.718750 0.003343
0.250000 0.718750 0.003343
0.281250 0.718750 0.003343
0.312500 0.718750 0.003343
0.343750 0.718750 0.003343
0.375000 0.718750 0.003343
0.406250 0.718750 0.003343
0.437500 0.718750 0.003343
0.468750 0.718750 0.003343
0.500000 0.718750 0.003343
0.531250 0.718750 0.003343
0.562500 0.718750 0.003343
0.593750 0.718750 0.003343
0.625000 0.718750 0.003343
0.656250 0.718750 0.003343
0.687500 0.718750 0.003343
0.718750 0.718750 0.003343
0.750000 0.718750 0.003343
0.781250 0.718750 0.003343
0.812500 0.718750 0.003343
0.843750 0.718750 0.003343
0.875000 0.718750 0.003343
0.906250 0.718750 0.003343
0.937500 0.718750 0.003343
0.968742 0.718750 0.003343
0.996657 0.718750 0.003343
0.003343 0.750000 0.003343
0.031258 0.750000 0.003343
0.062500 0.750000 0.003343
0.093750 0.750000 0.003343
0.125000 0.750000 0.003343
0.156250 0.750000 0.003343
0.187500 0.750000 0.003343
0.218750 0.750000 0.003343
0.250000 0.750000 0.003343
0.281250 0.750000 0.003343
0.312500 0.750000 0.003343
0.343750 0.750000 0.003343
0.375000 0.750000 0.003343
0.406250 0.750000 0.003343
0.437500 0.750000 0.003343
0.468750 0.750000 0.003343
0.500000 0.750000 0.003343
0.531250 0.750000 0.003343
0.562500 0.750000 0.003343
0.593750 0.750000 0.003343
0.625000 0.750000 0.003343
0.656250 0.750000 0.003343
0.687500 0.750000 0.003343
0.718750 0.750000 0.003343
0.750000 0.750000 0.003343
0.781250 0.750000 0.003343
0.812500 0.750000 0.003343
0.843750 0.750000 0.003343
0.875000 0.750000 0.003343
0.906250 0.750000 0.003343
0.937500 0.750000 0.003343
0.968742 0.750000 0.003343
0.996657 0.750000 0.003343
0.003343 0.781250 0.003343
0.031258 0.781250 0.003343
0.062500 0.781250 0.003343
0.093750 0.781250 0.003343
0.125000 0.781250 0.003343
0.156250 0.781250 0.003343
0.187500 0.781250 0.003343
0.218750 0.781250 0.003343
0.250000 0.781250 0.003343
0.281250 0.781250 0.003343
0.312500 0.781250 0.003343
0.343750 0.781250 0.003343
0.375000 0.781250 0.003343
0.406250 0.781250 0.003343
0.437500 0.781250 0.003343
0.468750 0.781250 0.003343
0.500000 0.781250 0.003343
0.531250 0.781250 0.003343
0.562500 0.781250 0.003343
0.593750 0.781250 0.003343
0.625000 0.781250 0.003343
0.656250 0.781250 0.003343
0.687500 0.781250 0.003343
0.718750 0.781250 0.003343
0.750000 0.781250 0.003343
0.781250 0.781250 0.003343
0.812500 0.781250 0.003343
0.843750 0.781250 0.003343
0.875000 0.781250 0.003343
0.906250 0.781250 0.003343
0.937500 0.781250 0.003343
0.968742 0.781250 0.003343
0.996657 0.781250 0.003343
0.003343 0.812500 0.003343
0.031258 0.812500 0.003343
0.062500 0.812500 0.003343
0.093750 0.812500 0.003343
0.125000 0.812500 0.003343
0.156250 0.812500 0.003343
0.187500 0.812500 0.003343
0.218750 0.812500 0.003343
0.250000 0.812500 0.003343
0.281250 0.812500 0.003343
0.312500 0.812500 0.003343
0.343750 0.812500 0.003343
0.375000 0.812500 0.003343
0.406250 0.812500 0.003343
0.437500 0.812500 0.003343
0.468750 0.812500 0.003343
0.500000 0.812500 0.003343
0.531250 0.812500 0.003343
0.562500 0.812500 0.003343
0.593750 0.812500 0.003343
0.625000 0.812500 0.003343
0.656250 0.812500 0.003343
0.687500 0.812500 0.003343
0.718750 0.812500 0.003343
0.750000 0.812500 0.003343
0.781250 0.812500 0.003343
