Mimicamera/Resources/CuratedLUTs/golden-hour.cube
# Mimicamera generated LUT
TITLE "Golden Hour"
LUT_3D_SIZE 9
DOMAIN_MIN 0.0 0.0 0.0
DOMAIN_MAX 1.0 1.0 1.0
0.003343 0.003343 0.003343
0.125000 0.003343 0.003343
0.250000 0.003343 0.003343
0.375000 0.003343 0.003343
0.500000 0.003343 0.003343
0.625000 0.003343 0.003343
0.750000 0.003343 0.003343
0.875000 0.003343 0.003343
0.996657 0.003343 0.003343
0.003343 0.125000 0.003343
0.125000 0.125000 0.003343
0.250000 0.125000 0.003343
0.375000 0.125000 0.003343
0.500000 0.125000 0.003343
0.625000 0.125000 0.003343
0.750000 0.125000 0.003343
0.875000 0.125000 0.003343
0.996657 0.125000 0.003343
0.003343 0.250000 0.003343
0.125000 0.250000 0.003343
0.250000 0.250000 0.003343
0.375000 0.250000 0.003343
0.500000 0.250000 0.003343
0.625000 0.250000 0.003343
0.750000 0.250000 0.003343
0.875000 0.250000 0.003343
0.996657 0.250000 0.003343
0.003343 0.375000 0.003343
0.125000 0.375000 0.003343
0.250000 0.375000 0.003343
0.375000 0.375000 0.003343
0.500000 0.375000 0.003343
0.625000 0.375000 0.003343
0.750000 0.375000 0.003343
0.875000 0.375000 0.003343
0.996657 0.375000 0.003343
0.003343 0.500000 0.003343
0.125000 0.500000 0.003343
0.250000 0.500000 0.003343
0.375000 0.500000 0.003343
0.500000 0.500000 0.003343
0.625000 0.500000 0.003343
0.750000 0.500000 0.003343
0.875000 0.500000 0.003343
0.996657 0.500000 0.003343
0.003343 0.625000 0.003343
0.125000 0.625000 0.003343
0.250000 0.625000 0.003343
0.375000 0.625000 0.003343
0.500000 0.625000 0.003343
0.625000 0.625000 0.003343
0.750000 0.625000 0.003343
0.875000 0.625000 0.003343
0.996657 0.625000 0.003343
0.003343 0.750000 0.003343
0.125000 0.750000 0.003343
0.250000 0.750000 0.003343
0.375000 0.750000 0.003343
0.500000 0.750000 0.003343
0.625000 0.750000 0.003343
0.750000 0.750000 0.003343
0.875000 0.750000 0.003343
0.996657 0.750000 0.003343
0.003343 0.875000 0.003343
0.125000 0.875000 0.003343
0.250000 0.875000 0.003343
0.375000 0.875000 0.003343
0.500000 0.875000 0.003343
0.625000 0.875000 0.003343
0.750000 0.875000 0.003343
0.875000 0.875000 0.003343
0.996657 0.875000 0.003343
0.003343 0.996657 0.003343
0.125000 0.996657 0.003343
0.250000 0.996657 0.003343
0.375000 0.996657 0.003343
0.500000 0.996657 0.003343
0.625000 0.996657 0.003343
0.750000 0.996657 0.003343
0.875000 0.996657 0.003343
0.996657 0.996657 0.003343
0.003343 0.003343 0.125000
0.125000 0.003343 0.125000
0.250000 0.003343 0.125000
0.375000 0.003343 0.125000
0.500000 0.003343 0.125000
0.625000 0.003343 0.125000
0.750000 0.003343 0.125000
0.875000 0.003343 0.125000
0.996657 0.003343 0.125000
0.003343 0.125000 0.125000
0.125000 0.125000 0.125000
0.250000 0.125000 0.125000
0.375000 0.125000 0.125000
0.500000 0.125000 0.125000
0.625000 0.125000 0.125000
0.750000 0.125000 0.125000
0.875000 0.125000 0.125000
0.996657 0.125000 0.125000
0.003343 0.250000 0.125000
0.125000 0.250000 0.125000
0.250000 0.250000 0.125000
0.375000 0.250000 0.125000
0.500001 0.250001 0.125000
0.625000 0.250000 0.125000
0.750000 0.250000 0.125000
0.875000 0.250000 0.125000
0.996657 0.250000 0.125000
0.003343 0.375000 0.125000
0.125000 0.375000 0.125000
0.250000 0.375000 0.125000
0.375000 0.375000 0.125000
0.501885 0.376583 0.126400
0.626526 0.376949 0.126644
0.750001 0.375002 0.125002
0.875000 0.375000 0.125000
0.996657 0.375000 0.125000
0.003343 0.500000 0.125000
0.125000 0.500000 0.125000
0.250000 0.500000 0.125000
0.375000 0.500000 0.125000
0.500069 0.500038 0.125045
0.626834 0.501366 0.126794
0.750169 0.500236 0.125293
0.875000 0.500000 0.125000
0.996657 0.500000 0.125000
0.003343 0.625000 0.125000
0.125000 0.625000 0.125000
0.250000 0.625000 0.125000
0.375000 0.625000 0.125000
0.500000 0.625000 0.125000
0.625002 0.625001 0.125002
0.750033 0.625020 0.125056
0.875000 0.625000 0.125001
0.996657 0.625000 0.125000
0.003343 0.750000 0.125000
0.125000 0.750000 0.125000
0.250000 0.750000 0.125000
0.375000 0.750000 0.125000
0.500000 0.750000 0.125000
0.625000 0.750000 0.125000
0.750000 0.750000 0.125000
0.875000 0.750000 0.125000
0.996657 0.750000 0.125000
0.003343 0.875000 0.125000
0.125000 0.875000 0.125000
0.250000 0.875000 0.125000
0.375000 0.875000 0.125000
0.500000 0.875000 0.125000
0.625000 0.875000 0.125000
0.750000 0.875000 0.125000
0.875000 0.875000 0.125000
0.996657 0.875000 0.125000
0.003343 0.996657 0.125000
0.125000 0.996657 0.125000
0.250000 0.996657 0.125000
0.375000 0.996657 0.125000
0.500000 0.996657 0.125000
0.625000 0.996657 0.125000
0.750000 0.996657 0.125000
0.875000 0.996657 0.125000
0.996657 0.996657 0.125000
0.003343 0.003343 0.250000
0.125000 0.003343 0.250000
0.250000 0.003343 0.250000
0.375000 0.003343 0.250000
0.500000 0.003343 0.250000
0.625000 0.003343 0.250000
0.750000 0.003343 0.250000
0.875000 0.003343 0.250000
0.996657 0.003343 0.250000
0.003343 0.125000 0.250000
0.125000 0.125000 0.250000
0.250000 0.125000 0.250000
0.375000 0.125000 0.250000
0.500000 0.125000 0.250000
0.625000 0.125000 0.250000
0.750000 0.125000 0.250000
0.875000 0.125000 0.250000
0.996657 0.125000 0.250000
0.003343 0.250000 0.250000
0.125000 0.250000 0.250000
0.250000 0.250000 0.250000
0.375000 0.250000 0.250000
0.500228 0.250279 0.250084
0.625116 0.250240 0.250072
0.750000 0.250000 0.250000
0.875000 0.250000 0.250000
0.996657 0.250000 0.250000
0.003343 0.375000 0.250000
0.125000 0.375000 0.250000
0.250000 0.375000 0.250000
0.375001 0.375001 0.250000
0.516126 0.388447 0.256090
0.645107 0.401603 0.262097
0.752229 0.381164 0.252802
0.875000 0.375000 0.250000
0.996657 0.375000 0.250000
0.003343 0.500000 0.250000
0.125000 0.500000 0.250000
0.250000 0.500000 0.250000
0.375000 0.500000 0.250000
0.511122 0.505560 0.254166
0.667958 0.531862 0.273779
0.771445 0.530677 0.272937
0.875415 0.505739 0.254350
0.996656 0.500002 0.250001
0.003343 0.625000 0.250000
0.125000 0.625000 0.250000
0.250000 0.625000 0.250000
0.375000 0.625000 0.250000
0.500019 0.625005 0.250007
0.638177 0.629007 0.257483
0.775229 0.638252 0.275164
0.878259 0.636435 0.272068
0.994744 0.626567 0.252972
0.003343 0.750000 0.250000
0.125000 0.750000 0.250000
0.250000 0.750000 0.250000
0.375000 0.750000 0.250000
0.500000 0.750000 0.250000
0.625005 0.750000 0.250002
0.754763 0.748864 0.254757
0.877688 0.746067 0.264578
0.994194 0.749067 0.254060
0.003343 0.875000 0.250000
0.125000 0.875000 0.250000
0.250000 0.875000 0.250000
0.375000 0.875000 0.250000
0.500000 0.875000 0.250000
0.625000 0.875000 0.250000
0.750000 0.875000 0.250000
0.875019 0.874889 0.250122
0.996655 0.874996 0.250005
0.003343 0.996657 0.250000
0.125000 0.996657 0.250000
0.250000 0.996657 0.250000
0.375000 0.996657 0.250000
0.500000 0.996657 0.250000
0.625000 0.996657 0.250000
0.750000 0.996657 0.250000
0.875000 0.996657 0.250000
0.996657 0.996657 0.250000
0.003343 0.003343 0.375000
0.125000 0.003343 0.375000
0.250000 0.003343 0.375000
0.375000 0.003343 0.375000
0.500000 0.003343 0.375000
0.625000 0.003343 0.375000
0.750000 0.003343 0.375000
0.875000 0.003343 0.375000
0.996657 0.003343 0.375000
0.003343 0.125000 0.375000
0.125000 0.125000 0.375000
0.250000 0.125000 0.375000
0.375000 0.125000 0.375000
0.500000 0.125000 0.375000
0.625000 0.125000 0.375000
0.750000 0.125000 0.375000
0.875000 0.125000 0.375000
0.996657 0.125000 0.375000
0.003343 0.250000 0.375000
0.125000 0.250000 0.375000
0.250000 0.250000 0.375000
0.375000 0.250000 0.375000
0.500000 0.250000 0.375000
0.625000 0.250000 0.375000
0.750000 0.250000 0.375000
0.875000 0.250000 0.375000
0.996657 0.250000 0.375000
0.003343 0.375000 0.375000
0.125000 0.375000 0.375000
0.250000 0.375000 0.375000
0.375000 0.375000 0.375000
0.501982 0.376662 0.375042
0.634940 0.388115 0.375463
0.752171 0.381094 0.375220
0.875001 0.375015 0.375001
0.996657 0.375000 0.375000
0.003343 0.500000 0.375000
0.125000 0.500000 0.375000
0.250000 0.500000 0.375000
0.375000 0.500000 0.375000
0.503841 0.501969 0.375243
0.668446 0.532302 0.378691
0.787860 0.555469 0.382186
0.876278 0.522837 0.377675
0.996373 0.500525 0.375080
0.003343 0.625000 0.375000
0.125000 0.625000 0.375000
0.250000 0.625000 0.375000
0.375000 0.625000 0.375000
0.500022 0.625006 0.375002
0.652579 0.632707 0.377715
0.827494 0.665665 0.389927
0.888701 0.677213 0.391923
0.978162 0.639654 0.380986
0.003343 0.750000 0.375000
0.125000 0.750000 0.375000
0.250000 0.750000 0.375000
0.375000 0.750000 0.375000
0.500000 0.750000 0.375000
0.625711 0.749921 0.375068
0.782234 0.741690 0.380915
0.892094 0.724303 0.389866
0.970563 0.740169 0.385460
0.003343 0.875000 0.375000
0.125000 0.875000 0.375000
0.250000 0.875000 0.375000
0.375000 0.875000 0.375000
0.500000 0.875000 0.375000
0.625000 0.875000 0.375000
0.750400 0.874596 0.375110
0.877187 0.865771 0.378249
0.994171 0.870971 0.376872
0.003343 0.996657 0.375000
0.125000 0.996657 0.375000
0.250000 0.996657 0.375000
0.375000 0.996657 0.375000
0.500000 0.996657 0.375000
0.625000 0.996657 0.375000
0.750000 0.996657 0.375000
0.875000 0.996657 0.375000
0.996657 0.996657 0.375000
0.003343 0.003343 0.500000
0.125000 0.003343 0.500000
0.250000 0.003343 0.500000
0.375000 0.003343 0.500000
0.500000 0.003343 0.500000
0.625000 0.003343 0.500000
0.750000 0.003343 0.500000
0.875000 0.003343 0.500000
0.996657 0.003343 0.500000
0.003343 0.125000 0.500000
0.125000 0.125000 0.500000
0.250000 0.125000 0.500000
0.375000 0.125000 0.500000
0.500000 0.125000 0.500000
0.625000 0.125000 0.500000
0.750000 0.125000 0.500000
0.875000 0.125000 0.500000
0.996657 0.125000 0.500000
0.003343 0.250000 0.500000
0.125000 0.250000 0.500000
0.250000 0.250000 0.500000
0.375000 0.250000 0.500000
0.500000 0.250000 0.500000
0.625000 0.250000 0.500000
0.750000 0.250000 0.500000
0.875000 0.250000 0.500000
0.996657 0.250000 0.500000
0.003343 0.375000 0.500000
0.125000 0.375000 0.500000
0.250000 0.375000 0.500000
0.375000 0.375000 0.500000
0.500000 0.375000 0.500000
0.625002 0.375003 0.499999
0.750005 0.375011 0.499997
0.875000 0.375000 0.500000
0.996657 0.375000 0.500000
0.003343 0.500000 0.500000
0.125000 0.500000 0.500000
0.250000 0.500000 0.500000
0.375000 0.500000 0.500000
0.500000 0.500000 0.500000
0.627873 0.502141 0.498914
0.758176 0.511959 0.494125
0.875364 0.507067 0.496493
0.996622 0.500066 0.499970
0.003343 0.625000 0.500000
0.125000 0.625000 0.500000
0.250000 0.625000 0.500000
0.375000 0.625000 0.500000
0.500000 0.625000 0.500000
0.629391 0.626250 0.498491
0.783542 0.642582 0.477964
0.881954 0.658436 0.461390
0.982306 0.635760 0.487485
0.003343 0.750000 0.500000
0.125000 0.750000 0.500000
0.250000 0.750000 0.500000
0.375000 0.750000 0.500000
0.500000 0.750000 0.500000
0.625068 0.749992 0.499977
0.771733 0.743482 0.485821
0.889978 0.725795 0.446501
0.964131 0.737738 0.473796
0.003343 0.875000 0.500000
0.125000 0.875000 0.500000
0.250000 0.875000 0.500000
0.375000 0.875000 0.500000
0.500000 0.875000 0.500000
0.625000 0.875000 0.500000
0.750529 0.874504 0.499770
0.879176 0.859875 0.494409
0.988299 0.860974 0.494868
0.003343 0.996657 0.500000
0.125000 0.996657 0.500000
0.250000 0.996657 0.500000
0.375000 0.996657 0.500000
0.500000 0.996657 0.500000
0.625000 0.996657 0.500000
0.750000 0.996657 0.500000
0.875000 0.996657 0.500000
0.996656 0.996652 0.500001
0.003343 0.003343 0.625000
0.125000 0.003343 0.625000
0.250000 0.003343 0.625000
0.375000 0.003343 0.625000
0.500000 0.003343 0.625000
0.625000 0.003343 0.625000
0.750000 0.003343 0.625000
0.875000 0.003343 0.625000
0.996657 0.003343 0.625000
0.003343 0.125000 0.625000
0.125000 0.125000 0.625000
0.250000 0.125000 0.625000
0.375000 0.125000 0.625000
0.500000 0.125000 0.625000
0.625000 0.125000 0.625000
0.750000 0.125000 0.625000
0.875000 0.125000 0.625000
0.996657 0.125000 0.625000
0.003343 0.250000 0.625000
0.125000 0.250000 0.625000
0.250000 0.250000 0.625000
0.375000 0.250000 0.625000
0.500000 0.250000 0.625000
0.625000 0.250000 0.625000
0.750000 0.250000 0.625000
0.875000 0.250000 0.625000
0.996657 0.250000 0.625000
0.003343 0.375000 0.625000
0.125000 0.375000 0.625000
0.250000 0.375000 0.625000
0.375000 0.375000 0.625000
0.500000 0.375000 0.625000
0.625000 0.375000 0.625000
0.750000 0.375000 0.625000
0.875000 0.375000 0.625000
0.996657 0.375000 0.625000
0.003343 0.500000 0.625000
0.125000 0.500000 0.625000
0.250000 0.500000 0.625000
0.375000 0.500000 0.625000
0.500000 0.500000 0.625000
0.625000 0.500000 0.625000
0.750000 0.500000 0.625000
0.875000 0.500000 0.624999
0.996657 0.500000 0.625000
0.003343 0.625000 0.625000
0.125000 0.625000 0.625000
0.250000 0.625000 0.625000
0.375000 0.625000 0.625000
0.500000 0.625000 0.625000
0.625000 0.625000 0.625000
0.750785 0.625439 0.623824
0.875714 0.628238 0.616396
0.995417 0.625910 0.622498
0.003343 0.750000 0.625000
0.125000 0.750000 0.625000
0.250000 0.750000 0.625000
0.375000 0.750000 0.625000
0.500000 0.750000 0.625000
0.625000 0.750000 0.625000
0.751468 0.749592 0.622900
0.877691 0.744732 0.597522
0.983326 0.745239 0.598472
0.003343 0.875000 0.625000
0.125000 0.875000 0.625000
0.250000 0.875000 0.625000
0.375000 0.875000 0.625000
0.500000 0.875000 0.625000
0.625000 0.875000 0.625000
0.750005 0.874995 0.624994
0.877081 0.868515 0.617245
0.987342 0.860313 0.607474
0.003343 0.996657 0.625000
0.125000 0.996657 0.625000
0.250000 0.996657 0.625000
0.375000 0.996657 0.625000
0.500000 0.996657 0.625000
0.625000 0.996657 0.625000
0.750000 0.996657 0.625000
0.875000 0.996657 0.625000
0.996609 0.996455 0.624962
0.003343 0.003343 0.750000
0.125000 0.003343 0.750000
0.250000 0.003343 0.750000
0.375000 0.003343 0.750000
0.500000 0.003343 0.750000
0.625000 0.003343 0.750000
0.750000 0.003343 0.750000
0.875000 0.003343 0.750000
0.996657 0.003343 0.750000
0.003343 0.125000 0.750000
0.125000 0.125000 0.750000
0.250000 0.125000 0.750000
0.375000 0.125000 0.750000
0.500000 0.125000 0.750000
0.625000 0.125000 0.750000
0.750000 0.125000 0.750000
0.875000 0.125000 0.750000
0.996657 0.125000 0.750000
0.003343 0.250000 0.750000
0.125000 0.250000 0.750000
0.250000 0.250000 0.750000
0.375000 0.250000 0.750000
0.500000 0.250000 0.750000
0.625000 0.250000 0.750000
0.750000 0.250000 0.750000
0.875000 0.250000 0.750000
0.996657 0.250000 0.750000
0.003343 0.375000 0.750000
0.125000 0.375000 0.750000
0.250000 0.375000 0.750000
0.375000 0.375000 0.750000
0.500000 0.375000 0.750000
0.625000 0.375000 0.750000
0.750000 0.375000 0.750000
0.875000 0.375000 0.750000
0.996657 0.375000 0.750000
0.003343 0.500000 0.750000
0.125000 0.500000 0.750000
0.250000 0.500000 0.750000
0.375000 0.500000 0.750000
0.500000 0.500000 0.750000
0.625000 0.500000 0.750000
0.750000 0.500000 0.750000
0.875000 0.500000 0.750000
0.996657 0.500000 0.750000
0.003343 0.625000 0.750000
0.125000 0.625000 0.750000
0.250000 0.625000 0.750000
0.375000 0.625000 0.750000
0.500000 0.625000 0.750000
0.625000 0.625000 0.750000
0.750000 0.625000 0.750000
0.875000 0.625000 0.750000
0.996657 0.625000 0.750000
0.003343 0.750000 0.750000
0.125000 0.750000 0.750000
0.250000 0.750000 0.750000
0.375000 0.750000 0.750000
0.500000 0.750000 0.750000
0.625000 0.750000 0.750000
0.750000 0.750000 0.750000
0.875007 0.749984 0.749866
0.996291 0.749877 0.748896
0.003343 0.875000 0.750000
0.125000 0.875000 0.750000
0.250000 0.875000 0.750000
0.375000 0.875000 0.750000
0.500000 0.875000 0.750000
0.625000 0.875000 0.750000
0.750000 0.875000 0.750000
0.875003 0.874986 0.749971
0.995712 0.873544 0.747000
0.003343 0.996657 0.750000
0.125000 0.996657 0.750000
0.250000 0.996657 0.750000
0.375000 0.996657 0.750000
0.500000 0.996657 0.750000
0.625000 0.996657 0.750000
0.750000 0.996657 0.750000
0.875000 0.996657 0.750000
0.996657 0.996657 0.750000
0.003343 0.003343 0.875000
0.125000 0.003343 0.875000
0.250000 0.003343 0.875000
0.375000 0.003343 0.875000
0.500000 0.003343 0.875000
0.625000 0.003343 0.875000
0.750000 0.003343 0.875000
0.875000 0.003343 0.875000
0.996657 0.003343 0.875000
0.003343 0.125000 0.875000
0.125000 0.125000 0.875000
0.250000 0.125000 0.875000
0.375000 0.125000 0.875000
0.500000 0.125000 0.875000
0.625000 0.125000 0.875000
0.750000 0.125000 0.875000
0.875000 0.125000 0.875000
0.996657 0.125000 0.875000
0.003343 0.250000 0.875000
0.125000 0.250000 0.875000
0.250000 0.250000 0.875000
0.375000 0.250000 0.875000
0.500000 0.250000 0.875000
0.625000 0.250000 0.875000
0.750000 0.250000 0.875000
0.875000 0.250000 0.875000
0.996657 0.250000 0.875000
0.003343 0.375000 0.875000
0.125000 0.375000 0.875000
0.250000 0.375000 0.875000
0.375000 0.375000 0.875000
0.500000 0.375000 0.875000
0.625000 0.375000 0.875000
0.750000 0.375000 0.875000
0.875000 0.375000 0.875000
0.996657 0.375000 0.875000
0.003343 0.500000 0.875000
0.125000 0.500000 0.875000
0.250000 0.500000 0.875000
0.375000 0.500000 0.875000
0.500000 0.500000 0.875000
0.625000 0.500000 0.875000
0.750000 0.500000 0.875000
0.875000 0.500000 0.875000
0.996657 0.500000 0.875000
0.003343 0.625000 0.875000
0.125000 0.625000 0.875000
0.250000 0.625000 0.875000
0.375000 0.625000 0.875000
0.500000 0.625000 0.875000
0.625000 0.625000 0.875000
0.750000 0.625000 0.875000
0.875000 0.625000 0.875000
0.996657 0.625000 0.875000
0.003343 0.750000 0.875000
0.125000 0.750000 0.875000
0.250000 0.750000 0.875000
0.375000 0.750000 0.875000
0.500000 0.750000 0.875000
0.625000 0.750000 0.875000
0.750000 0.750000 0.875000
0.875000 0.750000 0.875000
0.996657 0.750000 0.875000
0.003343 0.875000 0.875000
0.125000 0.875000 0.875000
0.250000 0.875000 0.875000
0.375000 0.875000 0.875000
0.500000 0.875000 0.875000
0.625000 0.875000 0.875000
0.750000 0.875000 0.875000
0.875000 0.875000 0.875000
0.996657 0.875000 0.875000
0.003343 0.996657 0.875000
0.125000 0.996657 0.875000
0.250000 0.996657 0.875000
0.375000 0.996657 0.875000
0.500000 0.996657 0.875000
0.625000 0.996657 0.875000
0.750000 0.996657 0.875000
0.875000 0.996657 0.875000
0.996657 0.996657 0.875000
0.003343 0.003343 0.996657
0.125000 0.003343 0.996657
0.250000 0.003343 0.996657
0.375000 0.003343 0.996657
0.500000 0.003343 0.996657
0.625000 0.003343 0.996657
0.750000 0.003343 0.996657
0.875000 0.003343 0.996657
0.996657 0.003343 0.996657
0.003343 0.125000 0.996657
0.125000 0.125000 0.996657
0.250000 0.125000 0.996657
0.375000 0.125000 0.996657
0.500000 0.125000 0.996657
0.625000 0.125000 0.996657
0.750000 0.125000 0.996657
0.875000 0.125000 0.996657
0.996657 0.125000 0.996657
0.003343 0.250000 0.996657
0.125000 0.250000 0.996657
0.250000 0.250000 0.996657
0.375000 0.250000 0.996657
0.500000 0.250000 0.996657
0.625000 0.250000 0.996657
0.750000 0.250000 0.996657
0.875000 0.250000 0.996657
0.996657 0.250000 0.996657
0.003343 0.375000 0.996657
0.125000 0.375000 0.996657
0.250000 0.375000 0.996657
0.375000 0.375000 0.996657
0.500000 0.375000 0.996657
0.625000 0.375000 0.996657
0.750000 0.375000 0.996657
0.875000 0.375000 0.996657
0.996657 0.375000 0.996657
0.003343 0.500000 0.996657
0.125000 0.500000 0.996657
0.250000 0.500000 0.996657
0.375000 0.500000 0.996657
0.500000 0.500000 0.996657
0.625000 0.500000 0.996657
0.750000 0.500000 0.996657
0.875000 0.500000 0.996657
0.996657 0.500000 0.996657
0.003343 0.625000 0.996657
0.125000 0.625000 0.996657
0.250000 0.625000 0.996657
0.375000 0.625000 0.996657
0.500000 0.625000 0.996657
0.625000 0.625000 0.996657
0.750000 0.625000 0.996657
0.875000 0.625000 0.996657
0.996657 0.625000 0.996657
0.003343 0.750000 0.996657
0.125000 0.750000 0.996657
0.250000 0.750000 0.996657
0.375000 0.750000 0.996657
0.500000 0.750000 0.996657
0.625000 0.750000 0.996657
0.750000 0.750000 0.996657
0.875000 0.750000 0.996657
0.996657 0.750000 0.996657
0.003343 0.875000 0.996657
0.125000 0.875000 0.996657
0.250000 0.875000 0.996657
0.375000 0.875000 0.996657
0.500000 0.875000 0.996657
0.625000 0.875000 0.996657
0.750000 0.875000 0.996657
0.875000 0.875000 0.996657
0.996657 0.875000 0.996657
0.003343 0.996657 0.996657
0.125000 0.996657 0.996657
0.250000 0.996657 0.996657
0.375000 0.996657 0.996657
0.500000 0.996657 0.996657
0.625000 0.996657 0.996657
0.750000 0.996657 0.996657
0.875000 0.996657 0.996657
0.996657 0.996657 0.996657
