Mimicamera/Resources/CuratedLUTs/noir.cube
# Mimicamera generated LUT
TITLE "Noir"
LUT_3D_SIZE 9
DOMAIN_MIN 0.0 0.0 0.0
DOMAIN_MAX 1.0 1.0 1.0
0.003343 0.003343 0.003343
0.124999 0.003351 0.003354
0.250000 0.003343 0.003343
0.375000 0.003343 0.003343
0.500000 0.003343 0.003343
0.625000 0.003343 0.003343
0.750000 0.003343 0.003343
0.875000 0.003343 0.003343
0.996657 0.003343 0.003343
0.003360 0.125003 0.003372
0.124877 0.125175 0.005719
0.249924 0.125006 0.003438
0.375000 0.125000 0.003343
0.500000 0.125000 0.003343
0.625000 0.125000 0.003343
0.750000 0.125000 0.003343
0.875000 0.125000 0.003343
0.996657 0.125000 0.003343
0.003344 0.250000 0.003344
0.124990 0.249823 0.003646
0.249990 0.249992 0.003360
0.375000 0.250000 0.003343
0.500000 0.250000 0.003343
0.625000 0.250000 0.003343
0.750000 0.250000 0.003343
0.875000 0.250000 0.003343
0.996657 0.250000 0.003343
0.003343 0.375000 0.003343
0.125000 0.375000 0.003343
0.250000 0.375000 0.003343
0.375000 0.375000 0.003343
0.500000 0.375000 0.003343
0.625000 0.375000 0.003343
0.750000 0.375000 0.003343
0.875000 0.375000 0.003343
0.996657 0.375000 0.003343
0.003343 0.500000 0.003343
0.125000 0.500000 0.003343
0.250000 0.500000 0.003343
0.375000 0.500000 0.003343
0.500000 0.500000 0.003343
0.625000 0.500000 0.003343
0.750000 0.500000 0.003343
0.875000 0.500000 0.003343
0.996657 0.500000 0.003343
0.003343 0.625000 0.003343
0.125000 0.625000 0.003343
0.250000 0.625000 0.003343
0.375000 0.625000 0.003343
0.500000 0.625000 0.003343
0.625000 0.625000 0.003343
0.750000 0.625000 0.003343
0.875000 0.625000 0.003343
0.996657 0.625000 0.003343
0.003343 0.750000 0.003343
0.125000 0.750000 0.003343
0.250000 0.750000 0.003343
0.375000 0.750000 0.003343
0.500000 0.750000 0.003343
0.625000 0.750000 0.003343
0.750000 0.750000 0.003343
0.875000 0.750000 0.003343
0.996657 0.750000 0.003343
0.003343 0.875000 0.003343
0.125000 0.875000 0.003343
0.250000 0.875000 0.003343
0.375000 0.875000 0.003343
0.500000 0.875000 0.003343
0.625000 0.875000 0.003343
0.750000 0.875000 0.003343
0.875000 0.875000 0.003343
0.996657 0.875000 0.003343
0.003343 0.996657 0.003343
0.125000 0.996657 0.003343
0.250000 0.996657 0.003343
0.375000 0.996657 0.003343
0.500000 0.996657 0.003343
0.625000 0.996657 0.003343
0.750000 0.996657 0.003343
0.875000 0.996657 0.003343
0.996657 0.996657 0.003343
0.003678 0.003780 0.125175
0.124633 0.010534 0.127638
0.249110 0.004216 0.125334
0.375000 0.003343 0.125000
0.500000 0.003343 0.125000
0.625000 0.003343 0.125000
0.750000 0.003343 0.125000
0.875000 0.003343 0.125000
0.996657 0.003343 0.125000
0.012175 0.126301 0.129508
0.119416 0.130941 0.145457
0.229331 0.127896 0.134376
0.374837 0.125012 0.125040
0.500000 0.125000 0.125000
0.625000 0.125000 0.125000
0.750000 0.125000 0.125000
0.875000 0.125000 0.125000
0.996657 0.125000 0.125000
0.007255 0.246794 0.126849
0.124230 0.226401 0.139679
0.230653 0.234776 0.136374
0.373818 0.249534 0.125305
0.500000 0.250000 0.125000
0.625000 0.250000 0.125000
0.750000 0.250000 0.125000
0.875000 0.250000 0.125000
0.996657 0.250000 0.125000
0.003343 0.375000 0.125000
0.125182 0.373883 0.125568
0.248713 0.372385 0.126452
0.374937 0.374947 0.125031
0.500000 0.375000 0.125000
0.625000 0.375000 0.125000
0.750000 0.375000 0.125000
0.875000 0.375000 0.125000
0.996657 0.375000 0.125000
0.003343 0.500000 0.125000
0.125000 0.500000 0.125000
0.250000 0.500000 0.125000
0.375000 0.500000 0.125000
0.500000 0.500000 0.125000
0.625000 0.500000 0.125000
0.750000 0.500000 0.125000
0.875000 0.500000 0.125000
0.996657 0.500000 0.125000
0.003343 0.625000 0.125000
0.125000 0.625000 0.125000
0.250000 0.625000 0.125000
0.375000 0.625000 0.125000
0.500000 0.625000 0.125000
0.625000 0.625000 0.125000
0.750000 0.625000 0.125000
0.875000 0.625000 0.125000
0.996657 0.625000 0.125000
0.003343 0.750000 0.125000
0.125000 0.750000 0.125000
0.250000 0.750000 0.125000
0.375000 0.750000 0.125000
0.500000 0.750000 0.125000
0.625000 0.750000 0.125000
0.750000 0.750000 0.125000
0.875000 0.750000 0.125000
0.996657 0.750000 0.125000
0.003343 0.875000 0.125000
0.125000 0.875000 0.125000
0.250000 0.875000 0.125000
0.375000 0.875000 0.125000
0.500000 0.875000 0.125000
0.625000 0.875000 0.125000
0.750000 0.875000 0.125000
0.875000 0.875000 0.125000
0.996657 0.875000 0.125000
0.003343 0.996657 0.125000
0.125000 0.996657 0.125000
0.250000 0.996657 0.125000
0.375000 0.996657 0.125000
0.500000 0.996657 0.125000
0.625000 0.996657 0.125000
0.750000 0.996657 0.125000
0.875000 0.996657 0.125000
0.996657 0.996657 0.125000
0.003603 0.003691 0.249816
0.123739 0.011357 0.245922
0.247753 0.005580 0.248780
0.375000 0.003343 0.250000
0.500000 0.003343 0.250000
0.625000 0.003343 0.250000
0.750000 0.003343 0.250000
0.875000 0.003343 0.250000
0.996657 0.003343 0.250000
0.012822 0.126379 0.243724
0.115247 0.133048 0.211865
0.195809 0.130789 0.222750
0.367210 0.125595 0.247899
0.500000 0.125000 0.250000
0.625000 0.125000 0.250000
0.750000 0.125000 0.250000
0.875000 0.125000 0.250000
0.996657 0.125000 0.250000
0.010136 0.244646 0.246714
0.126289 0.194363 0.216468
0.151345 0.173886 0.207470
0.325155 0.230984 0.238537
0.499660 0.249918 0.249957
0.625000 0.250000 0.250000
0.750000 0.250000 0.250000
0.875000 0.250000 0.250000
0.996657 0.250000 0.250000
0.003355 0.374979 0.249994
0.126973 0.358865 0.248121
0.223459 0.318721 0.242951
0.339252 0.344421 0.248658
0.498019 0.374011 0.250040
0.625000 0.375000 0.250000
0.750000 0.375000 0.250000
0.875000 0.375000 0.250000
0.996657 0.375000 0.250000
0.003343 0.500000 0.250000
0.125000 0.499999 0.250000
0.249684 0.498268 0.250205
0.372927 0.496601 0.250738
0.499951 0.499957 0.250007
0.625000 0.500000 0.250000
0.750000 0.500000 0.250000
0.875000 0.500000 0.250000
0.996657 0.500000 0.250000
0.003343 0.625000 0.250000
0.125000 0.625000 0.250000
0.250000 0.625000 0.250000
0.375000 0.625000 0.250000
0.500000 0.625000 0.250000
0.625000 0.625000 0.250000
0.750000 0.625000 0.250000
0.875000 0.625000 0.250000
0.996657 0.625000 0.250000
0.003343 0.750000 0.250000
0.125000 0.750000 0.250000
0.250000 0.750000 0.250000
0.375000 0.750000 0.250000
0.500000 0.750000 0.250000
0.625000 0.750000 0.250000
0.750000 0.750000 0.250000
0.875000 0.750000 0.250000
0.996657 0.750000 0.250000
0.003343 0.875000 0.250000
0.125000 0.875000 0.250000
0.250000 0.875000 0.250000
0.375000 0.875000 0.250000
0.500000 0.875000 0.250000
0.625000 0.875000 0.250000
0.750000 0.875000 0.250000
0.875000 0.875000 0.250000
0.996657 0.875000 0.250000
0.003343 0.996657 0.250000
0.125000 0.996657 0.250000
0.250000 0.996657 0.250000
0.375000 0.996657 0.250000
0.500000 0.996657 0.250000
0.625000 0.996657 0.250000
0.750000 0.996657 0.250000
0.875000 0.996657 0.250000
0.996657 0.996657 0.250000
0.003343 0.003343 0.375000
0.124998 0.003369 0.374959
0.249986 0.003355 0.374983
0.375000 0.003343 0.375000
0.500000 0.003343 0.375000
0.625000 0.003343 0.375000
0.750000 0.003343 0.375000
0.875000 0.003343 0.375000
0.996657 0.003343 0.375000
0.003463 0.125016 0.374785
0.123821 0.126279 0.357382
0.231730 0.128019 0.348868
0.369089 0.125409 0.370422
0.500000 0.125000 0.375000
0.625000 0.125000 0.375000
0.750000 0.125000 0.375000
0.875000 0.125000 0.375000
0.996657 0.125000 0.375000
0.003501 0.249849 0.374722
0.125131 0.229780 0.336687
0.166270 0.183838 0.249148
0.278505 0.216803 0.306577
0.489123 0.247800 0.370057
0.625000 0.250000 0.375000
0.750000 0.250000 0.375000
0.875000 0.250000 0.375000
0.996657 0.250000 0.375000
0.003343 0.375000 0.375000
0.126766 0.362151 0.364562
0.195201 0.266382 0.290968
0.219846 0.244837 0.275871
0.443932 0.346973 0.355156
0.624839 0.374943 0.374961
0.750000 0.375000 0.375000
0.875000 0.375000 0.375000
0.996657 0.375000 0.375000
0.003343 0.500000 0.375000
0.125005 0.499973 0.374989
0.247146 0.480229 0.368056
0.337764 0.439997 0.357816
0.469725 0.472977 0.368879
0.624442 0.499673 0.374921
0.750000 0.500000 0.375000
0.875000 0.500000 0.375000
0.996657 0.500000 0.375000
0.003343 0.625000 0.375000
0.125000 0.625000 0.375000
0.250000 0.625000 0.375000
0.374780 0.624332 0.374939
0.499436 0.624191 0.374954
0.624999 0.624999 0.375000
0.750000 0.625000 0.375000
0.875000 0.625000 0.375000
0.996657 0.625000 0.375000
0.003343 0.750000 0.375000
0.125000 0.750000 0.375000
0.250000 0.750000 0.375000
0.375000 0.750000 0.375000
0.500000 0.750000 0.375000
0.625000 0.750000 0.375000
0.750000 0.750000 0.375000
0.875000 0.750000 0.375000
0.996657 0.750000 0.375000
0.003343 0.875000 0.375000
0.125000 0.875000 0.375000
0.250000 0.875000 0.375000
0.375000 0.875000 0.375000
0.500000 0.875000 0.375000
0.625000 0.875000 0.375000
0.750000 0.875000 0.375000
0.875000 0.875000 0.375000
0.996657 0.875000 0.375000
0.003343 0.996657 0.375000
0.125000 0.996657 0.375000
0.250000 0.996657 0.375000
0.375000 0.996657 0.375000
0.500000 0.996657 0.375000
0.625000 0.996657 0.375000
0.750000 0.996657 0.375000
0.875000 0.996657 0.375000
0.996657 0.996657 0.375000
0.003343 0.003343 0.500000
0.125000 0.003343 0.500000
0.250000 0.003343 0.500000
0.375000 0.003343 0.500000
0.500000 0.003343 0.500000
0.625000 0.003343 0.500000
0.750000 0.003343 0.500000
0.875000 0.003343 0.500000
0.996657 0.003343 0.500000
0.003343 0.125000 0.500000
0.125000 0.125000 0.499999
0.249903 0.125004 0.499767
0.374974 0.125000 0.499969
0.500000 0.125000 0.500000
0.625000 0.125000 0.500000
0.750000 0.125000 0.500000
0.875000 0.125000 0.500000
0.996657 0.125000 0.500000
0.003343 0.250000 0.500000
0.124980 0.249775 0.499337
0.239449 0.241960 0.473067
0.345338 0.239636 0.462410
0.493926 0.248764 0.495109
0.625000 0.250000 0.500000
0.750000 0.250000 0.500000
0.875000 0.250000 0.500000
0.996657 0.250000 0.500000
0.003343 0.375000 0.500000
0.125026 0.374738 0.499635
0.234061 0.340870 0.451098
0.266227 0.281890 0.361458
0.414216 0.332053 0.434596
0.620477 0.373496 0.497551
0.750000 0.375000 0.500000
0.875000 0.375000 0.500000
0.996657 0.375000 0.500000
0.003343 0.500000 0.500000
0.125000 0.500000 0.500000
0.248447 0.487802 0.489659
0.319776 0.410011 0.426553
0.396797 0.407889 0.425734
0.599847 0.485879 0.488729
0.750000 0.500000 0.500000
0.875000 0.500000 0.500000
0.996657 0.500000 0.500000
0.003343 0.625000 0.500000
0.125000 0.625000 0.500000
0.250000 0.624999 0.500000
0.372266 0.615654 0.495734
0.481901 0.597329 0.488491
0.616721 0.617392 0.496859
0.750000 0.625000 0.500000
0.875000 0.625000 0.500000
0.996657 0.625000 0.500000
0.003343 0.750000 0.500000
0.125000 0.750000 0.500000
0.250000 0.750000 0.500000
0.375000 0.750000 0.500000
0.500000 0.749999 0.500000
0.625000 0.750000 0.500000
0.750000 0.750000 0.500000
0.875000 0.750000 0.500000
0.996657 0.750000 0.500000
0.003343 0.875000 0.500000
0.125000 0.875000 0.500000
0.250000 0.875000 0.500000
0.375000 0.875000 0.500000
0.500000 0.875000 0.500000
0.625000 0.875000 0.500000
0.750000 0.875000 0.500000
0.875000 0.875000 0.500000
0.996657 0.875000 0.500000
0.003343 0.996657 0.500000
0.125000 0.996657 0.500000
0.250000 0.996657 0.500000
0.375000 0.996657 0.500000
0.500000 0.996657 0.500000
0.625000 0.996657 0.500000
0.750000 0.996657 0.500000
0.875000 0.996657 0.500000
0.996657 0.996657 0.500000
0.003343 0.003343 0.625000
0.125000 0.003343 0.625000
0.250000 0.003343 0.625000
0.375000 0.003343 0.625000
0.500000 0.003343 0.625000
0.625000 0.003343 0.625000
0.750000 0.003343 0.625000
0.875000 0.003343 0.625000
0.996657 0.003343 0.625000
0.003343 0.125000 0.625000
0.125000 0.125000 0.625000
0.250000 0.125000 0.625000
0.375000 0.125000 0.625000
0.500000 0.125000 0.625000
0.625000 0.125000 0.625000
0.750000 0.125000 0.625000
0.875000 0.125000 0.625000
0.996657 0.125000 0.625000
0.003343 0.250000 0.625000
0.125000 0.250000 0.625000
0.250000 0.250000 0.624999
0.374951 0.249979 0.624916
0.499997 0.249999 0.624996
0.625000 0.250000 0.625000
0.750000 0.250000 0.625000
0.875000 0.250000 0.625000
0.996657 0.250000 0.625000
0.003343 0.375000 0.625000
0.125000 0.375000 0.625000
0.249905 0.374804 0.624607
0.364794 0.366244 0.605552
0.482940 0.366267 0.604320
0.624356 0.374765 0.624448
0.750000 0.375000 0.625000
0.875000 0.375000 0.625000
0.996657 0.375000 0.625000
0.003343 0.500000 0.625000
0.125000 0.500000 0.625000
0.249990 0.499955 0.624943
0.363439 0.480178 0.598175
0.447974 0.453391 0.560821
0.599204 0.485485 0.604190
0.749999 0.500000 0.624999
0.875000 0.500000 0.625000
0.996657 0.500000 0.625000
0.003343 0.625000 0.625000
0.125000 0.625000 0.625000
0.250000 0.625000 0.625000
0.374276 0.622573 0.622915
0.480908 0.596233 0.600413
0.605237 0.606688 0.609124
0.749994 0.624996 0.624996
0.875000 0.625000 0.625000
0.996657 0.625000 0.625000
0.003343 0.750000 0.625000
0.125000 0.750000 0.625000
0.250000 0.750000 0.625000
0.375000 0.750000 0.625000
0.499980 0.749958 0.624975
0.624953 0.749938 0.624963
0.750000 0.750000 0.625000
0.875000 0.750000 0.625000
0.996657 0.750000 0.625000
0.003343 0.875000 0.625000
0.125000 0.875000 0.625000
0.250000 0.875000 0.625000
0.375000 0.875000 0.625000
0.500000 0.875000 0.625000
0.625000 0.875000 0.625000
0.750000 0.875000 0.625000
0.875000 0.875000 0.625000
0.996657 0.875000 0.625000
0.003343 0.996657 0.625000
0.125000 0.996657 0.625000
0.250000 0.996657 0.625000
0.375000 0.996657 0.625000
0.500000 0.996657 0.625000
0.625000 0.996657 0.625000
0.750000 0.996657 0.625000
0.875000 0.996657 0.625000
0.996657 0.996657 0.625000
0.003343 0.003343 0.750000
0.125000 0.003343 0.750000
0.250000 0.003343 0.750000
0.375000 0.003343 0.750000
0.500000 0.003343 0.750000
0.625000 0.003343 0.750000
0.750000 0.003343 0.750000
0.875000 0.003343 0.750000
0.996657 0.003343 0.750000
0.003343 0.125000 0.750000
0.125000 0.125000 0.750000
0.250000 0.125000 0.750000
0.375000 0.125000 0.750000
0.500000 0.125000 0.750000
0.625000 0.125000 0.750000
0.750000 0.125000 0.750000
0.875000 0.125000 0.750000
0.996657 0.125000 0.750000
0.003343 0.250000 0.750000
0.125000 0.250000 0.750000
0.250000 0.250000 0.750000
0.375000 0.250000 0.750000
0.500000 0.250000 0.750000
0.625000 0.250000 0.750000
0.750000 0.250000 0.750000
0.875000 0.250000 0.750000
0.996657 0.250000 0.750000
0.003343 0.375000 0.750000
0.125000 0.375000 0.750000
0.250000 0.375000 0.750000
0.375000 0.375000 0.750000
0.500000 0.375000 0.750000
0.625000 0.375000 0.750000
0.750000 0.375000 0.750000
0.875000 0.375000 0.750000
0.996657 0.375000 0.750000
0.003343 0.500000 0.750000
0.125000 0.500000 0.750000
0.250000 0.500000 0.750000
0.375000 0.500000 0.749999
0.499312 0.499378 0.748876
0.624712 0.499831 0.749681
0.750000 0.500000 0.750000
0.875000 0.500000 0.750000
0.996657 0.500000 0.750000
0.003343 0.625000 0.750000
0.125000 0.625000 0.750000
0.250000 0.625000 0.750000
0.375000 0.625000 0.750000
0.499639 0.624474 0.749351
0.624350 0.624398 0.749237
0.750000 0.625000 0.750000
0.875000 0.625000 0.750000
0.996657 0.625000 0.750000
0.003343 0.750000 0.750000
0.125000 0.750000 0.750000
0.250000 0.750000 0.750000
0.375000 0.750000 0.750000
0.500000 0.750000 0.750000
0.625000 0.750000 0.750000
0.750000 0.750000 0.750000
0.875000 0.750000 0.750000
0.996657 0.750000 0.750000
0.003343 0.875000 0.750000
0.125000 0.875000 0.750000
0.250000 0.875000 0.750000
0.375000 0.875000 0.750000
0.500000 0.875000 0.750000
0.625000 0.875000 0.750000
0.750000 0.875000 0.750000
0.875000 0.875000 0.750000
0.996657 0.875000 0.750000
0.003343 0.996657 0.750000
0.125000 0.996657 0.750000
0.250000 0.996657 0.750000
0.375000 0.996657 0.750000
0.500000 0.996657 0.750000
0.625000 0.996657 0.750000
0.750000 0.996657 0.750000
0.875000 0.996657 0.750000
0.996657 0.996657 0.750000
0.003343 0.003343 0.875000
0.125000 0.003343 0.875000
0.250000 0.003343 0.875000
0.375000 0.003343 0.875000
0.500000 0.003343 0.875000
0.625000 0.003343 0.875000
0.750000 0.003343 0.875000
0.875000 0.003343 0.875000
0.996657 0.003343 0.875000
0.003343 0.125000 0.875000
0.125000 0.125000 0.875000
0.250000 0.125000 0.875000
0.375000 0.125000 0.875000
0.500000 0.125000 0.875000
0.625000 0.125000 0.875000
0.750000 0.125000 0.875000
0.875000 0.125000 0.875000
0.996657 0.125000 0.875000
0.003343 0.250000 0.875000
0.125000 0.250000 0.875000
0.250000 0.250000 0.875000
0.375000 0.250000 0.875000
0.500000 0.250000 0.875000
0.625000 0.250000 0.875000
0.750000 0.250000 0.875000
0.875000 0.250000 0.875000
0.996657 0.250000 0.875000
0.003343 0.375000 0.875000
0.125000 0.375000 0.875000
0.250000 0.375000 0.875000
0.375000 0.375000 0.875000
0.500000 0.375000 0.875000
0.625000 0.375000 0.875000
0.750000 0.375000 0.875000
0.875000 0.375000 0.875000
0.996657 0.375000 0.875000
0.003343 0.500000 0.875000
0.125000 0.500000 0.875000
0.250000 0.500000 0.875000
0.375000 0.500000 0.875000
0.500000 0.500000 0.875000
0.625000 0.500000 0.875000
0.750000 0.500000 0.875000
0.875000 0.500000 0.875000
0.996657 0.500000 0.875000
0.003343 0.625000 0.875000
0.125000 0.625000 0.875000
0.250000 0.625000 0.875000
0.375000 0.625000 0.875000
0.500000 0.625000 0.875000
0.625000 0.625000 0.875000
0.750000 0.625000 0.875000
0.875000 0.625000 0.875000
0.996657 0.625000 0.875000
0.003343 0.750000 0.875000
0.125000 0.750000 0.875000
0.250000 0.750000 0.875000
0.375000 0.750000 0.875000
0.500000 0.750000 0.875000
0.625000 0.750000 0.875000
0.750000 0.750000 0.875000
0.875000 0.750000 0.875000
0.996657 0.750000 0.875000
0.003343 0.875000 0.875000
0.125000 0.875000 0.875000
0.250000 0.875000 0.875000
0.375000 0.875000 0.875000
0.500000 0.875000 0.875000
0.625000 0.875000 0.875000
0.750000 0.875000 0.875000
0.875000 0.875000 0.875000
0.996657 0.875000 0.875000
0.003343 0.996657 0.875000
0.125000 0.996657 0.875000
0.250000 0.996657 0.875000
0.375000 0.996657 0.875000
0.500000 0.996657 0.875000
0.625000 0.996657 0.875000
0.750000 0.996657 0.875000
0.875000 0.996657 0.875000
0.996657 0.996657 0.875000
0.003343 0.003343 0.996657
0.125000 0.003343 0.996657
0.250000 0.003343 0.996657
0.375000 0.003343 0.996657
0.500000 0.003343 0.996657
0.625000 0.003343 0.996657
0.750000 0.003343 0.996657
0.875000 0.003343 0.996657
0.996657 0.003343 0.996657
0.003343 0.125000 0.996657
0.125000 0.125000 0.996657
0.250000 0.125000 0.996657
0.375000 0.125000 0.996657
0.500000 0.125000 0.996657
0.625000 0.125000 0.996657
0.750000 0.125000 0.996657
0.875000 0.125000 0.996657
0.996657 0.125000 0.996657
0.003343 0.250000 0.996657
0.125000 0.250000 0.996657
0.250000 0.250000 0.996657
0.375000 0.250000 0.996657
0.500000 0.250000 0.996657
0.625000 0.250000 0.996657
0.750000 0.250000 0.996657
0.875000 0.250000 0.996657
0.996657 0.250000 0.996657
0.003343 0.375000 0.996657
0.125000 0.375000 0.996657
0.250000 0.375000 0.996657
0.375000 0.375000 0.996657
0.500000 0.375000 0.996657
0.625000 0.375000 0.996657
0.750000 0.375000 0.996657
0.875000 0.375000 0.996657
0.996657 0.375000 0.996657
0.003343 0.500000 0.996657
0.125000 0.500000 0.996657
0.250000 0.500000 0.996657
0.375000 0.500000 0.996657
0.500000 0.500000 0.996657
0.625000 0.500000 0.996657
0.750000 0.500000 0.996657
0.875000 0.500000 0.996657
0.996657 0.500000 0.996657
0.003343 0.625000 0.996657
0.125000 0.625000 0.996657
0.250000 0.625000 0.996657
0.375000 0.625000 0.996657
0.500000 0.625000 0.996657
0.625000 0.625000 0.996657
0.750000 0.625000 0.996657
0.875000 0.625000 0.996657
0.996657 0.625000 0.996657
0.003343 0.750000 0.996657
0.125000 0.750000 0.996657
0.250000 0.750000 0.996657
0.375000 0.750000 0.996657
0.500000 0.750000 0.996657
0.625000 0.750000 0.996657
0.750000 0.750000 0.996657
0.875000 0.750000 0.996657
0.996657 0.750000 0.996657
0.003343 0.875000 0.996657
0.125000 0.875000 0.996657
0.250000 0.875000 0.996657
0.375000 0.875000 0.996657
0.500000 0.875000 0.996657
0.625000 0.875000 0.996657
0.750000 0.875000 0.996657
0.875000 0.875000 0.996657
0.996657 0.875000 0.996657
0.003343 0.996657 0.996657
0.125000 0.996657 0.996657
0.250000 0.996657 0.996657
0.375000 0.996657 0.996657
0.500000 0.996657 0.996657
0.625000 0.996657 0.996657
0.750000 0.996657 0.996657
0.875000 0.996657 0.996657
0.996657 0.996657 0.996657
