Mimicamera/Resources/CuratedLUTs/noir.cube
# Mimicamera generated LUT
TITLE "Noir"
LUT_3D_SIZE 5
DOMAIN_MIN 0.0 0.0 0.0
DOMAIN_MAX 1.0 1.0 1.0
0.003343 0.003343 0.003343
0.250000 0.003343 0.003343
0.500000 0.003343 0.003343
0.750000 0.003343 0.003343
0.996657 0.003343 0.003343
0.003344 0.250000 0.003344
0.249990 0.249992 0.003360
0.500000 0.250000 0.003343
0.750000 0.250000 0.003343
0.996657 0.250000 0.003343
0.003343 0.500000 0.003343
0.250000 0.500000 0.003343
0.500000 0.500000 0.003343
0.750000 0.500000 0.003343
0.996657 0.500000 0.003343
0.003343 0.750000 0.003343
0.250000 0.750000 0.003343
0.500000 0.750000 0.003343
0.750000 0.750000 0.003343
0.996657 0.750000 0.003343
0.003343 0.996657 0.003343
0.250000 0.996657 0.003343
0.500000 0.996657 0.003343
0.750000 0.996657 0.003343
0.996657 0.996657 0.003343
0.003603 0.003691 0.249816
0.247753 0.005580 0.248780
0.500000 0.003343 0.250000
0.750000 0.003343 0.250000
0.996657 0.003343 0.250000
0.010136 0.244646 0.246714
0.151345 0.173886 0.207470
0.499660 0.249918 0.249957
0.750000 0.250000 0.250000
0.996657 0.250000 0.250000
0.003343 0.500000 0.250000
0.249684 0.498268 0.250205
0.499951 0.499957 0.250007
0.750000 0.500000 0.250000
0.996657 0.500000 0.250000
0.003343 0.750000 0.250000
0.250000 0.750000 0.250000
0.500000 0.750000 0.250000
0.750000 0.750000 0.250000
0.996657 0.750000 0.250000
0.003343 0.996657 0.250000
0.250000 0.996657 0.250000
0.500000 0.996657 0.250000
0.750000 0.996657 0.250000
0.996657 0.996657 0.250000
0.003343 0.003343 0.500000
0.250000 0.003343 0.500000
0.500000 0.003343 0.500000
0.750000 0.003343 0.500000
0.996657 0.003343 0.500000
0.003343 0.250000 0.500000
0.239449 0.241960 0.473067
0.493926 0.248764 0.495109
0.750000 0.250000 0.500000
0.996657 0.250000 0.500000
0.003343 0.500000 0.500000
0.248447 0.487802 0.489659
0.396797 0.407889 0.425734
0.750000 0.500000 0.500000
0.996657 0.500000 0.500000
0.003343 0.750000 0.500000
0.250000 0.750000 0.500000
0.500000 0.749999 0.500000
0.750000 0.750000 0.500000
0.996657 0.750000 0.500000
0.003343 0.996657 0.500000
0.250000 0.996657 0.500000
0.500000 0.996657 0.500000
0.750000 0.996657 0.500000
0.996657 0.996657 0.500000
0.003343 0.003343 0.750000
0.250000 0.003343 0.750000
0.500000 0.003343 0.750000
0.750000 0.003343 0.750000
0.996657 0.003343 0.750000
0.003343 0.250000 0.750000
0.250000 0.250000 0.750000
0.500000 0.250000 0.750000
0.750000 0.250000 0.750000
0.996657 0.250000 0.750000
0.003343 0.500000 0.750000
0.250000 0.500000 0.750000
0.499312 0.499378 0.748876
0.750000 0.500000 0.750000
0.996657 0.500000 0.750000
0.003343 0.750000 0.750000
0.250000 0.750000 0.750000
0.500000 0.750000 0.750000
0.750000 0.750000 0.750000
0.996657 0.750000 0.750000
0.003343 0.996657 0.750000
0.250000 0.996657 0.750000
0.500000 0.996657 0.750000
0.750000 0.996657 0.750000
0.996657 0.996657 0.750000
0.003343 0.003343 0.996657
0.250000 0.003343 0.996657
0.500000 0.003343 0.996657
0.750000 0.003343 0.996657
0.996657 0.003343 0.996657
0.003343 0.250000 0.996657
0.250000 0.250000 0.996657
0.500000 0.250000 0.996657
0.750000 0.250000 0.996657
0.996657 0.250000 0.996657
0.003343 0.500000 0.996657
0.250000 0.500000 0.996657
0.500000 0.500000 0.996657
0.750000 0.500000 0.996657
0.996657 0.500000 0.996657
0.003343 0.750000 0.996657
0.250000 0.750000 0.996657
0.500000 0.750000 0.996657
0.750000 0.750000 0.996657
0.996657 0.750000 0.996657
0.003343 0.996657 0.996657
0.250000 0.996657 0.996657
0.500000 0.996657 0.996657
0.750000 0.996657 0.996657
0.996657 0.996657 0.996657
