Mimicamera/Resources/CuratedLUTs/noir.cube
# Mimicamera generated LUT
TITLE "Noir"
LUT_3D_SIZE 33
DOMAIN_MIN 0.0 0.0 0.0
DOMAIN_MAX 1.0 1.0 1.0
0.003343 0.003343 0.003343
0.031258 0.003343 0.003343
0.062500 0.003344 0.003344
0.093751 0.003349 0.003351
0.124999 0.003351 0.003354
0.156248 0.003349 0.003351
0.187500 0.003344 0.003344
0.218750 0.003343 0.003343
0.250000 0.003343 0.003343
0.281250 0.003343 0.003343
0.312500 0.003343 0.003343
0.343750 0.003343 0.003343
0.375000 0.003343 0.003343
0.406250 0.003343 0.003343
0.437500 0.003343 0.003343
0.468750 0.003343 0.003343
0.500000 0.003343 0.003343
0.531250 0.003343 0.003343
0.562500 0.003343 0.003343
0.593750 0.003343 0.003343
0.625000 0.003343 0.003343
0.656250 0.003343 0.003343
0.687500 0.003343 0.003343
0.718750 0.003343 0.003343
0.750000 0.003343 0.003343
0.781250 0.003343 0.003343
0.812500 0.003343 0.003343
0.843750 0.003343 0.003343
0.875000 0.003343 0.003343
0.906250 0.003343 0.003343
0.937500 0.003343 0.003343
0.968742 0.003343 0.003343
0.996657 0.003343 0.003343
0.003343 0.031258 0.003343
0.031260 0.031261 0.003348
0.062506 0.031274 0.003370
0.093757 0.031317 0.003432
0.124988 0.031336 0.003459
0.156225 0.031316 0.003430
0.187488 0.031274 0.003370
0.218746 0.031261 0.003349
0.250000 0.031259 0.003344
0.281250 0.031258 0.003343
0.312500 0.031258 0.003343
0.343750 0.031258 0.003343
0.375000 0.031258 0.003343
0.406250 0.031258 0.003343
0.437500 0.031258 0.003343
0.468750 0.031258 0.003343
0.500000 0.031258 0.003343
0.531250 0.031258 0.003343
0.562500 0.031258 0.003343
0.593750 0.031258 0.003343
0.625000 0.031258 0.003343
0.656250 0.031258 0.003343
0.687500 0.031258 0.003343
0.718750 0.031258 0.003343
0.750000 0.031258 0.003343
0.781250 0.031258 0.003343
0.812500 0.031258 0.003343
0.843750 0.031258 0.003343
0.875000 0.031258 0.003343
0.906250 0.031258 0.003343
0.937500 0.031258 0.003343
0.968742 0.031258 0.003343
0.996657 0.031258 0.003343
0.003345 0.062502 0.003347
0.031281 0.062523 0.003394
0.062554 0.062592 0.003537
0.093783 0.062670 0.003717
0.124955 0.062703 0.003797
0.156140 0.062673 0.003724
0.187401 0.062597 0.003548
0.218711 0.062528 0.003404
0.249996 0.062502 0.003349
0.281250 0.062500 0.003343
0.312500 0.062500 0.003343
0.343750 0.062500 0.003343
0.375000 0.062500 0.003343
0.406250 0.062500 0.003343
0.437500 0.062500 0.003343
0.468750 0.062500 0.003343
0.500000 0.062500 0.003343
0.531250 0.062500 0.003343
0.562500 0.062500 0.003343
0.593750 0.062500 0.003343
0.625000 0.062500 0.003343
0.656250 0.062500 0.003343
0.687500 0.062500 0.003343
0.718750 0.062500 0.003343
0.750000 0.062500 0.003343
0.781250 0.062500 0.003343
0.812500 0.062500 0.003343
0.843750 0.062500 0.003343
0.875000 0.062500 0.003343
0.906250 0.062500 0.003343
0.937500 0.062500 0.003343
0.968742 0.062500 0.003343
0.996657 0.062500 0.003343
0.003352 0.093755 0.003360
0.031335 0.093797 0.003507
0.062623 0.093878 0.003811
0.093841 0.094047 0.004484
0.124874 0.094129 0.004819
0.155944 0.094055 0.004527
0.187267 0.093888 0.003865
0.218623 0.093804 0.003545
0.249980 0.093756 0.003371
0.281249 0.093750 0.003344
0.312500 0.093750 0.003343
0.343750 0.093750 0.003343
0.375000 0.093750 0.003343
0.406250 0.093750 0.003343
0.437500 0.093750 0.003343
0.468750 0.093750 0.003343
0.500000 0.093750 0.003343
0.531250 0.093750 0.003343
0.562500 0.093750 0.003343
0.593750 0.093750 0.003343
0.625000 0.093750 0.003343
0.656250 0.093750 0.003343
0.687500 0.093750 0.003343
0.718750 0.093750 0.003343
0.750000 0.093750 0.003343
0.781250 0.093750 0.003343
0.812500 0.093750 0.003343
0.843750 0.093750 0.003343
0.875000 0.093750 0.003343
0.906250 0.093750 0.003343
0.937500 0.093750 0.003343
0.968742 0.093750 0.003343
0.996657 0.093750 0.003343
0.003360 0.125003 0.003372
0.031384 0.125025 0.003615
0.062735 0.125076 0.004233
0.093927 0.125158 0.005255
0.124877 0.125175 0.005719
0.155794 0.125146 0.005387
0.187070 0.125069 0.004445
0.218528 0.125025 0.003714
0.249924 0.125006 0.003438
0.281242 0.125001 0.003352
0.312500 0.125000 0.003343
0.343750 0.125000 0.003343
0.375000 0.125000 0.003343
0.406250 0.125000 0.003343
0.437500 0.125000 0.003343
0.468750 0.125000 0.003343
0.500000 0.125000 0.003343
0.531250 0.125000 0.003343
0.562500 0.125000 0.003343
0.593750 0.125000 0.003343
0.625000 0.125000 0.003343
0.656250 0.125000 0.003343
0.687500 0.125000 0.003343
0.718750 0.125000 0.003343
0.750000 0.125000 0.003343
0.781250 0.125000 0.003343
0.812500 0.125000 0.003343
0.843750 0.125000 0.003343
0.875000 0.125000 0.003343
0.906250 0.125000 0.003343
0.937500 0.125000 0.003343
0.968742 0.125000 0.003343
0.996657 0.125000 0.003343
0.003363 0.156246 0.003373
0.031405 0.156218 0.003619
0.062800 0.156150 0.004264
0.094040 0.156033 0.005342
0.124934 0.155970 0.005889
0.155794 0.156007 0.005620
0.186995 0.156104 0.004674
0.218486 0.156197 0.003792
0.249893 0.156239 0.003481
0.281239 0.156249 0.003357
0.312500 0.156250 0.003343
0.343750 0.156250 0.003343
0.375000 0.156250 0.003343
0.406250 0.156250 0.003343
0.437500 0.156250 0.003343
0.468750 0.156250 0.003343
0.500000 0.156250 0.003343
0.531250 0.156250 0.003343
0.562500 0.156250 0.003343
0.593750 0.156250 0.003343
0.625000 0.156250 0.003343
0.656250 0.156250 0.003343
0.687500 0.156250 0.003343
0.718750 0.156250 0.003343
0.750000 0.156250 0.003343
0.781250 0.156250 0.003343
0.812500 0.156250 0.003343
0.843750 0.156250 0.003343
0.875000 0.156250 0.003343
0.906250 0.156250 0.003343
0.937500 0.156250 0.003343
0.968742 0.156250 0.003343
0.996657 0.156250 0.003343
0.003355 0.187494 0.003362
0.031359 0.187444 0.003522
0.062681 0.187342 0.003872
0.093962 0.187101 0.004741
0.124957 0.186963 0.005273
0.155931 0.187090 0.005146
0.187136 0.187267 0.004382
0.218527 0.187403 0.003745
0.249904 0.187470 0.003471
0.281240 0.187497 0.003356
0.312500 0.187500 0.003343
0.343750 0.187500 0.003343
0.375000 0.187500 0.003343
0.406250 0.187500 0.003343
0.437500 0.187500 0.003343
0.468750 0.187500 0.003343
0.500000 0.187500 0.003343
0.531250 0.187500 0.003343
0.562500 0.187500 0.003343
0.593750 0.187500 0.003343
0.625000 0.187500 0.003343
0.656250 0.187500 0.003343
0.687500 0.187500 0.003343
0.718750 0.187500 0.003343
0.750000 0.187500 0.003343
0.781250 0.187500 0.003343
0.812500 0.187500 0.003343
0.843750 0.187500 0.003343
0.875000 0.187500 0.003343
0.906250 0.187500 0.003343
0.937500 0.187500 0.003343
0.968742 0.187500 0.003343
0.996657 0.187500 0.003343
0.003347 0.218747 0.003350
0.031299 0.218718 0.003418
0.062597 0.218635 0.003606
0.093841 0.218523 0.003885
0.124985 0.218400 0.004207
0.156113 0.218442 0.004159
0.187334 0.218565 0.003860
0.218618 0.218654 0.003609
0.249952 0.218724 0.003416
0.281245 0.218748 0.003350
0.312500 0.218750 0.003343
0.343750 0.218750 0.003343
0.375000 0.218750 0.003343
0.406250 0.218750 0.003343
0.437500 0.218750 0.003343
0.468750 0.218750 0.003343
0.500000 0.218750 0.003343
0.531250 0.218750 0.003343
0.562500 0.218750 0.003343
0.593750 0.218750 0.003343
0.625000 0.218750 0.003343
0.656250 0.218750 0.003343
0.687500 0.218750 0.003343
0.718750 0.218750 0.003343
0.750000 0.218750 0.003343
0.781250 0.218750 0.003343
0.812500 0.218750 0.003343
0.843750 0.218750 0.003343
0.875000 0.218750 0.003343
0.906250 0.218750 0.003343
0.937500 0.218750 0.003343
0.968742 0.218750 0.003343
0.996657 0.218750 0.003343
0.003344 0.250000 0.003344
0.031264 0.249993 0.003356
0.062526 0.249953 0.003422
0.093778 0.249880 0.003540
0.124990 0.249823 0.003646
0.156202 0.249834 0.003671
0.187428 0.249883 0.003582
0.218697 0.249945 0.003457
0.249990 0.249992 0.003360
0.281249 0.250000 0.003344
0.312500 0.250000 0.003343
0.343750 0.250000 0.003343
0.375000 0.250000 0.003343
0.406250 0.250000 0.003343
0.437500 0.250000 0.003343
0.468750 0.250000 0.003343
0.500000 0.250000 0.003343
0.531250 0.250000 0.003343
0.562500 0.250000 0.003343
0.593750 0.250000 0.003343
0.625000 0.250000 0.003343
0.656250 0.250000 0.003343
0.687500 0.250000 0.003343
0.718750 0.250000 0.003343
0.750000 0.250000 0.003343
0.781250 0.250000 0.003343
0.812500 0.250000 0.003343
0.843750 0.250000 0.003343
0.875000 0.250000 0.003343
0.906250 0.250000 0.003343
0.937500 0.250000 0.003343
0.968742 0.250000 0.003343
0.996657 0.250000 0.003343
0.003343 0.281250 0.003343
0.031259 0.281249 0.003344
0.062502 0.281245 0.003350
0.093753 0.281234 0.003366
0.125000 0.281213 0.003397
0.156242 0.281208 0.003410
0.187489 0.281229 0.003379
0.218744 0.281243 0.003356
0.249999 0.281249 0.003345
0.281250 0.281250 0.003343
0.312500 0.281250 0.003343
0.343750 0.281250 0.003343
0.375000 0.281250 0.003343
0.406250 0.281250 0.003343
0.437500 0.281250 0.003343
0.468750 0.281250 0.003343
0.500000 0.281250 0.003343
0.531250 0.281250 0.003343
0.562500 0.281250 0.003343
0.593750 0.281250 0.003343
0.625000 0.281250 0.003343
0.656250 0.281250 0.003343
0.687500 0.281250 0.003343
0.718750 0.281250 0.003343
0.750000 0.281250 0.003343
0.781250 0.281250 0.003343
0.812500 0.281250 0.003343
0.843750 0.281250 0.003343
0.875000 0.281250 0.003343
0.906250 0.281250 0.003343
0.937500 0.281250 0.003343
0.968742 0.281250 0.003343
0.996657 0.281250 0.003343
0.003343 0.312500 0.003343
0.031258 0.312500 0.003343
0.062500 0.312500 0.003343
0.093750 0.312500 0.003344
0.125000 0.312497 0.003347
0.156249 0.312496 0.003348
0.187499 0.312499 0.003345
0.218750 0.312500 0.003343
0.250000 0.312500 0.003343
0.281250 0.312500 0.003343
0.312500 0.312500 0.003343
0.343750 0.312500 0.003343
0.375000 0.312500 0.003343
0.406250 0.312500 0.003343
0.437500 0.312500 0.003343
0.468750 0.312500 0.003343
0.500000 0.312500 0.003343
0.531250 0.312500 0.003343
0.562500 0.312500 0.003343
0.593750 0.312500 0.003343
0.625000 0.312500 0.003343
0.656250 0.312500 0.003343
0.687500 0.312500 0.003343
0.718750 0.312500 0.003343
0.750000 0.312500 0.003343
0.781250 0.312500 0.003343
0.812500 0.312500 0.003343
0.843750 0.312500 0.003343
0.875000 0.312500 0.003343
0.906250 0.312500 0.003343
0.937500 0.312500 0.003343
0.968742 0.312500 0.003343
0.996657 0.312500 0.003343
0.003343 0.343750 0.003343
0.031258 0.343750 0.003343
0.062500 0.343750 0.003343
0.093750 0.343750 0.003343
0.125000 0.343750 0.003343
0.156250 0.343750 0.003343
0.187500 0.343750 0.003343
0.218750 0.343750 0.003343
0.250000 0.343750 0.003343
0.281250 0.343750 0.003343
0.312500 0.343750 0.003343
0.343750 0.343750 0.003343
0.375000 0.343750 0.003343
0.406250 0.343750 0.003343
0.437500 0.343750 0.003343
0.468750 0.343750 0.003343
0.500000 0.343750 0.003343
0.531250 0.343750 0.003343
0.562500 0.343750 0.003343
0.593750 0.343750 0.003343
0.625000 0.343750 0.003343
0.656250 0.343750 0.003343
0.687500 0.343750 0.003343
0.718750 0.343750 0.003343
0.750000 0.343750 0.003343
0.781250 0.343750 0.003343
0.812500 0.343750 0.003343
0.843750 0.343750 0.003343
0.875000 0.343750 0.003343
0.906250 0.343750 0.003343
0.937500 0.343750 0.003343
0.968742 0.343750 0.003343
0.996657 0.343750 0.003343
0.003343 0.375000 0.003343
0.031258 0.375000 0.003343
0.062500 0.375000 0.003343
0.093750 0.375000 0.003343
0.125000 0.375000 0.003343
0.156250 0.375000 0.003343
0.187500 0.375000 0.003343
0.218750 0.375000 0.003343
0.250000 0.375000 0.003343
0.281250 0.375000 0.003343
0.312500 0.375000 0.003343
0.343750 0.375000 0.003343
0.375000 0.375000 0.003343
0.406250 0.375000 0.003343
0.437500 0.375000 0.003343
0.468750 0.375000 0.003343
0.500000 0.375000 0.003343
0.531250 0.375000 0.003343
0.562500 0.375000 0.003343
0.593750 0.375000 0.003343
0.625000 0.375000 0.003343
0.656250 0.375000 0.003343
0.687500 0.375000 0.003343
0.718750 0.375000 0.003343
0.750000 0.375000 0.003343
0.781250 0.375000 0.003343
0.812500 0.375000 0.003343
0.843750 0.375000 0.003343
0.875000 0.375000 0.003343
0.906250 0.375000 0.003343
0.937500 0.375000 0.003343
0.968742 0.375000 0.003343
0.996657 0.375000 0.003343
0.003343 0.406250 0.003343
0.031258 0.406250 0.003343
0.062500 0.406250 0.003343
0.093750 0.406250 0.003343
0.125000 0.406250 0.003343
0.156250 0.406250 0.003343
0.187500 0.406250 0.003343
0.218750 0.406250 0.003343
0.250000 0.406250 0.003343
0.281250 0.406250 0.003343
0.312500 0.406250 0.003343
0.343750 0.406250 0.003343
0.375000 0.406250 0.003343
0.406250 0.406250 0.003343
0.437500 0.406250 0.003343
0.468750 0.406250 0.003343
0.500000 0.406250 0.003343
0.531250 0.406250 0.003343
0.562500 0.406250 0.003343
0.593750 0.406250 0.003343
0.625000 0.406250 0.003343
0.656250 0.406250 0.003343
0.687500 0.406250 0.003343
0.718750 0.406250 0.003343
0.750000 0.406250 0.003343
0.781250 0.406250 0.003343
0.812500 0.406250 0.003343
0.843750 0.406250 0.003343
0.875000 0.406250 0.003343
0.906250 0.406250 0.003343
0.937500 0.406250 0.003343
0.968742 0.406250 0.003343
0.996657 0.406250 0.003343
0.003343 0.437500 0.003343
0.031258 0.437500 0.003343
0.062500 0.437500 0.003343
0.093750 0.437500 0.003343
0.125000 0.437500 0.003343
0.156250 0.437500 0.003343
0.187500 0.437500 0.003343
0.218750 0.437500 0.003343
0.250000 0.437500 0.003343
0.281250 0.437500 0.003343
0.312500 0.437500 0.003343
0.343750 0.437500 0.003343
0.375000 0.437500 0.003343
0.406250 0.437500 0.003343
0.437500 0.437500 0.003343
0.468750 0.437500 0.003343
0.500000 0.437500 0.003343
0.531250 0.437500 0.003343
0.562500 0.437500 0.003343
0.593750 0.437500 0.003343
0.625000 0.437500 0.003343
0.656250 0.437500 0.003343
0.687500 0.437500 0.003343
0.718750 0.437500 0.003343
0.750000 0.437500 0.003343
0.781250 0.437500 0.003343
0.812500 0.437500 0.003343
0.843750 0.437500 0.003343
0.875000 0.437500 0.003343
0.906250 0.437500 0.003343
0.937500 0.437500 0.003343
0.968742 0.437500 0.003343
0.996657 0.437500 0.003343
0.003343 0.468750 0.003343
0.031258 0.468750 0.003343
0.062500 0.468750 0.003343
0.093750 0.468750 0.003343
0.125000 0.468750 0.003343
0.156250 0.468750 0.003343
0.187500 0.468750 0.003343
0.218750 0.468750 0.003343
0.250000 0.468750 0.003343
0.281250 0.468750 0.003343
0.312500 0.468750 0.003343
0.343750 0.468750 0.003343
0.375000 0.468750 0.003343
0.406250 0.468750 0.003343
0.437500 0.468750 0.003343
0.468750 0.468750 0.003343
0.500000 0.468750 0.003343
0.531250 0.468750 0.003343
0.562500 0.468750 0.003343
0.593750 0.468750 0.003343
0.625000 0.468750 0.003343
0.656250 0.468750 0.003343
0.687500 0.468750 0.003343
0.718750 0.468750 0.003343
0.750000 0.468750 0.003343
0.781250 0.468750 0.003343
0.812500 0.468750 0.003343
0.843750 0.468750 0.003343
0.875000 0.468750 0.003343
0.906250 0.468750 0.003343
0.937500 0.468750 0.003343
0.968742 0.468750 0.003343
0.996657 0.468750 0.003343
0.003343 0.500000 0.003343
0.031258 0.500000 0.003343
0.062500 0.500000 0.003343
0.093750 0.500000 0.003343
0.125000 0.500000 0.003343
0.156250 0.500000 0.003343
0.187500 0.500000 0.003343
0.218750 0.500000 0.003343
0.250000 0.500000 0.003343
0.281250 0.500000 0.003343
0.312500 0.500000 0.003343
0.343750 0.500000 0.003343
0.375000 0.500000 0.003343
0.406250 0.500000 0.003343
0.437500 0.500000 0.003343
0.468750 0.500000 0.003343
0.500000 0.500000 0.003343
0.531250 0.500000 0.003343
0.562500 0.500000 0.003343
0.593750 0.500000 0.003343
0.625000 0.500000 0.003343
0.656250 0.500000 0.003343
0.687500 0.500000 0.003343
0.718750 0.500000 0.003343
0.750000 0.500000 0.003343
0.781250 0.500000 0.003343
0.812500 0.500000 0.003343
0.843750 0.500000 0.003343
0.875000 0.500000 0.003343
0.906250 0.500000 0.003343
0.937500 0.500000 0.003343
0.968742 0.500000 0.003343
0.996657 0.500000 0.003343
0.003343 0.531250 0.003343
0.031258 0.531250 0.003343
0.062500 0.531250 0.003343
0.093750 0.531250 0.003343
0.125000 0.531250 0.003343
0.156250 0.531250 0.003343
0.187500 0.531250 0.003343
0.218750 0.531250 0.003343
0.250000 0.531250 0.003343
0.281250 0.531250 0.003343
0.312500 0.531250 0.003343
0.343750 0.531250 0.003343
0.375000 0.531250 0.003343
0.406250 0.531250 0.003343
0.437500 0.531250 0.003343
0.468750 0.531250 0.003343
0.500000 0.531250 0.003343
0.531250 0.531250 0.003343
0.562500 0.531250 0.003343
0.593750 0.531250 0.003343
0.625000 0.531250 0.003343
0.656250 0.531250 0.003343
0.687500 0.531250 0.003343
0.718750 0.531250 0.003343
0.750000 0.531250 0.003343
0.781250 0.531250 0.003343
0.812500 0.531250 0.003343
0.843750 0.531250 0.003343
0.875000 0.531250 0.003343
0.906250 0.531250 0.003343
0.937500 0.531250 0.003343
0.968742 0.531250 0.003343
0.996657 0.531250 0.003343
0.003343 0.562500 0.003343
0.031258 0.562500 0.003343
0.062500 0.562500 0.003343
0.093750 0.562500 0.003343
0.125000 0.562500 0.003343
0.156250 0.562500 0.003343
0.187500 0.562500 0.003343
0.218750 0.562500 0.003343
0.250000 0.562500 0.003343
0.281250 0.562500 0.003343
0.312500 0.562500 0.003343
0.343750 0.562500 0.003343
0.375000 0.562500 0.003343
0.406250 0.562500 0.003343
0.437500 0.562500 0.003343
0.468750 0.562500 0.003343
0.500000 0.562500 0.003343
0.531250 0.562500 0.003343
0.562500 0.562500 0.003343
0.593750 0.562500 0.003343
0.625000 0.562500 0.003343
0.656250 0.562500 0.003343
0.687500 0.562500 0.003343
0.718750 0.562500 0.003343
0.750000 0.562500 0.003343
0.781250 0.562500 0.003343
0.812500 0.562500 0.003343
0.843750 0.562500 0.003343
0.875000 0.562500 0.003343
0.906250 0.562500 0.003343
0.937500 0.562500 0.003343
0.968742 0.562500 0.003343
0.996657 0.562500 0.003343
0.003343 0.593750 0.003343
0.031258 0.593750 0.003343
0.062500 0.593750 0.003343
0.093750 0.593750 0.003343
0.125000 0.593750 0.003343
0.156250 0.593750 0.003343
0.187500 0.593750 0.003343
0.218750 0.593750 0.003343
0.250000 0.593750 0.003343
0.281250 0.593750 0.003343
0.312500 0.593750 0.003343
0.343750 0.593750 0.003343
0.375000 0.593750 0.003343
0.406250 0.593750 0.003343
0.437500 0.593750 0.003343
0.468750 0.593750 0.003343
0.500000 0.593750 0.003343
0.531250 0.593750 0.003343
0.562500 0.593750 0.003343
0.593750 0.593750 0.003343
0.625000 0.593750 0.003343
0.656250 0.593750 0.003343
0.687500 0.593750 0.003343
0.718750 0.593750 0.003343
0.750000 0.593750 0.003343
0.781250 0.593750 0.003343
0.812500 0.593750 0.003343
0.843750 0.593750 0.003343
0.875000 0.593750 0.003343
0.906250 0.593750 0.003343
0.937500 0.593750 0.003343
0.968742 0.593750 0.003343
0.996657 0.593750 0.003343
0.003343 0.625000 0.003343
0.031258 0.625000 0.003343
0.062500 0.625000 0.003343
0.093750 0.625000 0.003343
0.125000 0.625000 0.003343
0.156250 0.625000 0.003343
0.187500 0.625000 0.003343
0.218750 0.625000 0.003343
0.250000 0.625000 0.003343
0.281250 0.625000 0.003343
0.312500 0.625000 0.003343
0.343750 0.625000 0.003343
0.375000 0.625000 0.003343
0.406250 0.625000 0.003343
0.437500 0.625000 0.003343
0.468750 0.625000 0.003343
0.500000 0.625000 0.003343
0.531250 0.625000 0.003343
0.562500 0.625000 0.003343
0.593750 0.625000 0.003343
0.625000 0.625000 0.003343
0.656250 0.625000 0.003343
0.687500 0.625000 0.003343
0.718750 0.625000 0.003343
0.750000 0.625000 0.003343
0.781250 0.625000 0.003343
0.812500 0.625000 0.003343
0.843750 0.625000 0.003343
0.875000 0.625000 0.003343
0.906250 0.625000 0.003343
0.937500 0.625000 0.003343
0.968742 0.625000 0.003343
0.996657 0.625000 0.003343
0.003343 0.656250 0.003343
0.031258 0.656250 0.003343
0.062500 0.656250 0.003343
0.093750 0.656250 0.003343
0.125000 0.656250 0.003343
0.156250 0.656250 0.003343
0.187500 0.656250 0.003343
0.218750 0.656250 0.003343
0.250000 0.656250 0.003343
0.281250 0.656250 0.003343
0.312500 0.656250 0.003343
0.343750 0.656250 0.003343
0.375000 0.656250 0.003343
0.406250 0.656250 0.003343
0.437500 0.656250 0.003343
0.468750 0.656250 0.003343
0.500000 0.656250 0.003343
0.531250 0.656250 0.003343
0.562500 0.656250 0.003343
0.593750 0.656250 0.003343
0.625000 0.656250 0.003343
0.656250 0.656250 0.003343
0.687500 0.656250 0.003343
0.718750 0.656250 0.003343
0.750000 0.656250 0.003343
0.781250 0.656250 0.003343
0.812500 0.656250 0.003343
0.843750 0.656250 0.003343
0.875000 0.656250 0.003343
0.906250 0.656250 0.003343
0.937500 0.656250 0.003343
0.968742 0.656250 0.003343
0.996657 0.656250 0.003343
0.003343 0.687500 0.003343
0.031258 0.687500 0.003343
0.062500 0.687500 0.003343
0.093750 0.687500 0.003343
0.125000 0.687500 0.003343
0.156250 0.687500 0.003343
0.187500 0.687500 0.003343
0.218750 0.687500 0.003343
0.250000 0.687500 0.003343
0.281250 0.687500 0.003343
0.312500 0.687500 0.003343
0.343750 0.687500 0.003343
0.375000 0.687500 0.003343
0.406250 0.687500 0.003343
0.437500 0.687500 0.003343
0.468750 0.687500 0.003343
0.500000 0.687500 0.003343
0.531250 0.687500 0.003343
0.562500 0.687500 0.003343
0.593750 0.687500 0.003343
0.625000 0.687500 0.003343
0.656250 0.687500 0.003343
0.687500 0.687500 0.003343
0.718750 0.687500 0.003343
0.750000 0.687500 0.003343
0.781250 0.687500 0.003343
0.812500 0.687500 0.003343
0.843750 0.687500 0.003343
0.875000 0.687500 0.003343
0.906250 0.687500 0.003343
0.937500 0.687500 0.003343
0.968742 0.687500 0.003343
0.996657 0.687500 0.003343
0.003343 0.718750 0.003343
0.031258 0.718750 0.003343
0.062500 0.718750 0.003343
0.093750 0.718750 0.003343
0.125000 0.718750 0.003343
0.156250 0.718750 0.003343
0.187500 0.718750 0.003343
0.218750 0.718750 0.003343
0.250000 0.718750 0.003343
0.281250 0.718750 0.003343
0.312500 0.718750 0.003343
0.343750 0.718750 0.003343
0.375000 0.718750 0.003343
0.406250 0.718750 0.003343
0.437500 0.718750 0.003343
0.468750 0.718750 0.003343
0.500000 0.718750 0.003343
0.531250 0.718750 0.003343
0.562500 0.718750 0.003343
0.593750 0.718750 0.003343
0.625000 0.718750 0.003343
0.656250 0.718750 0.003343
0.687500 0.718750 0.003343
0.718750 0.718750 0.003343
0.750000 0.718750 0.003343
0.781250 0.718750 0.003343
0.812500 0.718750 0.003343
0.843750 0.718750 0.003343
0.875000 0.718750 0.003343
0.906250 0.718750 0.003343
0.937500 0.718750 0.003343
0.968742 0.718750 0.003343
0.996657 0.718750 0.003343
0.003343 0.750000 0.003343
0.031258 0.750000 0.003343
0.062500 0.750000 0.003343
0.093750 0.750000 0.003343
0.125000 0.750000 0.003343
0.156250 0.750000 0.003343
0.187500 0.750000 0.003343
0.218750 0.750000 0.003343
0.250000 0.750000 0.003343
0.281250 0.750000 0.003343
0.312500 0.750000 0.003343
0.343750 0.750000 0.003343
0.375000 0.750000 0.003343
0.406250 0.750000 0.003343
0.437500 0.750000 0.003343
0.468750 0.750000 0.003343
0.500000 0.750000 0.003343
0.531250 0.750000 0.003343
0.562500 0.750000 0.003343
0.593750 0.750000 0.003343
0.625000 0.750000 0.003343
0.656250 0.750000 0.003343
0.687500 0.750000 0.003343
0.718750 0.750000 0.003343
0.750000 0.750000 0.003343
0.781250 0.750000 0.003343
0.812500 0.750000 0.003343
0.843750 0.750000 0.003343
0.875000 0.750000 0.003343
0.906250 0.750000 0.003343
0.937500 0.750000 0.003343
0.968742 0.750000 0.003343
0.996657 0.750000 0.003343
0.003343 0.781250 0.003343
0.031258 0.781250 0.003343
0.062500 0.781250 0.003343
0.093750 0.781250 0.003343
0.125000 0.781250 0.003343
0.156250 0.781250 0.003343
0.187500 0.781250 0.003343
0.218750 0.781250 0.003343
0.250000 0.781250 0.003343
0.281250 0.781250 0.003343
0.312500 0.781250 0.003343
0.343750 0.781250 0.003343
0.375000 0.781250 0.003343
0.406250 0.781250 0.003343
0.437500 0.781250 0.003343
0.468750 0.781250 0.003343
0.500000 0.781250 0.003343
0.531250 0.781250 0.003343
0.562500 0.781250 0.003343
0.593750 0.781250 0.003343
0.625000 0.781250 0.003343
0.656250 0.781250 0.003343
0.687500 0.781250 0.003343
0.718750 0.781250 0.003343
0.750000 0.781250 0.003343
0.781250 0.781250 0.003343
0.812500 0.781250 0.003343
0.843750 0.781250 0.003343
0.875000 0.781250 0.003343
0.906250 0.781250 0.003343
0.937500 0.781250 0.003343
0.968742 0.781250 0.003343
0.996657 0.781250 0.003343
0.003343 0.812500 0.003343
0.031258 0.812500 0.003343
0.062500 0.812500 0.003343
0.093750 0.812500 0.003343
0.125000 0.812500 0.003343
0.156250 0.812500 0.003343
0.187500 0.812500 0.003343
0.218750 0.812500 0.003343
0.250000 0.812500 0.003343
0.281250 0.812500 0.003343
0.312500 0.812500 0.003343
0.343750 0.812500 0.003343
0.375000 0.812500 0.003343
0.406250 0.812500 0.003343
0.437500 0.812500 0.003343
0.468750 0.812500 0.003343
0.500000 0.812500 0.003343
0.531250 0.812500 0.003343
0.562500 0.812500 0.003343
0.593750 0.812500 0.003343
0.625000 0.812500 0.003343
0.656250 0.812500 0.003343
0.687500 0.812500 0.003343
0.718750 0.812500 0.003343
0.750000 0.812500 0.003343
0.781250 0.812500 0.003343
0.812500 0.812500 0.003343
