Mimicamera/Resources/CuratedLUTs/overcast.cube
# Mimicamera generated LUT
TITLE "Overcast"
LUT_3D_SIZE 9
DOMAIN_MIN 0.0 0.0 0.0
DOMAIN_MAX 1.0 1.0 1.0
0.003343 0.003343 0.003343
0.125000 0.003343 0.003343
0.250000 0.003343 0.003343
0.375000 0.003343 0.003343
0.500000 0.003343 0.003343
0.625000 0.003343 0.003343
0.750000 0.003343 0.003343
0.875000 0.003343 0.003343
0.996657 0.003343 0.003343
0.003343 0.125000 0.003343
0.125000 0.125000 0.003343
0.250000 0.125000 0.003343
0.375000 0.125000 0.003343
0.500000 0.125000 0.003343
0.625000 0.125000 0.003343
0.750000 0.125000 0.003343
0.875000 0.125000 0.003343
0.996657 0.125000 0.003343
0.003343 0.250000 0.003343
0.125000 0.250000 0.003343
0.250000 0.250000 0.003343
0.375000 0.250000 0.003343
0.500000 0.250000 0.003343
0.625000 0.250000 0.003343
0.750000 0.250000 0.003343
0.875000 0.250000 0.003343
0.996657 0.250000 0.003343
0.003343 0.375000 0.003343
0.125000 0.375000 0.003343
0.250000 0.375000 0.003343
0.375000 0.375000 0.003343
0.500000 0.375000 0.003343
0.625000 0.375000 0.003343
0.750000 0.375000 0.003343
0.875000 0.375000 0.003343
0.996657 0.375000 0.003343
0.003343 0.500000 0.003343
0.125000 0.500000 0.003343
0.250000 0.500000 0.003343
0.375000 0.500000 0.003343
0.500000 0.500000 0.003343
0.625000 0.500000 0.003343
0.750000 0.500000 0.003343
0.875000 0.500000 0.003343
0.996657 0.500000 0.003343
0.003343 0.625000 0.003343
0.125000 0.625000 0.003343
0.250000 0.625000 0.003343
0.375000 0.625000 0.003343
0.500000 0.625000 0.003343
0.625000 0.625000 0.003343
0.750000 0.625000 0.003343
0.875000 0.625000 0.003343
0.996657 0.625000 0.003343
0.003343 0.750000 0.003343
0.125000 0.750000 0.003343
0.250000 0.750000 0.003343
0.375000 0.750000 0.003343
0.500000 0.750000 0.003343
0.625000 0.750000 0.003343
0.750000 0.750000 0.003343
0.875000 0.750000 0.003343
0.996657 0.750000 0.003343
0.003343 0.875000 0.003343
0.125000 0.875000 0.003343
0.250000 0.875000 0.003343
0.375000 0.875000 0.003343
0.500000 0.875000 0.003343
0.625000 0.875000 0.003343
0.750000 0.875000 0.003343
0.875000 0.875000 0.003343
0.996657 0.875000 0.003343
0.003343 0.996657 0.003343
0.125000 0.996657 0.003343
0.250000 0.996657 0.003343
0.375000 0.996657 0.003343
0.500000 0.996657 0.003343
0.625000 0.996657 0.003343
0.750000 0.996657 0.003343
0.875000 0.996657 0.003343
0.996657 0.996657 0.003343
0.003343 0.003343 0.125000
0.125000 0.003343 0.125000
0.250000 0.003343 0.125000
0.375000 0.003343 0.125000
0.500000 0.003343 0.125000
0.625000 0.003343 0.125000
0.750000 0.003343 0.125000
0.875000 0.003343 0.125000
0.996657 0.003343 0.125000
0.003343 0.125000 0.125000
0.125000 0.125000 0.125000
0.250000 0.125000 0.125000
0.375000 0.125000 0.125000
0.500000 0.125000 0.125000
0.625000 0.125000 0.125000
0.750000 0.125000 0.125000
0.875000 0.125000 0.125000
0.996657 0.125000 0.125000
0.003343 0.250000 0.125000
0.125000 0.250000 0.125000
0.250000 0.250000 0.125000
0.375000 0.250000 0.125000
0.500000 0.250000 0.125000
0.625000 0.250000 0.125000
0.750000 0.250000 0.125000
0.875000 0.250000 0.125000
0.996657 0.250000 0.125000
0.003343 0.375000 0.125000
0.125000 0.375000 0.125000
0.250000 0.375000 0.125000
0.375000 0.375000 0.125000
0.500000 0.375000 0.125000
0.625000 0.375000 0.125000
0.750000 0.375000 0.125000
0.875000 0.375000 0.125000
0.996657 0.375000 0.125000
0.003343 0.500000 0.125000
0.125000 0.500000 0.125000
0.250000 0.500000 0.125000
0.375000 0.500000 0.125000
0.500000 0.500000 0.125000
0.625000 0.500000 0.125000
0.750000 0.500000 0.125000
0.875000 0.500000 0.125000
0.996657 0.500000 0.125000
0.003343 0.625000 0.125000
0.125000 0.625000 0.125000
0.250000 0.625000 0.125000
0.375000 0.625000 0.125000
0.500000 0.625000 0.125000
0.625000 0.625000 0.125000
0.750000 0.625000 0.125000
0.875000 0.625000 0.125000
0.996657 0.625000 0.125000
0.003343 0.750000 0.125000
0.125000 0.750000 0.125000
0.250000 0.750000 0.125000
0.375000 0.750000 0.125000
0.500000 0.750000 0.125000
0.625000 0.750000 0.125000
0.750000 0.750000 0.125000
0.875000 0.750000 0.125000
0.996657 0.750000 0.125000
0.003343 0.875000 0.125000
0.125000 0.875000 0.125000
0.250000 0.875000 0.125000
0.375000 0.875000 0.125000
0.500000 0.875000 0.125000
0.625000 0.875000 0.125000
0.750000 0.875000 0.125000
0.875000 0.875000 0.125000
0.996657 0.875000 0.125000
0.003343 0.996657 0.125000
0.125000 0.996657 0.125000
0.250000 0.996657 0.125000
0.375000 0.996657 0.125000
0.500000 0.996657 0.125000
0.625000 0.996657 0.125000
0.750000 0.996657 0.125000
0.875000 0.996657 0.125000
0.996657 0.996657 0.125000
0.003343 0.003343 0.250000
0.125000 0.003343 0.250000
0.250000 0.003343 0.250000
0.375000 0.003343 0.250000
0.500000 0.003343 0.250000
0.625000 0.003343 0.250000
0.750000 0.003343 0.250000
0.875000 0.003343 0.250000
0.996657 0.003343 0.250000
0.003343 0.125000 0.250000
0.125000 0.125000 0.250000
0.250000 0.125000 0.250000
0.375000 0.125000 0.250000
0.500000 0.125000 0.250000
0.625000 0.125000 0.250000
0.750000 0.125000 0.250000
0.875000 0.125000 0.250000
0.996657 0.125000 0.250000
0.003343 0.250000 0.250000
0.125000 0.250000 0.250000
0.250000 0.250000 0.250000
0.375000 0.250000 0.250000
0.500000 0.250000 0.250000
0.625000 0.250000 0.250000
0.750000 0.250000 0.250000
0.875000 0.250000 0.250000
0.996657 0.250000 0.250000
0.003343 0.375000 0.250000
0.125000 0.375000 0.250000
0.250000 0.375000 0.250000
0.375000 0.375000 0.250000
0.500000 0.375000 0.250000
0.625000 0.375000 0.250000
0.750000 0.375000 0.250000
0.875000 0.375000 0.250000
0.996657 0.375000 0.250000
0.003343 0.500000 0.250000
0.125000 0.500000 0.250000
0.250000 0.500000 0.250000
0.375000 0.500000 0.250000
0.500000 0.500000 0.250000
0.625000 0.500000 0.250000
0.750000 0.500000 0.250000
0.875000 0.500000 0.250000
0.996657 0.500000 0.250000
0.003343 0.625000 0.250000
0.125000 0.625000 0.250000
0.250000 0.625000 0.250000
0.375000 0.625000 0.250000
0.500000 0.625000 0.250000
0.625000 0.625000 0.250000
0.750000 0.625000 0.250000
0.875000 0.625000 0.250000
0.996657 0.625000 0.250000
0.003343 0.750000 0.250000
0.125000 0.750000 0.250000
0.250000 0.750000 0.250000
0.375000 0.750000 0.250000
0.500000 0.750000 0.250000
0.625000 0.750000 0.250000
0.750000 0.750000 0.250000
0.875000 0.750000 0.250000
0.996657 0.750000 0.250000
0.003343 0.875000 0.250000
0.125000 0.875000 0.250000
0.250000 0.875000 0.250000
0.375000 0.875000 0.250000
0.500000 0.875000 0.250000
0.625000 0.875000 0.250000
0.750000 0.875000 0.250000
0.875000 0.875000 0.250000
0.996657 0.875000 0.250000
0.003343 0.996657 0.250000
0.125000 0.996657 0.250000
0.250000 0.996657 0.250000
0.375000 0.996657 0.250000
0.500000 0.996657 0.250000
0.625000 0.996657 0.250000
0.750000 0.996657 0.250000
0.875000 0.996657 0.250000
0.996657 0.996657 0.250000
0.003343 0.003343 0.375000
0.125000 0.003343 0.375000
0.250000 0.003343 0.375000
0.375000 0.003343 0.375000
0.500000 0.003343 0.375000
0.625000 0.003343 0.375000
0.750000 0.003343 0.375000
0.875000 0.003343 0.375000
0.996657 0.003343 0.375000
0.003343 0.125000 0.375000
0.125000 0.125000 0.375000
0.250000 0.125000 0.375000
0.375000 0.125000 0.375000
0.500000 0.125000 0.375000
0.625000 0.125000 0.375000
0.750000 0.125000 0.375000
0.875000 0.125000 0.375000
0.996657 0.125000 0.375000
0.003343 0.250000 0.375000
0.125000 0.250000 0.375000
0.250078 0.250103 0.375079
0.375063 0.250218 0.375173
0.500000 0.250000 0.375000
0.625000 0.250000 0.375000
0.750000 0.250000 0.375000
0.875000 0.250000 0.375000
0.996657 0.250000 0.375000
0.003343 0.375000 0.375000
0.125000 0.375000 0.375000
0.256531 0.379901 0.381546
0.381476 0.385886 0.389323
0.500018 0.375535 0.375684
0.625000 0.375000 0.375000
0.750000 0.375000 0.375000
0.875000 0.375000 0.375000
0.996657 0.375000 0.375000
0.003343 0.500000 0.375000
0.125000 0.500000 0.375000
0.251340 0.500472 0.376348
0.381655 0.504248 0.387402
0.500496 0.501226 0.378123
0.625000 0.500000 0.375000
0.750000 0.500000 0.375000
0.875000 0.500000 0.375000
0.996657 0.500000 0.375000
0.003343 0.625000 0.375000
0.125000 0.625000 0.375000
0.250000 0.625000 0.375000
0.375027 0.625005 0.375041
0.500012 0.625006 0.375039
0.625000 0.625000 0.375000
0.750000 0.625000 0.375000
0.875000 0.625000 0.375000
0.996657 0.625000 0.375000
0.003343 0.750000 0.375000
0.125000 0.750000 0.375000
0.250000 0.750000 0.375000
0.375000 0.750000 0.375000
0.500000 0.750000 0.375000
0.625000 0.750000 0.375000
0.750000 0.750000 0.375000
0.875000 0.750000 0.375000
0.996657 0.750000 0.375000
0.003343 0.875000 0.375000
0.125000 0.875000 0.375000
0.250000 0.875000 0.375000
0.375000 0.875000 0.375000
0.500000 0.875000 0.375000
0.625000 0.875000 0.375000
0.750000 0.875000 0.375000
0.875000 0.875000 0.375000
0.996657 0.875000 0.375000
0.003343 0.996657 0.375000
0.125000 0.996657 0.375000
0.250000 0.996657 0.375000
0.375000 0.996657 0.375000
0.500000 0.996657 0.375000
0.625000 0.996657 0.375000
0.750000 0.996657 0.375000
0.875000 0.996657 0.375000
0.996657 0.996657 0.375000
0.003343 0.003343 0.500000
0.125000 0.003343 0.500000
0.250000 0.003343 0.500000
0.375000 0.003343 0.500000
0.500000 0.003343 0.500000
0.625000 0.003343 0.500000
0.750000 0.003343 0.500000
0.875000 0.003343 0.500000
0.996657 0.003343 0.500000
0.003343 0.125000 0.500000
0.125000 0.125000 0.500000
0.250000 0.125000 0.500000
0.375000 0.125000 0.500000
0.500000 0.125000 0.500000
0.625000 0.125000 0.500000
0.750000 0.125000 0.500000
0.875000 0.125000 0.500000
0.996657 0.125000 0.500000
0.003343 0.250000 0.500000
0.125000 0.250000 0.500000
0.250128 0.250174 0.500046
0.375325 0.251312 0.500374
0.500000 0.250004 0.500001
0.625000 0.250000 0.500000
0.750000 0.250000 0.500000
0.875000 0.250000 0.500000
0.996657 0.250000 0.500000
0.003343 0.375000 0.500000
0.125000 0.375000 0.500000
0.262694 0.384673 0.505762
0.395392 0.409617 0.520962
0.499627 0.389920 0.510013
0.624990 0.375027 0.500020
0.750000 0.375000 0.500000
0.875000 0.375000 0.500000
0.996657 0.375000 0.500000
0.003343 0.500000 0.500000
0.125000 0.500000 0.500000
0.261399 0.503828 0.506666
0.420074 0.529162 0.549486
0.510162 0.530920 0.548546
0.622689 0.504119 0.506108
0.750000 0.500000 0.500000
0.875000 0.500000 0.500000
0.996657 0.500000 0.500000
0.003343 0.625000 0.500000
0.125000 0.625000 0.500000
0.250039 0.625003 0.500025
0.388934 0.626242 0.513748
0.513674 0.629515 0.531972
0.624222 0.626958 0.510337
0.749994 0.625003 0.500012
0.875000 0.625000 0.500000
0.996657 0.625000 0.500000
0.003343 0.750000 0.500000
0.125000 0.750000 0.500000
0.250000 0.750000 0.500000
0.375002 0.750000 0.500002
0.500378 0.749859 0.500714
0.625026 0.749912 0.500524
0.750000 0.750000 0.500000
0.875000 0.750000 0.500000
0.996657 0.750000 0.500000
0.003343 0.875000 0.500000
0.125000 0.875000 0.500000
0.250000 0.875000 0.500000
0.375000 0.875000 0.500000
0.500000 0.875000 0.500000
0.625000 0.875000 0.500000
0.750000 0.875000 0.500000
0.875000 0.875000 0.500000
0.996657 0.875000 0.500000
0.003343 0.996657 0.500000
0.125000 0.996657 0.500000
0.250000 0.996657 0.500000
0.375000 0.996657 0.500000
0.500000 0.996657 0.500000
0.625000 0.996657 0.500000
0.750000 0.996657 0.500000
0.875000 0.996657 0.500000
0.996657 0.996657 0.500000
0.003343 0.003343 0.625000
0.125000 0.003343 0.625000
0.250000 0.003343 0.625000
0.375000 0.003343 0.625000
0.500000 0.003343 0.625000
0.625000 0.003343 0.625000
0.750000 0.003343 0.625000
0.875000 0.003343 0.625000
0.996657 0.003343 0.625000
0.003343 0.125000 0.625000
0.125000 0.125000 0.625000
0.250000 0.125000 0.625000
0.375000 0.125000 0.625000
0.500000 0.125000 0.625000
0.625000 0.125000 0.625000
0.750000 0.125000 0.625000
0.875000 0.125000 0.625000
0.996657 0.125000 0.625000
0.003343 0.250000 0.625000
0.125000 0.250000 0.625000
0.250000 0.250000 0.625000
0.375001 0.250003 0.625000
0.500000 0.250000 0.625000
0.625000 0.250000 0.625000
0.750000 0.250000 0.625000
0.875000 0.250000 0.625000
0.996657 0.250000 0.625000
0.003343 0.375000 0.625000
0.125000 0.375000 0.625000
0.250531 0.375418 0.624968
0.382507 0.388300 0.623827
0.499380 0.388179 0.625277
0.624817 0.375386 0.625062
0.750000 0.375000 0.625000
0.875000 0.375000 0.625000
0.996657 0.375000 0.625000
0.003343 0.500000 0.625000
0.125000 0.500000 0.625000
0.252688 0.500936 0.625359
0.415687 0.526411 0.634845
0.516887 0.559603 0.651176
0.612577 0.524247 0.637104
0.749685 0.500285 0.625155
0.875000 0.500000 0.625000
0.996657 0.500000 0.625000
0.003343 0.625000 0.625000
0.125000 0.625000 0.625000
0.250036 0.625003 0.625009
0.404867 0.627015 0.636712
0.555766 0.641534 0.682321
0.610992 0.645643 0.673962
0.740220 0.628907 0.633327
0.874999 0.625000 0.625001
0.996657 0.625000 0.625000
0.003343 0.750000 0.625000
0.125000 0.750000 0.625000
0.250000 0.750000 0.625000
0.375638 0.749851 0.625304
0.516254 0.742489 0.640819
0.628399 0.738284 0.659011
0.741786 0.746927 0.637833
0.874967 0.749995 0.625023
0.996657 0.750000 0.625000
0.003343 0.875000 0.625000
0.125000 0.875000 0.625000
0.250000 0.875000 0.625000
0.375000 0.875000 0.625000
0.500008 0.874993 0.625008
0.625382 0.874061 0.626114
0.749832 0.874574 0.625585
0.875000 0.875000 0.625000
0.996657 0.875000 0.625000
0.003343 0.996657 0.625000
0.125000 0.996657 0.625000
0.250000 0.996657 0.625000
0.375000 0.996657 0.625000
0.500000 0.996657 0.625000
0.625000 0.996657 0.625000
0.750000 0.996657 0.625000
0.875000 0.996657 0.625000
0.996657 0.996657 0.625000
0.003343 0.003343 0.750000
0.125000 0.003343 0.750000
0.250000 0.003343 0.750000
0.375000 0.003343 0.750000
0.500000 0.003343 0.750000
0.625000 0.003343 0.750000
0.750000 0.003343 0.750000
0.875000 0.003343 0.750000
0.996657 0.003343 0.750000
0.003343 0.125000 0.750000
0.125000 0.125000 0.750000
0.250000 0.125000 0.750000
0.375000 0.125000 0.750000
0.500000 0.125000 0.750000
0.625000 0.125000 0.750000
0.750000 0.125000 0.750000
0.875000 0.125000 0.750000
0.996657 0.125000 0.750000
0.003343 0.250000 0.750000
0.125000 0.250000 0.750000
0.250000 0.250000 0.750000
0.375000 0.250000 0.750000
0.500000 0.250000 0.750000
0.625000 0.250000 0.750000
0.750000 0.250000 0.750000
0.875000 0.250000 0.750000
0.996657 0.250000 0.750000
0.003343 0.375000 0.750000
0.125000 0.375000 0.750000
0.250000 0.375000 0.750000
0.375014 0.375023 0.749985
0.500004 0.375352 0.749807
0.624999 0.375003 0.749999
0.750000 0.375000 0.750000
0.875000 0.375000 0.750000
0.996657 0.375000 0.750000
0.003343 0.500000 0.750000
0.125000 0.500000 0.750000
0.250000 0.500000 0.750000
0.379602 0.503066 0.747184
0.507160 0.519943 0.736172
0.615047 0.515652 0.742021
0.749055 0.500793 0.749745
0.875000 0.500000 0.750000
0.996657 0.500000 0.750000
0.003343 0.625000 0.750000
0.125000 0.625000 0.750000
0.250000 0.625000 0.750000
0.382766 0.625510 0.747942
0.538694 0.635183 0.731436
0.608145 0.653670 0.730395
0.716329 0.639212 0.746682
0.874151 0.625234 0.749982
0.996657 0.625000 0.750000
0.003343 0.750000 0.750000
0.125000 0.750000 0.750000
0.250000 0.750000 0.750000
0.375183 0.749951 0.749994
0.522711 0.739667 0.749530
0.634024 0.715293 0.755600
0.693599 0.729428 0.760015
0.864937 0.748721 0.751426
0.996657 0.750000 0.750000
0.003343 0.875000 0.750000
0.125000 0.875000 0.750000
0.250000 0.875000 0.750000
0.375000 0.875000 0.750000
0.500327 0.874722 0.750055
0.631011 0.860674 0.753686
0.743145 0.857326 0.755793
0.873794 0.874112 0.750412
0.996657 0.875000 0.750000
0.003343 0.996657 0.750000
0.125000 0.996657 0.750000
0.250000 0.996657 0.750000
0.375000 0.996657 0.750000
0.500000 0.996657 0.750000
0.625000 0.996657 0.750000
0.750000 0.996656 0.750000
0.875000 0.996657 0.750000
0.996657 0.996657 0.750000
0.003343 0.003343 0.875000
0.125000 0.003343 0.875000
0.250000 0.003343 0.875000
0.375000 0.003343 0.875000
0.500000 0.003343 0.875000
0.625000 0.003343 0.875000
0.750000 0.003343 0.875000
0.875000 0.003343 0.875000
0.996657 0.003343 0.875000
0.003343 0.125000 0.875000
0.125000 0.125000 0.875000
0.250000 0.125000 0.875000
0.375000 0.125000 0.875000
0.500000 0.125000 0.875000
0.625000 0.125000 0.875000
0.750000 0.125000 0.875000
0.875000 0.125000 0.875000
0.996657 0.125000 0.875000
0.003343 0.250000 0.875000
0.125000 0.250000 0.875000
0.250000 0.250000 0.875000
0.375000 0.250000 0.875000
0.500000 0.250000 0.875000
0.625000 0.250000 0.875000
0.750000 0.250000 0.875000
0.875000 0.250000 0.875000
0.996657 0.250000 0.875000
0.003343 0.375000 0.875000
0.125000 0.375000 0.875000
0.250000 0.375000 0.875000
0.375000 0.375000 0.875000
0.500000 0.375000 0.875000
0.625000 0.375000 0.875000
0.750000 0.375000 0.875000
0.875000 0.375000 0.875000
0.996657 0.375000 0.875000
0.003343 0.500000 0.875000
0.125000 0.500000 0.875000
0.250000 0.500000 0.875000
0.375000 0.500000 0.875000
0.500035 0.500094 0.874849
0.624817 0.500318 0.874561
0.749994 0.500005 0.874994
0.875000 0.500000 0.875000
0.996657 0.500000 0.875000
0.003343 0.625000 0.875000
0.125000 0.625000 0.875000
0.250000 0.625000 0.875000
0.375000 0.625000 0.875000
0.502477 0.625939 0.870171
0.621283 0.631420 0.852287
0.735915 0.630573 0.860710
0.874646 0.625087 0.874812
0.996657 0.625000 0.875000
0.003343 0.750000 0.875000
0.125000 0.750000 0.875000
0.250000 0.750000 0.875000
0.375000 0.750000 0.875000
0.502752 0.748798 0.872370
0.628912 0.735399 0.840694
0.714553 0.736144 0.835664
0.866344 0.748747 0.870644
0.996657 0.750000 0.875000
0.003343 0.875000 0.875000
0.125000 0.875000 0.875000
0.250000 0.875000 0.875000
0.375000 0.875000 0.875000
0.500007 0.874994 0.874996
0.628322 0.866875 0.869473
0.743550 0.859884 0.865745
0.873727 0.874047 0.874419
0.996657 0.875000 0.875000
0.003343 0.996657 0.875000
0.125000 0.996657 0.875000
0.250000 0.996657 0.875000
0.375000 0.996657 0.875000
0.500000 0.996657 0.875000
0.625000 0.996657 0.875000
0.750000 0.996656 0.875000
0.875000 0.996657 0.875000
0.996657 0.996657 0.875000
0.003343 0.003343 0.996657
0.125000 0.003343 0.996657
0.250000 0.003343 0.996657
0.375000 0.003343 0.996657
0.500000 0.003343 0.996657
0.625000 0.003343 0.996657
0.750000 0.003343 0.996657
0.875000 0.003343 0.996657
0.996657 0.003343 0.996657
0.003343 0.125000 0.996657
0.125000 0.125000 0.996657
0.250000 0.125000 0.996657
0.375000 0.125000 0.996657
0.500000 0.125000 0.996657
0.625000 0.125000 0.996657
0.750000 0.125000 0.996657
0.875000 0.125000 0.996657
0.996657 0.125000 0.996657
0.003343 0.250000 0.996657
0.125000 0.250000 0.996657
0.250000 0.250000 0.996657
0.375000 0.250000 0.996657
0.500000 0.250000 0.996657
0.625000 0.250000 0.996657
0.750000 0.250000 0.996657
0.875000 0.250000 0.996657
0.996657 0.250000 0.996657
0.003343 0.375000 0.996657
0.125000 0.375000 0.996657
0.250000 0.375000 0.996657
0.375000 0.375000 0.996657
0.500000 0.375000 0.996657
0.625000 0.375000 0.996657
0.750000 0.375000 0.996657
0.875000 0.375000 0.996657
0.996657 0.375000 0.996657
0.003343 0.500000 0.996657
0.125000 0.500000 0.996657
0.250000 0.500000 0.996657
0.375000 0.500000 0.996657
0.500000 0.500000 0.996657
0.625000 0.500000 0.996657
0.750000 0.500000 0.996657
0.875000 0.500000 0.996657
0.996657 0.500000 0.996657
0.003343 0.625000 0.996657
0.125000 0.625000 0.996657
0.250000 0.625000 0.996657
0.375000 0.625000 0.996657
0.500000 0.625000 0.996657
0.624999 0.625001 0.996645
0.749986 0.625004 0.996632
0.875000 0.625000 0.996657
0.996657 0.625000 0.996657
0.003343 0.750000 0.996657
0.125000 0.750000 0.996657
0.250000 0.750000 0.996657
0.375000 0.750000 0.996657
0.500000 0.750000 0.996657
0.625013 0.749886 0.996176
0.748877 0.749539 0.994188
0.874994 0.749999 0.996651
0.996657 0.750000 0.996657
0.003343 0.875000 0.996657
0.125000 0.875000 0.996657
0.250000 0.875000 0.996657
0.375000 0.875000 0.996657
0.500000 0.875000 0.996657
0.625001 0.874998 0.996653
0.749959 0.874910 0.996527
0.875000 0.875000 0.996657
0.996657 0.875000 0.996657
0.003343 0.996657 0.996657
0.125000 0.996657 0.996657
0.250000 0.996657 0.996657
0.375000 0.996657 0.996657
0.500000 0.996657 0.996657
0.625000 0.996657 0.996657
0.750000 0.996657 0.996657
0.875000 0.996657 0.996657
0.996657 0.996657 0.996657
