Mimicamera/Resources/CuratedLUTs/overcast.cube
# Mimicamera generated LUT
TITLE "Overcast"
LUT_3D_SIZE 5
DOMAIN_MIN 0.0 0.0 0.0
DOMAIN_MAX 1.0 1.0 1.0
0.003343 0.003343 0.003343
0.250000 0.003343 0.003343
0.500000 0.003343 0.003343
0.750000 0.003343 0.003343
0.996657 0.003343 0.003343
0.003343 0.250000 0.003343
0.250000 0.250000 0.003343
0.500000 0.250000 0.003343
0.750000 0.250000 0.003343
0.996657 0.250000 0.003343
0.003343 0.500000 0.003343
0.250000 0.500000 0.003343
0.500000 0.500000 0.003343
0.750000 0.500000 0.003343
0.996657 0.500000 0.003343
0.003343 0.750000 0.003343
0.250000 0.750000 0.003343
0.500000 0.750000 0.003343
0.750000 0.750000 0.003343
0.996657 0.750000 0.003343
0.003343 0.996657 0.003343
0.250000 0.996657 0.003343
0.500000 0.996657 0.003343
0.750000 0.996657 0.003343
0.996657 0.996657 0.003343
0.003343 0.003343 0.250000
0.250000 0.003343 0.250000
0.500000 0.003343 0.250000
0.750000 0.003343 0.250000
0.996657 0.003343 0.250000
0.003343 0.250000 0.250000
0.250000 0.250000 0.250000
0.500000 0.250000 0.250000
0.750000 0.250000 0.250000
0.996657 0.250000 0.250000
0.003343 0.500000 0.250000
0.250000 0.500000 0.250000
0.500000 0.500000 0.250000
0.750000 0.500000 0.250000
0.996657 0.500000 0.250000
0.003343 0.750000 0.250000
0.250000 0.750000 0.250000
0.500000 0.750000 0.250000
0.750000 0.750000 0.250000
0.996657 0.750000 0.250000
0.003343 0.996657 0.250000
0.250000 0.996657 0.250000
0.500000 0.996657 0.250000
0.750000 0.996657 0.250000
0.996657 0.996657 0.250000
0.003343 0.003343 0.500000
0.250000 0.003343 0.500000
0.500000 0.003343 0.500000
0.750000 0.003343 0.500000
0.996657 0.003343 0.500000
0.003343 0.250000 0.500000
0.250128 0.250174 0.500046
0.500000 0.250004 0.500001
0.750000 0.250000 0.500000
0.996657 0.250000 0.500000
0.003343 0.500000 0.500000
0.261399 0.503828 0.506666
0.510162 0.530920 0.548546
0.750000 0.500000 0.500000
0.996657 0.500000 0.500000
0.003343 0.750000 0.500000
0.250000 0.750000 0.500000
0.500378 0.749859 0.500714
0.750000 0.750000 0.500000
0.996657 0.750000 0.500000
0.003343 0.996657 0.500000
0.250000 0.996657 0.500000
0.500000 0.996657 0.500000
0.750000 0.996657 0.500000
0.996657 0.996657 0.500000
0.003343 0.003343 0.750000
0.250000 0.003343 0.750000
0.500000 0.003343 0.750000
0.750000 0.003343 0.750000
0.996657 0.003343 0.750000
0.003343 0.250000 0.750000
0.250000 0.250000 0.750000
0.500000 0.250000 0.750000
0.750000 0.250000 0.750000
0.996657 0.250000 0.750000
0.003343 0.500000 0.750000
0.250000 0.500000 0.750000
0.507160 0.519943 0.736172
0.749055 0.500793 0.749745
0.996657 0.500000 0.750000
0.003343 0.750000 0.750000
0.250000 0.750000 0.750000
0.522711 0.739667 0.749530
0.693599 0.729428 0.760015
0.996657 0.750000 0.750000
0.003343 0.996657 0.750000
0.250000 0.996657 0.750000
0.500000 0.996657 0.750000
0.750000 0.996656 0.750000
0.996657 0.996657 0.750000
0.003343 0.003343 0.996657
0.250000 0.003343 0.996657
0.500000 0.003343 0.996657
0.750000 0.003343 0.996657
0.996657 0.003343 0.996657
0.003343 0.250000 0.996657
0.250000 0.250000 0.996657
0.500000 0.250000 0.996657
0.750000 0.250000 0.996657
0.996657 0.250000 0.996657
0.003343 0.500000 0.996657
0.250000 0.500000 0.996657
0.500000 0.500000 0.996657
0.750000 0.500000 0.996657
0.996657 0.500000 0.996657
0.003343 0.750000 0.996657
0.250000 0.750000 0.996657
0.500000 0.750000 0.996657
0.748877 0.749539 0.994188
0.996657 0.750000 0.996657
0.003343 0.996657 0.996657
0.250000 0.996657 0.996657
0.500000 0.996657 0.996657
0.750000 0.996657 0.996657
0.996657 0.996657 0.996657
