Mimicamera/Resources/CuratedLUTs/pastel.cube
# Mimicamera generated LUT
TITLE "Pastel"
LUT_3D_SIZE 9
DOMAIN_MIN 0.0 0.0 0.0
DOMAIN_MAX 1.0 1.0 1.0
0.003343 0.003343 0.003343
0.125000 0.003343 0.003343
0.250000 0.003343 0.003343
0.375000 0.003343 0.003343
0.500000 0.003343 0.003343
0.625000 0.003343 0.003343
0.750000 0.003343 0.003343
0.875000 0.003343 0.003343
0.996657 0.003343 0.003343
0.003343 0.125000 0.003343
0.125000 0.125000 0.003343
0.250000 0.125000 0.003343
0.375000 0.125000 0.003343
0.500000 0.125000 0.003343
0.625000 0.125000 0.003343
0.750000 0.125000 0.003343
0.875000 0.125000 0.003343
0.996657 0.125000 0.003343
0.003343 0.250000 0.003343
0.125000 0.250000 0.003343
0.250000 0.250000 0.003343
0.375000 0.250000 0.003343
0.500000 0.250000 0.003343
0.625000 0.250000 0.003343
0.750000 0.250000 0.003343
0.875000 0.250000 0.003343
0.996657 0.250000 0.003343
0.003343 0.375000 0.003343
0.125000 0.375000 0.003343
0.250000 0.375000 0.003343
0.375000 0.375000 0.003343
0.500000 0.375000 0.003343
0.625000 0.375000 0.003343
0.750000 0.375000 0.003343
0.875000 0.375000 0.003343
0.996657 0.375000 0.003343
0.003343 0.500000 0.003343
0.125000 0.500000 0.003343
0.250000 0.500000 0.003343
0.375000 0.500000 0.003343
0.500000 0.500000 0.003343
0.625000 0.500000 0.003343
0.750000 0.500000 0.003343
0.875000 0.500000 0.003343
0.996657 0.500000 0.003343
0.003343 0.625000 0.003343
0.125000 0.625000 0.003343
0.250000 0.625000 0.003343
0.375000 0.625000 0.003343
0.500000 0.625000 0.003343
0.625000 0.625000 0.003343
0.750000 0.625000 0.003343
0.875000 0.625000 0.003343
0.996657 0.625000 0.003343
0.003343 0.750000 0.003343
0.125000 0.750000 0.003343
0.250000 0.750000 0.003343
0.375000 0.750000 0.003343
0.500000 0.750000 0.003343
0.625000 0.750000 0.003343
0.750000 0.750000 0.003343
0.875000 0.750000 0.003343
0.996657 0.750000 0.003343
0.003343 0.875000 0.003343
0.125000 0.875000 0.003343
0.250000 0.875000 0.003343
0.375000 0.875000 0.003343
0.500000 0.875000 0.003343
0.625000 0.875000 0.003343
0.750000 0.875000 0.003343
0.875000 0.875000 0.003343
0.996657 0.875000 0.003343
0.003343 0.996657 0.003343
0.125000 0.996657 0.003343
0.250000 0.996657 0.003343
0.375000 0.996657 0.003343
0.500000 0.996657 0.003343
0.625000 0.996657 0.003343
0.750000 0.996657 0.003343
0.875000 0.996657 0.003343
0.996657 0.996657 0.003343
0.003343 0.003343 0.125000
0.125000 0.003343 0.125000
0.250000 0.003343 0.125000
0.375000 0.003343 0.125000
0.500000 0.003343 0.125000
0.625000 0.003343 0.125000
0.750000 0.003343 0.125000
0.875000 0.003343 0.125000
0.996657 0.003343 0.125000
0.003343 0.125000 0.125000
0.125000 0.125000 0.125000
0.250000 0.125000 0.125000
0.375000 0.125000 0.125000
0.500000 0.125000 0.125000
0.625000 0.125000 0.125000
0.750000 0.125000 0.125000
0.875000 0.125000 0.125000
0.996657 0.125000 0.125000
0.003343 0.250000 0.125000
0.125000 0.250000 0.125000
0.250000 0.250000 0.125000
0.375000 0.250000 0.125000
0.500000 0.250000 0.125000
0.625000 0.250000 0.125000
0.750000 0.250000 0.125000
0.875000 0.250000 0.125000
0.996657 0.250000 0.125000
0.003343 0.375000 0.125000
0.125000 0.375000 0.125000
0.250000 0.375000 0.125000
0.375000 0.375000 0.125000
0.500000 0.375000 0.125000
0.625000 0.375000 0.125000
0.750000 0.375000 0.125000
0.875000 0.375000 0.125000
0.996657 0.375000 0.125000
0.003343 0.500000 0.125000
0.125000 0.500000 0.125000
0.250000 0.500000 0.125000
0.375000 0.500000 0.125000
0.500000 0.500000 0.125000
0.625000 0.500000 0.125000
0.750000 0.500000 0.125000
0.875000 0.500000 0.125000
0.996657 0.500000 0.125000
0.003343 0.625000 0.125000
0.125000 0.625000 0.125000
0.250000 0.625000 0.125000
0.375000 0.625000 0.125000
0.500000 0.625000 0.125000
0.625000 0.625000 0.125000
0.750000 0.625000 0.125000
0.875000 0.625000 0.125000
0.996657 0.625000 0.125000
0.003343 0.750000 0.125000
0.125000 0.750000 0.125000
0.250000 0.750000 0.125000
0.375000 0.750000 0.125000
0.500000 0.750000 0.125000
0.625000 0.750000 0.125000
0.750000 0.750000 0.125000
0.875000 0.750000 0.125000
0.996657 0.750000 0.125000
0.003343 0.875000 0.125000
0.125000 0.875000 0.125000
0.250000 0.875000 0.125000
0.375000 0.875000 0.125000
0.500000 0.875000 0.125000
0.625000 0.875000 0.125000
0.750000 0.875000 0.125000
0.875000 0.875000 0.125000
0.996657 0.875000 0.125000
0.003343 0.996657 0.125000
0.125000 0.996657 0.125000
0.250000 0.996657 0.125000
0.375000 0.996657 0.125000
0.500000 0.996657 0.125000
0.625000 0.996657 0.125000
0.750000 0.996657 0.125000
0.875000 0.996657 0.125000
0.996657 0.996657 0.125000
0.003343 0.003343 0.250000
0.125000 0.003343 0.250000
0.250000 0.003343 0.250000
0.375000 0.003343 0.250000
0.500000 0.003343 0.250000
0.625000 0.003343 0.250000
0.750000 0.003343 0.250000
0.875000 0.003343 0.250000
0.996657 0.003343 0.250000
0.003343 0.125000 0.250000
0.125000 0.125000 0.250000
0.250000 0.125000 0.250000
0.375000 0.125000 0.250000
0.500000 0.125000 0.250000
0.625000 0.125000 0.250000
0.750000 0.125000 0.250000
0.875000 0.125000 0.250000
0.996657 0.125000 0.250000
0.003343 0.250000 0.250000
0.125000 0.250000 0.250000
0.250000 0.250000 0.250000
0.375000 0.250000 0.250000
0.500000 0.250000 0.250000
0.625000 0.250000 0.250000
0.750000 0.250000 0.250000
0.875000 0.250000 0.250000
0.996657 0.250000 0.250000
0.003343 0.375000 0.250000
0.125000 0.375000 0.250000
0.250000 0.375000 0.250000
0.375000 0.375000 0.250000
0.500000 0.375000 0.250000
0.625000 0.375000 0.250000
0.750000 0.375000 0.250000
0.875000 0.375000 0.250000
0.996657 0.375000 0.250000
0.003343 0.500000 0.250000
0.125000 0.500000 0.250000
0.250000 0.500000 0.250000
0.375000 0.500000 0.250000
0.500000 0.500000 0.250000
0.625000 0.500000 0.250000
0.750000 0.500000 0.250000
0.875000 0.500000 0.250000
0.996657 0.500000 0.250000
0.003343 0.625000 0.250000
0.125000 0.625000 0.250000
0.250000 0.625000 0.250000
0.375000 0.625000 0.250000
0.500000 0.625000 0.250000
0.625000 0.625000 0.250000
0.750000 0.625000 0.250000
0.875000 0.625000 0.250000
0.996657 0.625000 0.250000
0.003343 0.750000 0.250000
0.125000 0.750000 0.250000
0.250000 0.750000 0.250000
0.375000 0.750000 0.250000
0.500000 0.750000 0.250000
0.625000 0.750000 0.250000
0.750000 0.750000 0.250000
0.875000 0.750000 0.250000
0.996657 0.750000 0.250000
0.003343 0.875000 0.250000
0.125000 0.875000 0.250000
0.250000 0.875000 0.250000
0.375000 0.875000 0.250000
0.500000 0.875000 0.250000
0.625000 0.875000 0.250000
0.750000 0.875000 0.250000
0.875000 0.875000 0.250000
0.996657 0.875000 0.250000
0.003343 0.996657 0.250000
0.125000 0.996657 0.250000
0.250000 0.996657 0.250000
0.375000 0.996657 0.250000
0.500000 0.996657 0.250000
0.625000 0.996657 0.250000
0.750000 0.996657 0.250000
0.875000 0.996657 0.250000
0.996657 0.996657 0.250000
0.003343 0.003343 0.375000
0.125000 0.003343 0.375000
0.250000 0.003343 0.375000
0.375000 0.003343 0.375000
0.500000 0.003343 0.375000
0.625000 0.003343 0.375000
0.750000 0.003343 0.375000
0.875000 0.003343 0.375000
0.996657 0.003343 0.375000
0.003343 0.125000 0.375000
0.125000 0.125000 0.375000
0.250000 0.125000 0.375000
0.375000 0.125000 0.375000
0.500000 0.125000 0.375000
0.625000 0.125000 0.375000
0.750000 0.125000 0.375000
0.875000 0.125000 0.375000
0.996657 0.125000 0.375000
0.003343 0.250000 0.375000
0.125000 0.250000 0.375000
0.250000 0.250000 0.375000
0.375000 0.250000 0.375000
0.500000 0.250000 0.375000
0.625000 0.250000 0.375000
0.750000 0.250000 0.375000
0.875000 0.250000 0.375000
0.996657 0.250000 0.375000
0.003343 0.375000 0.375000
0.125000 0.375000 0.375000
0.250000 0.375000 0.375000
0.375000 0.375000 0.375000
0.500000 0.375000 0.375000
0.625000 0.375000 0.375000
0.750000 0.375000 0.375000
0.875000 0.375000 0.375000
0.996657 0.375000 0.375000
0.003343 0.500000 0.375000
0.125000 0.500000 0.375000
0.250000 0.500000 0.375000
0.375000 0.500000 0.375000
0.500000 0.500000 0.375000
0.625000 0.500000 0.375000
0.750000 0.500000 0.375000
0.875000 0.500000 0.375000
0.996657 0.500000 0.375000
0.003343 0.625000 0.375000
0.125000 0.625000 0.375000
0.250000 0.625000 0.375000
0.375000 0.625000 0.375000
0.500000 0.625000 0.375000
0.625000 0.625000 0.375000
0.750000 0.625000 0.375000
0.875000 0.625000 0.375000
0.996657 0.625000 0.375000
0.003343 0.750000 0.375000
0.125000 0.750000 0.375000
0.250000 0.750000 0.375000
0.375000 0.750000 0.375000
0.500000 0.750000 0.375000
0.625000 0.750000 0.375000
0.750000 0.750000 0.375000
0.875000 0.750000 0.375000
0.996657 0.750000 0.375000
0.003343 0.875000 0.375000
0.125000 0.875000 0.375000
0.250000 0.875000 0.375000
0.375000 0.875000 0.375000
0.500000 0.875000 0.375000
0.625000 0.875000 0.375000
0.750000 0.875000 0.375000
0.875000 0.875000 0.375000
0.996657 0.875000 0.375000
0.003343 0.996657 0.375000
0.125000 0.996657 0.375000
0.250000 0.996657 0.375000
0.375000 0.996657 0.375000
0.500000 0.996657 0.375000
0.625000 0.996657 0.375000
0.750000 0.996657 0.375000
0.875000 0.996657 0.375000
0.996657 0.996657 0.375000
0.003343 0.003343 0.500000
0.125000 0.003343 0.500000
0.250000 0.003343 0.500000
0.375000 0.003343 0.500000
0.500000 0.003343 0.500000
0.625000 0.003343 0.500000
0.750000 0.003343 0.500000
0.875000 0.003343 0.500000
0.996657 0.003343 0.500000
0.003343 0.125000 0.500000
0.125000 0.125000 0.500000
0.250000 0.125000 0.500000
0.375000 0.125000 0.500000
0.500000 0.125000 0.500000
0.625000 0.125000 0.500000
0.750000 0.125000 0.500000
0.875000 0.125000 0.500000
0.996657 0.125000 0.500000
0.003343 0.250000 0.500000
0.125000 0.250000 0.500000
0.250000 0.250000 0.500000
0.375000 0.250000 0.500000
0.500000 0.250000 0.500000
0.625000 0.250000 0.500000
0.750000 0.250000 0.500000
0.875000 0.250000 0.500000
0.996657 0.250000 0.500000
0.003343 0.375000 0.500000
0.125000 0.375000 0.500000
0.250000 0.375000 0.500000
0.375000 0.375000 0.500000
0.500000 0.375000 0.500000
0.625000 0.375000 0.500000
0.750000 0.375000 0.500000
0.875000 0.375000 0.500000
0.996657 0.375000 0.500000
0.003343 0.500000 0.500000
0.125000 0.500000 0.500000
0.250000 0.500000 0.500000
0.375000 0.500000 0.500000
0.500000 0.500000 0.500000
0.625000 0.500000 0.500000
0.750000 0.500000 0.500000
0.875000 0.500000 0.500000
0.996657 0.500000 0.500000
0.003343 0.625000 0.500000
0.125000 0.625000 0.500000
0.250000 0.625000 0.500000
0.375000 0.625000 0.500000
0.500000 0.625000 0.500000
0.625000 0.625000 0.500000
0.750000 0.625000 0.500000
0.875000 0.625000 0.500000
0.996657 0.625000 0.500000
0.003343 0.750000 0.500000
0.125000 0.750000 0.500000
0.250000 0.750000 0.500000
0.375000 0.750000 0.500000
0.500000 0.750000 0.500000
0.625000 0.750000 0.500000
0.750000 0.750000 0.500000
0.875000 0.750000 0.500000
0.996657 0.750000 0.500000
0.003343 0.875000 0.500000
0.125000 0.875000 0.500000
0.250000 0.875000 0.500000
0.375000 0.875000 0.500000
0.500000 0.875000 0.500000
0.625000 0.875000 0.500000
0.750000 0.875000 0.500000
0.875000 0.875000 0.500000
0.996657 0.875000 0.500000
0.003343 0.996657 0.500000
0.125000 0.996657 0.500000
0.250000 0.996657 0.500000
0.375000 0.996657 0.500000
0.500000 0.996657 0.500000
0.625000 0.996657 0.500000
0.750000 0.996657 0.500000
0.875000 0.996657 0.500000
0.996657 0.996657 0.500000
0.003343 0.003343 0.625000
0.125000 0.003343 0.625000
0.250000 0.003343 0.625000
0.375000 0.003343 0.625000
0.500000 0.003343 0.625000
0.625000 0.003343 0.625000
0.750000 0.003343 0.625000
0.875000 0.003343 0.625000
0.996657 0.003343 0.625000
0.003343 0.125000 0.625000
0.125000 0.125000 0.625000
0.250000 0.125000 0.625000
0.375000 0.125000 0.625000
0.500000 0.125000 0.625000
0.625000 0.125000 0.625000
0.750000 0.125000 0.625000
0.875000 0.125000 0.625000
0.996657 0.125000 0.625000
0.003343 0.250000 0.625000
0.125000 0.250000 0.625000
0.250000 0.250000 0.625000
0.375000 0.250000 0.625000
0.500000 0.250000 0.625000
0.625000 0.250000 0.625000
0.750000 0.250000 0.625000
0.875000 0.250000 0.625000
0.996657 0.250000 0.625000
0.003343 0.375000 0.625000
0.125000 0.375000 0.625000
0.250000 0.375000 0.625000
0.375000 0.375000 0.625000
0.500000 0.375000 0.625000
0.625000 0.375000 0.625000
0.750000 0.375000 0.625000
0.875000 0.375000 0.625000
0.996657 0.375000 0.625000
0.003343 0.500000 0.625000
0.125000 0.500000 0.625000
0.250000 0.500000 0.625000
0.375000 0.500000 0.625000
0.500000 0.500000 0.625000
0.625000 0.500000 0.625000
0.750000 0.500000 0.625000
0.875000 0.500000 0.625000
0.996657 0.500000 0.625000
0.003343 0.625000 0.625000
0.125000 0.625000 0.625000
0.250000 0.625000 0.625000
0.375000 0.625000 0.625000
0.500000 0.625000 0.625000
0.625000 0.625000 0.625000
0.750000 0.625000 0.625000
0.875000 0.625000 0.625000
0.996657 0.625000 0.625000
0.003343 0.750000 0.625000
0.125000 0.750000 0.625000
0.250000 0.750000 0.625000
0.375000 0.750000 0.625000
0.500000 0.750000 0.625000
0.625000 0.750000 0.625000
0.750000 0.750000 0.625000
0.875000 0.750000 0.625000
0.996657 0.750000 0.625000
0.003343 0.875000 0.625000
0.125000 0.875000 0.625000
0.250000 0.875000 0.625000
0.375000 0.875000 0.625000
0.500000 0.875000 0.625000
0.625000 0.875000 0.625000
0.750000 0.875000 0.625000
0.875000 0.875000 0.625000
0.996657 0.875000 0.625000
0.003343 0.996657 0.625000
0.125000 0.996657 0.625000
0.250000 0.996657 0.625000
0.375000 0.996657 0.625000
0.500000 0.996657 0.625000
0.625000 0.996657 0.625000
0.750000 0.996657 0.625000
0.875000 0.996657 0.625000
0.996657 0.996657 0.625000
0.003343 0.003343 0.750000
0.125000 0.003343 0.750000
0.250000 0.003343 0.750000
0.375000 0.003343 0.750000
0.500000 0.003343 0.750000
0.625000 0.003343 0.750000
0.750000 0.003343 0.750000
0.875000 0.003343 0.750000
0.996657 0.003343 0.750000
0.003343 0.125000 0.750000
0.125000 0.125000 0.750000
0.250000 0.125000 0.750000
0.375000 0.125000 0.750000
0.500000 0.125000 0.750000
0.625000 0.125000 0.750000
0.750000 0.125000 0.750000
0.875000 0.125000 0.750000
0.996657 0.125000 0.750000
0.003343 0.250000 0.750000
0.125000 0.250000 0.750000
0.250000 0.250000 0.750000
0.375000 0.250000 0.750000
0.500000 0.250000 0.750000
0.625000 0.250000 0.750000
0.750000 0.250000 0.750000
0.875000 0.250000 0.750000
0.996657 0.250000 0.750000
0.003343 0.375000 0.750000
0.125000 0.375000 0.750000
0.250000 0.375000 0.750000
0.375000 0.375000 0.750000
0.500000 0.375000 0.750000
0.625000 0.375000 0.750000
0.750000 0.375000 0.750000
0.875000 0.375000 0.750000
0.996657 0.375000 0.750000
0.003343 0.500000 0.750000
0.125000 0.500000 0.750000
0.250000 0.500000 0.750000
0.375000 0.500000 0.750000
0.500000 0.500000 0.750000
0.625000 0.500000 0.750000
0.750000 0.500000 0.750000
0.875000 0.500000 0.750000
0.996657 0.500000 0.750000
0.003343 0.625000 0.750000
0.125000 0.625000 0.750000
0.250000 0.625000 0.750000
0.375000 0.625000 0.750000
0.500000 0.625000 0.750000
0.625000 0.625000 0.750000
0.750000 0.625000 0.750000
0.875000 0.625014 0.750012
0.996657 0.625000 0.750000
0.003343 0.750000 0.750000
0.125000 0.750000 0.750000
0.250000 0.750000 0.750000
0.375000 0.750000 0.750000
0.500000 0.750000 0.750000
0.625000 0.750000 0.750000
0.751505 0.751017 0.752297
0.874995 0.753857 0.758322
0.996422 0.750175 0.750366
0.003343 0.875000 0.750000
0.125000 0.875000 0.750000
0.250000 0.875000 0.750000
0.375000 0.875000 0.750000
0.500000 0.875000 0.750000
0.625000 0.875000 0.750000
0.751429 0.874613 0.751863
0.876142 0.873418 0.759422
0.996319 0.874927 0.750673
0.003343 0.996657 0.750000
0.125000 0.996657 0.750000
0.250000 0.996657 0.750000
0.375000 0.996657 0.750000
0.500000 0.996657 0.750000
0.625000 0.996657 0.750000
0.750000 0.996657 0.750000
0.875006 0.996638 0.750025
0.996657 0.996657 0.750000
0.003343 0.003343 0.875000
0.125000 0.003343 0.875000
0.250000 0.003343 0.875000
0.375000 0.003343 0.875000
0.500000 0.003343 0.875000
0.625000 0.003343 0.875000
0.750000 0.003343 0.875000
0.875000 0.003343 0.875000
0.996657 0.003343 0.875000
0.003343 0.125000 0.875000
0.125000 0.125000 0.875000
0.250000 0.125000 0.875000
0.375000 0.125000 0.875000
0.500000 0.125000 0.875000
0.625000 0.125000 0.875000
0.750000 0.125000 0.875000
0.875000 0.125000 0.875000
0.996657 0.125000 0.875000
0.003343 0.250000 0.875000
0.125000 0.250000 0.875000
0.250000 0.250000 0.875000
0.375000 0.250000 0.875000
0.500000 0.250000 0.875000
0.625000 0.250000 0.875000
0.750000 0.250000 0.875000
0.875000 0.250000 0.875000
0.996657 0.250000 0.875000
0.003343 0.375000 0.875000
0.125000 0.375000 0.875000
0.250000 0.375000 0.875000
0.375000 0.375000 0.875000
0.500000 0.375000 0.875000
0.625000 0.375000 0.875000
0.750000 0.375000 0.875000
0.875000 0.375000 0.875000
0.996657 0.375000 0.875000
0.003343 0.500000 0.875000
0.125000 0.500000 0.875000
0.250000 0.500000 0.875000
0.375000 0.500000 0.875000
0.500000 0.500000 0.875000
0.625000 0.500000 0.875000
0.750000 0.500000 0.875000
0.875000 0.500000 0.875000
0.996657 0.500000 0.875000
0.003343 0.625000 0.875000
0.125000 0.625000 0.875000
0.250000 0.625000 0.875000
0.375000 0.625000 0.875000
0.500000 0.625000 0.875000
0.625000 0.625000 0.875000
0.750378 0.625647 0.875188
0.875003 0.629925 0.876108
0.996581 0.625117 0.875037
0.003343 0.750000 0.875000
0.125000 0.750000 0.875000
0.250000 0.750000 0.875000
0.375000 0.750000 0.875000
0.500000 0.750000 0.875000
0.625103 0.750032 0.875021
0.772958 0.764935 0.884790
0.878696 0.793358 0.906461
0.981359 0.761097 0.882262
0.003343 0.875000 0.875000
0.125000 0.875000 0.875000
0.250000 0.875000 0.875000
0.375000 0.875000 0.875000
0.500000 0.875000 0.875000
0.625051 0.874992 0.875011
0.777503 0.868193 0.886129
0.883515 0.852895 0.912345
0.977605 0.870594 0.886996
0.003343 0.996657 0.875000
0.125000 0.996657 0.875000
0.250000 0.996657 0.875000
0.375000 0.996657 0.875000
0.500000 0.996657 0.875000
0.625000 0.996657 0.875000
0.750573 0.996134 0.875259
0.877790 0.989417 0.879104
0.995798 0.995133 0.875885
0.003343 0.003343 0.996657
0.125000 0.003343 0.996657
0.250000 0.003343 0.996657
0.375000 0.003343 0.996657
0.500000 0.003343 0.996657
0.625000 0.003343 0.996657
0.750000 0.003343 0.996657
0.875000 0.003343 0.996657
0.996657 0.003343 0.996657
0.003343 0.125000 0.996657
0.125000 0.125000 0.996657
0.250000 0.125000 0.996657
0.375000 0.125000 0.996657
0.500000 0.125000 0.996657
0.625000 0.125000 0.996657
0.750000 0.125000 0.996657
0.875000 0.125000 0.996657
0.996657 0.125000 0.996657
0.003343 0.250000 0.996657
0.125000 0.250000 0.996657
0.250000 0.250000 0.996657
0.375000 0.250000 0.996657
0.500000 0.250000 0.996657
0.625000 0.250000 0.996657
0.750000 0.250000 0.996657
0.875000 0.250000 0.996657
0.996657 0.250000 0.996657
0.003343 0.375000 0.996657
0.125000 0.375000 0.996657
0.250000 0.375000 0.996657
0.375000 0.375000 0.996657
0.500000 0.375000 0.996657
0.625000 0.375000 0.996657
0.750000 0.375000 0.996657
0.875000 0.375000 0.996657
0.996657 0.375000 0.996657
0.003343 0.500000 0.996657
0.125000 0.500000 0.996657
0.250000 0.500000 0.996657
0.375000 0.500000 0.996657
0.500000 0.500000 0.996657
0.625000 0.500000 0.996657
0.750000 0.500000 0.996657
0.875000 0.500000 0.996657
0.996657 0.500000 0.996657
0.003343 0.625000 0.996657
0.125000 0.625000 0.996657
0.250000 0.625000 0.996657
0.375000 0.625000 0.996657
0.500000 0.625000 0.996657
0.625000 0.625000 0.996657
0.750125 0.625188 0.996580
0.874914 0.627931 0.995563
0.996632 0.625044 0.996644
0.003343 0.750000 0.996657
0.125000 0.750000 0.996657
0.250000 0.750000 0.996657
0.375000 0.750000 0.996657
0.500000 0.750000 0.996657
0.625002 0.750001 0.996656
0.765831 0.759669 0.987669
0.877466 0.783242 0.969123
0.982968 0.759763 0.989070
0.003343 0.875000 0.996657
0.125000 0.875000 0.996657
0.250000 0.875000 0.996657
0.375000 0.875000 0.996657
0.500000 0.875000 0.996657
0.625002 0.875000 0.996656
0.769675 0.869569 0.988100
0.881437 0.858133 0.963663
0.978216 0.870287 0.984923
0.003343 0.996657 0.996657
0.125000 0.996657 0.996657
0.250000 0.996657 0.996657
0.375000 0.996657 0.996657
0.500000 0.996657 0.996657
0.625000 0.996657 0.996657
0.750343 0.996338 0.996512
0.877301 0.990090 0.993714
0.995901 0.995269 0.996083
