Mimicamera/Resources/CuratedLUTs/pastel.cube
# Mimicamera generated LUT
TITLE "Pastel"
LUT_3D_SIZE 5
DOMAIN_MIN 0.0 0.0 0.0
DOMAIN_MAX 1.0 1.0 1.0
0.003343 0.003343 0.003343
0.250000 0.003343 0.003343
0.500000 0.003343 0.003343
0.750000 0.003343 0.003343
0.996657 0.003343 0.003343
0.003343 0.250000 0.003343
0.250000 0.250000 0.003343
0.500000 0.250000 0.003343
0.750000 0.250000 0.003343
0.996657 0.250000 0.003343
0.003343 0.500000 0.003343
0.250000 0.500000 0.003343
0.500000 0.500000 0.003343
0.750000 0.500000 0.003343
0.996657 0.500000 0.003343
0.003343 0.750000 0.003343
0.250000 0.750000 0.003343
0.500000 0.750000 0.003343
0.750000 0.750000 0.003343
0.996657 0.750000 0.003343
0.003343 0.996657 0.003343
0.250000 0.996657 0.003343
0.500000 0.996657 0.003343
0.750000 0.996657 0.003343
0.996657 0.996657 0.003343
0.003343 0.003343 0.250000
0.250000 0.003343 0.250000
0.500000 0.003343 0.250000
0.750000 0.003343 0.250000
0.996657 0.003343 0.250000
0.003343 0.250000 0.250000
0.250000 0.250000 0.250000
0.500000 0.250000 0.250000
0.750000 0.250000 0.250000
0.996657 0.250000 0.250000
0.003343 0.500000 0.250000
0.250000 0.500000 0.250000
0.500000 0.500000 0.250000
0.750000 0.500000 0.250000
0.996657 0.500000 0.250000
0.003343 0.750000 0.250000
0.250000 0.750000 0.250000
0.500000 0.750000 0.250000
0.750000 0.750000 0.250000
0.996657 0.750000 0.250000
0.003343 0.996657 0.250000
0.250000 0.996657 0.250000
0.500000 0.996657 0.250000
0.750000 0.996657 0.250000
0.996657 0.996657 0.250000
0.003343 0.003343 0.500000
0.250000 0.003343 0.500000
0.500000 0.003343 0.500000
0.750000 0.003343 0.500000
0.996657 0.003343 0.500000
0.003343 0.250000 0.500000
0.250000 0.250000 0.500000
0.500000 0.250000 0.500000
0.750000 0.250000 0.500000
0.996657 0.250000 0.500000
0.003343 0.500000 0.500000
0.250000 0.500000 0.500000
0.500000 0.500000 0.500000
0.750000 0.500000 0.500000
0.996657 0.500000 0.500000
0.003343 0.750000 0.500000
0.250000 0.750000 0.500000
0.500000 0.750000 0.500000
0.750000 0.750000 0.500000
0.996657 0.750000 0.500000
0.003343 0.996657 0.500000
0.250000 0.996657 0.500000
0.500000 0.996657 0.500000
0.750000 0.996657 0.500000
0.996657 0.996657 0.500000
0.003343 0.003343 0.750000
0.250000 0.003343 0.750000
0.500000 0.003343 0.750000
0.750000 0.003343 0.750000
0.996657 0.003343 0.750000
0.003343 0.250000 0.750000
0.250000 0.250000 0.750000
0.500000 0.250000 0.750000
0.750000 0.250000 0.750000
0.996657 0.250000 0.750000
0.003343 0.500000 0.750000
0.250000 0.500000 0.750000
0.500000 0.500000 0.750000
0.750000 0.500000 0.750000
0.996657 0.500000 0.750000
0.003343 0.750000 0.750000
0.250000 0.750000 0.750000
0.500000 0.750000 0.750000
0.751505 0.751017 0.752297
0.996422 0.750175 0.750366
0.003343 0.996657 0.750000
0.250000 0.996657 0.750000
0.500000 0.996657 0.750000
0.750000 0.996657 0.750000
0.996657 0.996657 0.750000
0.003343 0.003343 0.996657
0.250000 0.003343 0.996657
0.500000 0.003343 0.996657
0.750000 0.003343 0.996657
0.996657 0.003343 0.996657
0.003343 0.250000 0.996657
0.250000 0.250000 0.996657
0.500000 0.250000 0.996657
0.750000 0.250000 0.996657
0.996657 0.250000 0.996657
0.003343 0.500000 0.996657
0.250000 0.500000 0.996657
0.500000 0.500000 0.996657
0.750000 0.500000 0.996657
0.996657 0.500000 0.996657
0.003343 0.750000 0.996657
0.250000 0.750000 0.996657
0.500000 0.750000 0.996657
0.765831 0.759669 0.987669
0.982968 0.759763 0.989070
0.003343 0.996657 0.996657
0.250000 0.996657 0.996657
0.500000 0.996657 0.996657
0.750343 0.996338 0.996512
0.995901 0.995269 0.996083
