Mimicamera/Resources/CuratedLUTs/teal-orange.cube
# Mimicamera generated LUT
TITLE "Teal & Orange"
LUT_3D_SIZE 9
DOMAIN_MIN 0.0 0.0 0.0
DOMAIN_MAX 1.0 1.0 1.0
0.000000 0.000000 0.023861
0.052606 0.000000 0.021153
0.205277 0.000000 0.017320
0.459895 0.000000 0.013660
0.732470 0.000000 0.010165
0.915159 0.000000 0.006830
1.000000 0.000000 0.003647
1.000000 0.000000 0.000612
1.000000 0.000000 0.000000
0.000000 0.043687 0.015174
0.041170 0.040388 0.012733
0.181848 0.035710 0.009281
0.426699 0.031236 0.005986
0.704059 0.026956 0.002842
0.899483 0.022865 0.000000
0.995893 0.018956 0.000000
1.000000 0.015222 0.000000
1.000000 0.014219 0.000000
0.000000 0.133398 0.005949
0.028951 0.127726 0.003797
0.155978 0.119630 0.000755
0.387874 0.111822 0.000000
0.668585 0.104298 0.000000
0.878980 0.097052 0.000000
0.986915 0.090079 0.000000
1.000000 0.083372 0.000000
1.000000 0.081564 0.000000
0.000000 0.276058 0.000000
0.018122 0.267651 0.000000
0.132289 0.255517 0.000000
0.350148 0.243663 0.000000
0.631546 0.232094 0.000000
0.856387 0.220817 0.000000
0.976743 0.209836 0.000000
1.000000 0.199154 0.000000
1.000000 0.196253 0.000000
0.000000 0.464853 0.000000
0.008550 0.454813 0.000000
0.110730 0.440103 0.000000
0.313841 0.425477 0.000000
0.593240 0.410954 0.000000
0.831635 0.396554 0.000000
0.965250 0.382295 0.000000
1.000000 0.368195 0.000000
1.000000 0.364326 0.000000
0.000000 0.662082 0.000000
0.000111 0.652792 0.000000
0.091216 0.638964 0.000000
0.279224 0.624952 0.000000
0.554008 0.610773 0.000000
0.804689 0.596443 0.000000
0.952302 0.581980 0.000000
1.000000 0.567405 0.000000
1.000000 0.563357 0.000000
0.000000 0.823208 0.000000
0.000000 0.816429 0.000000
0.073643 0.806204 0.000000
0.246509 0.795676 0.000000
0.514230 0.784848 0.000000
0.775556 0.773722 0.000000
0.937763 0.762302 0.000000
1.000000 0.750593 0.000000
1.000000 0.747306 0.000000
0.000000 0.930427 0.000000
0.000000 0.926277 0.000000
0.057888 0.919963 0.000000
0.215850 0.913391 0.000000
0.474307 0.906556 0.000000
0.744294 0.899450 0.000000
0.921499 0.892069 0.000000
1.000000 0.884407 0.000000
1.000000 0.882238 0.000000
0.000000 0.992385 0.000000
0.000000 0.990108 0.000000
0.043820 0.986626 0.000000
0.187343 0.982979 0.000000
0.434645 0.979161 0.000000
0.711015 0.975164 0.000000
0.903380 0.970982 0.000000
0.997573 0.966608 0.000000
1.000000 0.965364 0.000000
0.000000 0.000000 0.115343
0.051191 0.000000 0.110109
0.202418 0.000000 0.102647
0.455938 0.000000 0.095463
0.729171 0.000000 0.088550
0.913371 0.000000 0.081903
1.000000 0.000000 0.075515
1.000000 0.000000 0.069381
1.000000 0.000000 0.067728
0.000000 0.042375 0.098442
0.039887 0.039114 0.093635
0.179172 0.034491 0.086792
0.422792 0.030069 0.080213
0.700603 0.025841 0.073892
0.897531 0.021799 0.067822
0.995048 0.017938 0.061998
1.000000 0.014249 0.056411
1.000000 0.013259 0.054907
0.000000 0.131146 0.080141
0.027812 0.125527 0.075817
0.153521 0.117509 0.069670
0.384061 0.109778 0.063770
0.664961 0.102328 0.058111
0.876824 0.095156 0.052684
0.985957 0.088255 0.047484
1.000000 0.081619 0.042504
1.000000 0.079830 0.041164
0.000000 0.272728 0.063705
0.017114 0.264371 0.059833
0.130047 0.252311 0.054335
0.346462 0.240533 0.049066
0.627782 0.229042 0.044019
0.854019 0.217844 0.039186
0.975660 0.206942 0.034560
1.000000 0.196341 0.030135
1.000000 0.193463 0.028946
0.000000 0.460892 0.049008
0.007660 0.450862 0.045554
0.108696 0.436173 0.040655
0.310313 0.421572 0.035967
0.589367 0.407081 0.031480
0.829049 0.392716 0.027190
0.964028 0.378498 0.023089
1.000000 0.364444 0.019170
1.000000 0.360589 0.018117
0.000000 0.658430 0.035915
0.000000 0.649104 0.032844
0.089381 0.635225 0.028494
0.275877 0.621167 0.024335
0.550063 0.606945 0.020361
0.801884 0.592578 0.016563
0.950928 0.578083 0.012937
1.000000 0.563480 0.009475
1.000000 0.559426 0.008546
0.000000 0.820552 0.024290
0.000000 0.813717 0.021569
0.071994 0.803411 0.017717
0.243361 0.792803 0.014039
0.510253 0.781894 0.010527
0.772536 0.770689 0.007175
0.936223 0.759191 0.003977
1.000000 0.747406 0.000926
1.000000 0.744097 0.000107
0.000000 0.928804 0.013998
0.000000 0.924609 0.011594
0.056413 0.918227 0.008193
0.212913 0.911585 0.004948
0.470337 0.904677 0.001852
0.741067 0.897498 0.000000
0.919779 0.890042 0.000000
1.000000 0.882304 0.000000
1.000000 0.880114 0.000000
0.000000 0.991496 0.004912
0.000000 0.989191 0.002793
0.042506 0.985665 0.000000
0.184623 0.981973 0.000000
0.430724 0.978107 0.000000
0.707595 0.974061 0.000000
0.901469 0.969828 0.000000
0.996750 0.965402 0.000000
1.000000 0.964143 0.000000
0.000000 0.000000 0.268580
0.049844 0.000000 0.260284
0.199685 0.000000 0.248319
0.452133 0.000000 0.236636
0.725977 0.000000 0.225243
0.911632 0.000000 0.214144
1.000000 0.000000 0.203344
1.000000 0.000000 0.192844
1.000000 0.000000 0.189994
0.000000 0.041125 0.241500
0.038665 0.037901 0.233639
0.176617 0.033331 0.222322
0.419037 0.028960 0.211300
0.697258 0.024780 0.200578
0.895634 0.020786 0.190157
0.994225 0.016969 0.180039
1.000000 0.013325 0.170225
1.000000 0.012346 0.167564
0.000000 0.128997 0.211178
0.026729 0.123430 0.203856
0.151175 0.115486 0.193342
0.380400 0.107828 0.183130
0.661457 0.100451 0.173222
0.874729 0.093349 0.163618
0.985023 0.086517 0.154316
1.000000 0.079948 0.145316
1.000000 0.078178 0.142880
0.000000 0.269541 0.183017
0.016155 0.261231 0.176249
0.127908 0.249244 0.166551
0.342928 0.237539 0.157156
0.624146 0.226123 0.148063
0.851718 0.215001 0.139269
0.974604 0.204177 0.130773
1.000000 0.193653 0.122570
1.000000 0.190797 0.120353
0.000000 0.457081 0.157052
0.006815 0.447063 0.150838
0.106756 0.432394 0.141952
0.306932 0.417820 0.133365
0.585630 0.403360 0.125072
0.826539 0.389031 0.117070
0.962837 0.374854 0.109354
1.000000 0.360844 0.101920
1.000000 0.357002 0.099914
0.000000 0.654901 0.133270
0.000000 0.645539 0.127601
0.087631 0.631613 0.119509
0.272672 0.617510 0.111706
0.546260 0.603249 0.104186
0.799163 0.588847 0.096944
0.949589 0.574323 0.089975
1.000000 0.559695 0.083272
1.000000 0.555635 0.081465
0.000000 0.817974 0.111620
0.000000 0.811086 0.106478
0.070423 0.800702 0.099150
0.240349 0.790016 0.092098
0.506422 0.779030 0.085313
0.769608 0.767749 0.078792
0.934723 0.756176 0.072527
1.000000 0.744318 0.066512
1.000000 0.740989 0.064892
0.000000 0.927226 0.092020
0.000000 0.922986 0.087380
0.055009 0.916537 0.080778
0.210105 0.909827 0.074435
0.466518 0.902850 0.068343
0.737941 0.895600 0.062497
0.918106 0.888072 0.056890
1.000000 0.880260 0.051514
1.000000 0.878050 0.050068
0.000000 0.990629 0.074365
0.000000 0.988296 0.070197
0.041255 0.984728 0.064276
0.182024 0.980992 0.058596
0.426955 0.977080 0.053150
0.704285 0.972987 0.047930
0.899610 0.968704 0.042931
0.995948 0.964227 0.038144
1.000000 0.962953 0.036857
0.000000 0.000000 0.475316
0.048538 0.000000 0.465252
0.197027 0.000000 0.450495
0.448409 0.000000 0.435808
0.722830 0.000000 0.421210
0.909911 0.000000 0.406721
1.000000 0.000000 0.392360
1.000000 0.000000 0.378146
1.000000 0.000000 0.374244
0.000000 0.039915 0.441957
0.037482 0.036726 0.431993
0.174133 0.032207 0.417422
0.415366 0.027885 0.402965
0.693965 0.023753 0.388641
0.893757 0.019804 0.374467
0.993409 0.016032 0.360463
1.000000 0.012429 0.346643
1.000000 0.011462 0.342856
0.000000 0.126911 0.402803
0.025679 0.121393 0.393048
0.148897 0.113522 0.378826
0.376824 0.105936 0.364768
0.658011 0.098629 0.350889
0.872657 0.091596 0.337206
0.984098 0.084831 0.323734
1.000000 0.078328 0.310486
1.000000 0.076576 0.306864
0.000000 0.266436 0.364610
0.015227 0.258173 0.355154
0.125832 0.246256 0.341409
0.339478 0.234624 0.327870
0.620572 0.223282 0.314551
0.849445 0.212235 0.301466
0.973558 0.201487 0.288625
1.000000 0.191040 0.276041
1.000000 0.188205 0.272607
0.000000 0.453351 0.327719
0.005996 0.443345 0.318639
0.104874 0.428699 0.305480
0.303635 0.414152 0.292563
0.581961 0.399723 0.279898
0.824060 0.385431 0.267496
0.961657 0.371294 0.255366
1.000000 0.357330 0.243515
1.000000 0.353501 0.240288
0.000000 0.651430 0.292419
0.000000 0.642035 0.283781
0.085934 0.628062 0.271297
0.269549 0.613918 0.259082
0.542530 0.599620 0.247144
0.796478 0.585185 0.235490
0.948263 0.570633 0.224126
1.000000 0.555982 0.213057
1.000000 0.551916 0.210048
0.000000 0.815429 0.258946
0.000000 0.808488 0.250800
0.068900 0.798028 0.239057
0.237417 0.787265 0.227603
0.502669 0.776205 0.216443
0.766721 0.764849 0.205579
0.933238 0.753204 0.195016
1.000000 0.741274 0.184756
1.000000 0.737926 0.181972
0.000000 0.925662 0.227476
0.000000 0.921380 0.219857
0.053647 0.914865 0.208901
0.207373 0.908088 0.198245
0.462780 0.901043 0.187891
0.734861 0.893723 0.177840
0.916449 0.886124 0.168093
1.000000 0.878239 0.158650
1.000000 0.876008 0.156092
0.000000 0.989770 0.198127
0.000000 0.987409 0.191056
0.040043 0.983799 0.180911
0.179498 0.980019 0.171070
0.423269 0.976062 0.161533
0.701026 0.971922 0.152298
0.897771 0.967591 0.143364
0.995152 0.963062 0.134729
1.000000 0.961775 0.132393
0.000000 0.000000 0.686292
0.047265 0.000000 0.677270
0.194426 0.000000 0.663814
0.444742 0.000000 0.650146
0.719710 0.000000 0.636282
0.908197 0.000000 0.622237
0.999638 0.000000 0.608027
1.000000 0.000000 0.593670
1.000000 0.000000 0.589676
0.000000 0.038734 0.655903
0.036328 0.035580 0.646551
0.171702 0.031111 0.632638
0.411754 0.026837 0.618548
0.690704 0.022751 0.604298
0.891888 0.018847 0.589906
0.992595 0.015118 0.575390
1.000000 0.011557 0.560769
1.000000 0.010601 0.556710
0.000000 0.124872 0.618389
0.024656 0.119404 0.608714
0.146670 0.111604 0.594364
0.373308 0.104088 0.579884
0.654600 0.096850 0.565293
0.870597 0.089884 0.550612
0.983175 0.083185 0.535859
1.000000 0.076747 0.521057
1.000000 0.075012 0.516957
0.000000 0.263391 0.579720
0.014322 0.255176 0.569809
0.123803 0.243329 0.555153
0.336090 0.231769 0.540421
0.617039 0.220500 0.525631
0.847185 0.209527 0.510805
0.972514 0.198854 0.495965
1.000000 0.188482 0.481129
1.000000 0.185668 0.477031
0.000000 0.449678 0.540254
0.005198 0.439685 0.530202
0.103036 0.425062 0.515386
0.300400 0.410542 0.500547
0.578336 0.396146 0.485708
0.821597 0.381891 0.470889
0.960481 0.367796 0.456111
1.000000 0.353877 0.441395
1.000000 0.350061 0.437339
0.000000 0.647995 0.500380
0.000000 0.638568 0.490288
0.084278 0.624551 0.475461
0.266488 0.610367 0.460668
0.538849 0.596033 0.445931
0.793812 0.581567 0.431269
0.946941 0.566988 0.416702
1.000000 0.552316 0.402251
1.000000 0.548245 0.398278
0.000000 0.812900 0.460502
0.000000 0.805908 0.450474
0.067414 0.795372 0.435786
0.234544 0.784535 0.421188
0.498968 0.773401 0.406700
0.763856 0.761973 0.392339
0.931759 0.750256 0.378125
1.000000 0.738256 0.364075
1.000000 0.734889 0.360221
0.000000 0.924106 0.421025
0.000000 0.919780 0.411160
0.052320 0.913200 0.396758
0.204699 0.906357 0.382497
0.459097 0.899244 0.368395
0.731807 0.891855 0.354468
0.914800 0.884184 0.340733
1.000000 0.876229 0.327205
1.000000 0.873978 0.323502
0.000000 0.988913 0.382337
0.000000 0.986525 0.372731
0.038861 0.982873 0.358748
0.177027 0.979050 0.344952
0.419641 0.975047 0.331358
0.697798 0.970860 0.317981
0.895940 0.966480 0.304834
0.994358 0.961902 0.291929
1.000000 0.960600 0.288405
0.000000 0.000000 0.849181
0.046019 0.000000 0.842968
0.191872 0.000000 0.833577
0.441120 0.000000 0.823883
0.716609 0.000000 0.813885
0.906486 0.000000 0.803584
0.998906 0.000000 0.792980
1.000000 0.000000 0.782077
1.000000 0.000000 0.779009
0.000000 0.037579 0.827985
0.035199 0.034459 0.821306
0.169317 0.030039 0.811229
0.408189 0.025812 0.800849
0.687463 0.021772 0.790167
0.890023 0.017911 0.779186
0.991780 0.014224 0.767909
1.000000 0.010704 0.756340
1.000000 0.009759 0.753091
0.000000 0.122873 0.800730
0.023655 0.117454 0.793497
0.144485 0.109724 0.782608
0.369842 0.102277 0.771422
0.651214 0.095107 0.759943
0.868541 0.088207 0.748176
0.982252 0.081573 0.736128
1.000000 0.075199 0.723805
1.000000 0.073481 0.720351
0.000000 0.260397 0.771294
0.013438 0.252228 0.763518
0.121814 0.240451 0.751839
0.332751 0.228962 0.739877
0.613535 0.217766 0.727639
0.844932 0.206867 0.715132
0.971471 0.196268 0.702366
1.000000 0.185971 0.689352
1.000000 0.183177 0.685711
0.000000 0.446050 0.739741
0.004418 0.436070 0.731446
0.101235 0.421470 0.719021
0.297215 0.406979 0.706335
0.574745 0.392616 0.693396
0.819142 0.378399 0.680217
0.959305 0.364346 0.666810
1.000000 0.350473 0.653188
1.000000 0.346671 0.649385
0.000000 0.644586 0.706190
0.000000 0.635127 0.697417
0.082655 0.621067 0.684311
0.263476 0.606845 0.670973
0.535205 0.592476 0.657415
0.791156 0.577981 0.643653
0.945620 0.563377 0.629702
1.000000 0.548686 0.615577
1.000000 0.544610 0.611643
0.000000 0.810380 0.670821
0.000000 0.803338 0.661624
0.065959 0.792727 0.647923
0.231720 0.781817 0.634029
0.495307 0.770610 0.619955
0.761005 0.759110 0.605720
0.930281 0.747322 0.591341
1.000000 0.735254 0.576837
1.000000 0.731869 0.572806
0.000000 0.922550 0.633871
0.000000 0.918181 0.624319
0.051020 0.911537 0.610132
0.202072 0.904628 0.595795
0.455458 0.897447 0.581327
0.728769 0.889989 0.566747
0.913153 0.882249 0.552074
1.000000 0.874222 0.537328
1.000000 0.871951 0.533240
0.000000 0.988056 0.595633
0.000000 0.985640 0.585807
0.037705 0.981946 0.571260
0.174601 0.978079 0.556613
0.416060 0.974032 0.541887
0.694589 0.969798 0.527102
0.894113 0.965370 0.512279
0.993564 0.960741 0.497439
1.000000 0.959425 0.493335
0.000000 0.000000 0.950342
0.044797 0.000000 0.946766
0.189358 0.000000 0.941316
0.437535 0.000000 0.935632
0.713519 0.000000 0.929707
0.904774 0.000000 0.923534
0.998172 0.000000 0.917108
1.000000 0.000000 0.910421
1.000000 0.000000 0.908525
0.000000 0.036447 0.938044
0.034092 0.033361 0.934111
0.166971 0.028988 0.928122
0.404663 0.024807 0.921884
0.684237 0.020812 0.915390
0.888158 0.016994 0.908634
0.990963 0.013348 0.901610
1.000000 0.009868 0.894313
1.000000 0.008934 0.892245
0.000000 0.120910 0.921812
0.022674 0.115538 0.917423
0.142337 0.107878 0.910749
0.366416 0.100499 0.903808
0.647846 0.093395 0.896595
0.866485 0.086561 0.889105
0.981326 0.079991 0.881332
1.000000 0.073679 0.873271
1.000000 0.071978 0.870991
0.000000 0.257445 0.903728
0.012571 0.249323 0.898852
0.119859 0.237616 0.891447
0.329455 0.226198 0.883762
0.610052 0.215074 0.875791
0.842680 0.204248 0.867529
0.970425 0.193723 0.858972
1.000000 0.183500 0.850118
1.000000 0.180727 0.847617
0.000000 0.442458 0.883674
0.003654 0.432492 0.878283
0.099467 0.417917 0.870111
0.294073 0.403456 0.861646
0.571178 0.389127 0.852884
0.816691 0.374948 0.843823
0.958127 0.360937 0.834460
1.000000 0.347111 0.824794
1.000000 0.343322 0.822067
0.000000 0.641196 0.861549
0.000000 0.631706 0.855621
0.081063 0.617605 0.846652
0.260508 0.603345 0.837383
0.531590 0.588944 0.827810
0.788506 0.574420 0.817935
0.944298 0.559793 0.807755
1.000000 0.545083 0.797273
1.000000 0.541003 0.794321
0.000000 0.807865 0.837277
0.000000 0.800772 0.830798
0.064532 0.790088 0.821016
0.228938 0.779105 0.810930
0.491680 0.767825 0.800541
0.758161 0.756255 0.789851
0.928801 0.744398 0.778861
1.000000 0.732262 0.767575
1.000000 0.728858 0.764403
0.000000 0.920993 0.810815
0.000000 0.916581 0.803781
0.049746 0.909873 0.793184
0.199486 0.902898 0.782286
0.451855 0.895650 0.771091
0.725742 0.888123 0.759603
0.911504 0.880314 0.747828
1.000000 0.872216 0.735772
1.000000 0.869925 0.732389
0.000000 0.987196 0.782161
0.000000 0.984753 0.774579
0.036571 0.981017 0.763181
0.172215 0.977107 0.751494
0.412517 0.973014 0.739524
0.691395 0.968734 0.727277
0.892285 0.964257 0.714763
0.992768 0.959579 0.701990
1.000000 0.958248 0.698413
0.000000 0.000000 1.000000
0.043596 0.000000 1.000000
0.186881 0.000000 1.000000
0.433981 0.000000 0.997418
0.710437 0.000000 0.994288
0.903058 0.000000 0.991006
0.997434 0.000000 0.987567
1.000000 0.000000 0.983964
1.000000 0.000000 0.982938
0.000000 0.035335 0.998688
0.033006 0.032282 0.996617
0.164661 0.027956 0.993447
0.401170 0.023821 0.990125
0.681022 0.019869 0.986644
0.886290 0.016094 0.982998
0.990142 0.012489 0.979180
1.000000 0.009047 0.975184
1.000000 0.008124 0.974046
0.000000 0.118978 0.990086
0.021711 0.113653 0.987736
0.140223 0.106062 0.984141
0.363026 0.098750 0.980377
0.644492 0.091713 0.976437
0.864427 0.084943 0.972314
0.980397 0.078436 0.968001
1.000000 0.072186 0.963491
1.000000 0.070502 0.962208
0.000000 0.254532 0.980334
0.011720 0.246456 0.977673
0.117937 0.234819 0.973607
0.326196 0.223472 0.969353
0.606587 0.212420 0.964905
0.840427 0.201667 0.960255
0.969376 0.191215 0.955397
1.000000 0.181065 0.950324
1.000000 0.178312 0.948882
0.000000 0.438897 0.969304
0.002904 0.428946 0.966299
0.097728 0.414397 0.961713
0.290969 0.399966 0.956920
0.567633 0.385672 0.951914
0.814240 0.371533 0.946687
0.956945 0.357565 0.941234
1.000000 0.343786 0.935546
1.000000 0.340011 0.933931
0.000000 0.637819 0.956865
0.000000 0.628300 0.953482
0.079498 0.614159 0.948325
0.257577 0.599863 0.942942
0.527999 0.585431 0.937328
0.785858 0.570880 0.931474
0.942971 0.556231 0.925375
1.000000 0.541503 0.919024
1.000000 0.537420 0.917223
0.000000 0.805350 0.942880
0.000000 0.798207 0.939086
0.063129 0.787450 0.933307
0.226195 0.776395 0.927285
0.488080 0.765045 0.921012
0.755321 0.753404 0.914483
0.927317 0.741479 0.907691
1.000000 0.729277 0.900630
1.000000 0.725855 0.898629
0.000000 0.919433 0.927216
0.000000 0.914978 0.922976
0.048494 0.908205 0.916527
0.196937 0.901165 0.909816
0.448282 0.893849 0.902839
0.722722 0.886255 0.895589
0.909852 0.878375 0.888060
1.000000 0.870207 0.880248
1.000000 0.867896 0.878037
0.000000 0.986333 0.909739
0.000000 0.983862 0.905022
0.035458 0.980085 0.897857
0.169864 0.976131 0.890414
0.409008 0.971993 0.882690
0.688210 0.967666 0.874679
0.890454 0.963141 0.866377
0.991968 0.958412 0.857780
1.000000 0.957067 0.855351
0.000000 0.000000 1.000000
0.042416 0.000000 1.000000
0.184437 0.000000 1.000000
0.430456 0.000000 1.000000
0.707360 0.000000 1.000000
0.901337 0.000000 1.000000
0.996693 0.000000 1.000000
1.000000 0.000000 1.000000
1.000000 0.000000 1.000000
0.000000 0.034242 1.000000
0.031937 0.031221 1.000000
0.162383 0.026942 1.000000
0.397708 0.022852 1.000000
0.677813 0.018943 1.000000
0.884417 0.015210 1.000000
0.989318 0.011645 1.000000
1.000000 0.008242 1.000000
1.000000 0.007328 1.000000
0.000000 0.117075 1.000000
0.020765 0.111798 1.000000
0.138140 0.104274 1.000000
0.359669 0.097029 1.000000
0.641148 0.090056 1.000000
0.862366 0.083351 1.000000
0.979464 0.076906 1.000000
1.000000 0.070716 1.000000
1.000000 0.069049 1.000000
0.000000 0.251654 1.000000
0.010884 0.243625 1.000000
0.116043 0.232057 1.000000
0.322972 0.220781 1.000000
0.603135 0.209800 1.000000
0.838171 0.199119 1.000000
0.968322 0.188740 1.000000
1.000000 0.178664 1.000000
1.000000 0.175931 1.000000
0.000000 0.435365 1.000000
0.002167 0.425429 1.000000
0.096016 0.410907 1.000000
0.287900 0.396507 1.000000
0.564105 0.382249 1.000000
0.811787 0.368149 1.000000
0.955758 0.354226 1.000000
1.000000 0.340494 0.997091
1.000000 0.336733 0.996236
0.000000 0.634454 1.000000
0.000000 0.624906 1.000000
0.077957 0.610726 1.000000
0.254682 0.596396 1.000000
0.524429 0.581933 0.998033
0.783210 0.567357 0.994932
0.941639 0.552687 0.991681
1.000000 0.537944 0.988274
1.000000 0.533856 0.987303
0.000000 0.802834 1.000000
0.000000 0.795642 0.998961
0.061750 0.784813 0.995905
0.223486 0.773686 0.992701
0.484504 0.762265 0.989343
0.752484 0.750555 0.985825
0.925828 0.738562 0.982140
1.000000 0.726294 0.978282
1.000000 0.722854 0.977183
0.000000 0.917867 0.992664
0.000000 0.913369 0.990396
0.047263 0.906533 0.986928
0.194423 0.899426 0.983296
0.444737 0.892044 0.979492
0.719706 0.884381 0.975510
0.908195 0.876433 0.971344
0.999637 0.868194 0.966987
1.000000 0.865864 0.965747
0.000000 0.985466 0.983254
0.000000 0.982967 0.980685
0.034363 0.979148 0.976759
0.167546 0.975150 0.972650
0.405529 0.970968 0.968353
0.685032 0.966593 0.963859
0.888618 0.962020 0.959163
0.991164 0.957241 0.954256
1.000000 0.955882 0.952861
