Mimicamera/Resources/CuratedLUTs/teal-orange.cube
# Mimicamera generated LUT
TITLE "Teal & Orange"
LUT_3D_SIZE 5
DOMAIN_MIN 0.0 0.0 0.0
DOMAIN_MAX 1.0 1.0 1.0
0.000000 0.000000 0.023861
0.205277 0.000000 0.017320
0.732470 0.000000 0.010165
1.000000 0.000000 0.003647
1.000000 0.000000 0.000000
0.000000 0.133398 0.005949
0.155978 0.119630 0.000755
0.668585 0.104298 0.000000
0.986915 0.090079 0.000000
1.000000 0.081564 0.000000
0.000000 0.464853 0.000000
0.110730 0.440103 0.000000
0.593240 0.410954 0.000000
0.965250 0.382295 0.000000
1.000000 0.364326 0.000000
0.000000 0.823208 0.000000
0.073643 0.806204 0.000000
0.514230 0.784848 0.000000
0.937763 0.762302 0.000000
1.000000 0.747306 0.000000
0.000000 0.992385 0.000000
0.043820 0.986626 0.000000
0.434645 0.979161 0.000000
0.903380 0.970982 0.000000
1.000000 0.965364 0.000000
0.000000 0.000000 0.268580
0.199685 0.000000 0.248319
0.725977 0.000000 0.225243
1.000000 0.000000 0.203344
1.000000 0.000000 0.189994
0.000000 0.128997 0.211178
0.151175 0.115486 0.193342
0.661457 0.100451 0.173222
0.985023 0.086517 0.154316
1.000000 0.078178 0.142880
0.000000 0.457081 0.157052
0.106756 0.432394 0.141952
0.585630 0.403360 0.125072
0.962837 0.374854 0.109354
1.000000 0.357002 0.099914
0.000000 0.817974 0.111620
0.070423 0.800702 0.099150
0.506422 0.779030 0.085313
0.934723 0.756176 0.072527
1.000000 0.740989 0.064892
0.000000 0.990629 0.074365
0.041255 0.984728 0.064276
0.426955 0.977080 0.053150
0.899610 0.968704 0.042931
1.000000 0.962953 0.036857
0.000000 0.000000 0.686292
0.194426 0.000000 0.663814
0.719710 0.000000 0.636282
0.999638 0.000000 0.608027
1.000000 0.000000 0.589676
0.000000 0.124872 0.618389
0.146670 0.111604 0.594364
0.654600 0.096850 0.565293
0.983175 0.083185 0.535859
1.000000 0.075012 0.516957
0.000000 0.449678 0.540254
0.103036 0.425062 0.515386
0.578336 0.396146 0.485708
0.960481 0.367796 0.456111
1.000000 0.350061 0.437339
0.000000 0.812900 0.460502
0.067414 0.795372 0.435786
0.498968 0.773401 0.406700
0.931759 0.750256 0.378125
1.000000 0.734889 0.360221
0.000000 0.988913 0.382337
0.038861 0.982873 0.358748
0.419641 0.975047 0.331358
0.895940 0.966480 0.304834
1.000000 0.960600 0.288405
0.000000 0.000000 0.950342
0.189358 0.000000 0.941316
0.713519 0.000000 0.929707
0.998172 0.000000 0.917108
1.000000 0.000000 0.908525
0.000000 0.120910 0.921812
0.142337 0.107878 0.910749
0.647846 0.093395 0.896595
0.981326 0.079991 0.881332
1.000000 0.071978 0.870991
0.000000 0.442458 0.883674
0.099467 0.417917 0.870111
0.571178 0.389127 0.852884
0.958127 0.360937 0.834460
1.000000 0.343322 0.822067
0.000000 0.807865 0.837277
0.064532 0.790088 0.821016
0.491680 0.767825 0.800541
0.928801 0.744398 0.778861
1.000000 0.728858 0.764403
0.000000 0.987196 0.782161
0.036571 0.981017 0.763181
0.412517 0.973014 0.739524
0.892285 0.964257 0.714763
1.000000 0.958248 0.698413
0.000000 0.000000 1.000000
0.184437 0.000000 1.000000
0.707360 0.000000 1.000000
0.996693 0.000000 1.000000
1.000000 0.000000 1.000000
0.000000 0.117075 1.000000
0.138140 0.104274 1.000000
0.641148 0.090056 1.000000
0.979464 0.076906 1.000000
1.000000 0.069049 1.000000
0.000000 0.435365 1.000000
0.096016 0.410907 1.000000
0.564105 0.382249 1.000000
0.955758 0.354226 1.000000
1.000000 0.336733 0.996236
0.000000 0.802834 1.000000
0.061750 0.784813 0.995905
0.484504 0.762265 0.989343
0.925828 0.738562 0.982140
1.000000 0.722854 0.977183
0.000000 0.985466 0.983254
0.034363 0.979148 0.976759
0.405529 0.970968 0.968353
0.888618 0.962020 0.959163
1.000000 0.955882 0.952861
