Mimicamera/Resources/CuratedLUTs/teal-orange.cube
# Mimicamera generated LUT
TITLE "Teal & Orange"
LUT_3D_SIZE 33
DOMAIN_MIN 0.0 0.0 0.0
DOMAIN_MAX 1.0 1.0 1.0
0.000000 0.000000 0.023861
0.000000 0.000000 0.023861
0.010730 0.000000 0.023136
0.029406 0.000000 0.022139
0.052606 0.000000 0.021153
0.081116 0.000000 0.020178
0.115692 0.000000 0.019215
0.156958 0.000000 0.018262
0.205277 0.000000 0.017320
0.260608 0.000000 0.016389
0.322373 0.000000 0.015469
0.389388 0.000000 0.014559
0.459895 0.000000 0.013660
0.531712 0.000000 0.012771
0.602491 0.000000 0.011892
0.670017 0.000000 0.011024
0.732470 0.000000 0.010165
0.788596 0.000000 0.009316
0.837748 0.000000 0.008478
0.879828 0.000000 0.007649
0.915159 0.000000 0.006830
0.944342 0.000000 0.006020
0.968124 0.000000 0.005220
0.987291 0.000000 0.004429
1.000000 0.000000 0.003647
1.000000 0.000000 0.002875
1.000000 0.000000 0.002111
1.000000 0.000000 0.001357
1.000000 0.000000 0.000612
1.000000 0.000000 0.000000
1.000000 0.000000 0.000000
1.000000 0.000000 0.000000
1.000000 0.000000 0.000000
0.000000 0.003341 0.022887
0.000000 0.003341 0.022887
0.009901 0.002786 0.022170
0.028372 0.002024 0.021184
0.051327 0.001271 0.020209
0.079553 0.000526 0.019245
0.113809 0.000000 0.018292
0.154729 0.000000 0.017350
0.202693 0.000000 0.016418
0.257682 0.000000 0.015498
0.319149 0.000000 0.014587
0.385939 0.000000 0.013688
0.456321 0.000000 0.012798
0.528128 0.000000 0.011919
0.599014 0.000000 0.011050
0.666749 0.000000 0.010192
0.729491 0.000000 0.009343
0.785953 0.000000 0.008504
0.835461 0.000000 0.007675
0.877889 0.000000 0.006855
0.913545 0.000000 0.006045
0.943019 0.000000 0.005244
0.967051 0.000000 0.004453
0.986430 0.000000 0.003671
1.000000 0.000000 0.002899
1.000000 0.000000 0.002135
1.000000 0.000000 0.001381
1.000000 0.000000 0.000635
1.000000 0.000000 0.000000
1.000000 0.000000 0.000000
1.000000 0.000000 0.000000
1.000000 0.000000 0.000000
1.000000 0.000000 0.000000
0.000000 0.014758 0.020236
0.000000 0.014758 0.020236
0.007648 0.014108 0.019541
0.025557 0.013214 0.018585
0.047843 0.012330 0.017639
0.075290 0.011456 0.016705
0.108667 0.010593 0.015781
0.148631 0.009739 0.014867
0.195608 0.008896 0.013964
0.249641 0.008062 0.013072
0.310263 0.007238 0.012190
0.376406 0.006423 0.011318
0.446411 0.005618 0.010456
0.518159 0.004823 0.009604
0.589312 0.004037 0.008762
0.657606 0.003260 0.007930
0.721132 0.002492 0.007107
0.778520 0.001733 0.006294
0.829012 0.000983 0.005491
0.872414 0.000242 0.004697
0.908979 0.000000 0.003912
0.939269 0.000000 0.003136
0.964011 0.000000 0.002370
0.983989 0.000000 0.001613
0.999973 0.000000 0.000864
1.000000 0.000000 0.000125
1.000000 0.000000 0.000000
1.000000 0.000000 0.000000
1.000000 0.000000 0.000000
1.000000 0.000000 0.000000
1.000000 0.000000 0.000000
1.000000 0.000000 0.000000
1.000000 0.000000 0.000000
0.000000 0.028119 0.017666
0.000000 0.028119 0.017666
0.005465 0.027360 0.016992
0.022826 0.026315 0.016065
0.044458 0.025282 0.015148
0.071141 0.024261 0.014242
0.103652 0.023251 0.013346
0.142670 0.022252 0.012461
0.188659 0.021265 0.011586
0.241728 0.020289 0.010721
0.301485 0.019324 0.009866
0.366948 0.018371 0.009021
0.436534 0.017428 0.008185
0.508179 0.016495 0.007360
0.579555 0.015574 0.006544
0.648371 0.014663 0.005738
0.712654 0.013762 0.004941
0.770953 0.012872 0.004153
0.822426 0.011992 0.003375
0.866806 0.011122 0.002606
0.904292 0.010263 0.001845
0.935413 0.009413 0.001094
0.960878 0.008573 0.000352
0.981471 0.007743 0.000000
0.997965 0.006923 0.000000
1.000000 0.006112 0.000000
1.000000 0.005311 0.000000
1.000000 0.004519 0.000000
1.000000 0.003736 0.000000
1.000000 0.002963 0.000000
1.000000 0.002881 0.000000
1.000000 0.002881 0.000000
1.000000 0.002881 0.000000
0.000000 0.043687 0.015174
0.000000 0.043687 0.015174
0.003350 0.042804 0.014521
0.020177 0.041590 0.013622
0.041170 0.040388 0.012733
0.067105 0.039199 0.011855
0.098763 0.038023 0.010987
0.136843 0.036861 0.010129
0.181848 0.035710 0.009281
0.233945 0.034573 0.008442
0.292818 0.033448 0.007614
0.357570 0.032336 0.006795
0.426699 0.031236 0.005986
0.498193 0.030148 0.005186
0.569747 0.029072 0.004395
0.639047 0.028008 0.003614
0.704059 0.026956 0.002842
0.763254 0.025916 0.002079
0.815703 0.024887 0.001325
0.861064 0.023870 0.000580
0.899483 0.022865 0.000000
0.931447 0.021871 0.000000
0.957651 0.020888 0.000000
0.978874 0.019916 0.000000
0.995893 0.018956 0.000000
1.000000 0.018006 0.000000
1.000000 0.017067 0.000000
1.000000 0.016139 0.000000
1.000000 0.015222 0.000000
1.000000 0.014315 0.000000
1.000000 0.014219 0.000000
1.000000 0.014219 0.000000
1.000000 0.014219 0.000000
0.000000 0.061736 0.012759
0.000000 0.061736 0.012759
0.001301 0.060715 0.012125
0.017609 0.059309 0.011254
0.037978 0.057919 0.010393
0.063179 0.056542 0.009541
0.093997 0.055181 0.008700
0.131150 0.053833 0.007869
0.175175 0.052500 0.007047
0.226293 0.051181 0.006234
0.284265 0.049876 0.005432
0.348277 0.048585 0.004638
0.416909 0.047308 0.003854
0.488209 0.046044 0.003080
0.559896 0.044795 0.002314
0.629639 0.043558 0.001557
0.695351 0.042335 0.000809
0.755424 0.041125 0.000070
0.808842 0.039928 0.000000
0.855189 0.038745 0.000000
0.894548 0.037574 0.000000
0.927370 0.036416 0.000000
0.954329 0.035271 0.000000
0.976196 0.034138 0.000000
0.993753 0.033018 0.000000
1.000000 0.031910 0.000000
1.000000 0.030815 0.000000
1.000000 0.029732 0.000000
1.000000 0.028661 0.000000
1.000000 0.027601 0.000000
1.000000 0.027490 0.000000
1.000000 0.027490 0.000000
1.000000 0.027490 0.000000
0.000000 0.082537 0.010417
0.000000 0.082537 0.010417
0.000000 0.081364 0.009803
0.015119 0.079748 0.008959
0.034879 0.078148 0.008124
0.059362 0.076565 0.007299
0.089355 0.074997 0.006484
0.125590 0.073445 0.005679
0.168638 0.071909 0.004882
0.218774 0.070388 0.004095
0.275829 0.068883 0.003318
0.339074 0.067394 0.002549
0.407171 0.065919 0.001790
0.478232 0.064460 0.001039
0.550007 0.063015 0.000298
0.620153 0.061586 0.000000
0.686534 0.060172 0.000000
0.747464 0.058772 0.000000
0.801844 0.057387 0.000000
0.849178 0.056016 0.000000
0.889487 0.054660 0.000000
0.923180 0.053318 0.000000
0.950908 0.051991 0.000000
0.973434 0.050677 0.000000
0.991545 0.049377 0.000000
1.000000 0.048092 0.000000
1.000000 0.046820 0.000000
1.000000 0.045561 0.000000
1.000000 0.044317 0.000000
1.000000 0.043085 0.000000
1.000000 0.042955 0.000000
1.000000 0.042955 0.000000
1.000000 0.042955 0.000000
0.000000 0.106349 0.008148
0.000000 0.106349 0.008148
0.000000 0.105010 0.007553
0.012705 0.103166 0.006735
0.031870 0.101340 0.005926
0.055651 0.099530 0.005127
0.084832 0.097738 0.004337
0.120162 0.095963 0.003557
0.162240 0.094204 0.002786
0.211390 0.092463 0.002023
0.267514 0.090738 0.001270
0.329966 0.089031 0.000526
0.397491 0.087340 0.000000
0.468269 0.085665 0.000000
0.540086 0.084007 0.000000
0.610594 0.082365 0.000000
0.677610 0.080739 0.000000
0.739377 0.079130 0.000000
0.794710 0.077537 0.000000
0.843031 0.075959 0.000000
0.884298 0.074397 0.000000
0.918875 0.072852 0.000000
0.947387 0.071321 0.000000
0.970588 0.069807 0.000000
0.989266 0.068308 0.000000
1.000000 0.066824 0.000000
1.000000 0.065355 0.000000
1.000000 0.063902 0.000000
1.000000 0.062463 0.000000
1.000000 0.061040 0.000000
1.000000 0.060889 0.000000
1.000000 0.060889 0.000000
1.000000 0.060889 0.000000
0.000000 0.133398 0.005949
0.000000 0.133398 0.005949
0.000000 0.131884 0.005373
0.010365 0.129796 0.004580
0.028951 0.127726 0.003797
0.052044 0.125675 0.003023
0.080429 0.123642 0.002258
0.114864 0.121627 0.001502
0.155978 0.119630 0.000755
0.204141 0.117652 0.000016
0.259322 0.115691 0.000000
0.320957 0.113748 0.000000
0.387874 0.111822 0.000000
0.458327 0.109915 0.000000
0.530140 0.108025 0.000000
0.600967 0.106153 0.000000
0.668585 0.104298 0.000000
0.731165 0.102461 0.000000
0.787439 0.100641 0.000000
0.836747 0.098838 0.000000
0.878980 0.097052 0.000000
0.914453 0.095283 0.000000
0.943763 0.093532 0.000000
0.967655 0.091797 0.000000
0.986915 0.090079 0.000000
1.000000 0.088377 0.000000
1.000000 0.086693 0.000000
1.000000 0.085024 0.000000
1.000000 0.083372 0.000000
1.000000 0.081737 0.000000
1.000000 0.081564 0.000000
1.000000 0.081564 0.000000
1.000000 0.081564 0.000000
0.000000 0.163856 0.003819
0.000000 0.163856 0.003819
0.000000 0.162158 0.003261
0.008097 0.159816 0.002493
0.026119 0.157493 0.001734
0.048539 0.155188 0.000984
0.076142 0.152903 0.000243
0.109696 0.150636 0.000000
0.149853 0.148389 0.000000
0.197028 0.146159 0.000000
0.251256 0.143949 0.000000
0.312050 0.141757 0.000000
0.378326 0.139584 0.000000
0.448410 0.137430 0.000000
0.520175 0.135294 0.000000
0.591277 0.133176 0.000000
0.659461 0.131077 0.000000
0.722831 0.128996 0.000000
0.780033 0.126934 0.000000
0.830326 0.124890 0.000000
0.873531 0.122864 0.000000
0.909912 0.120856 0.000000
0.940035 0.118866 0.000000
0.964632 0.116894 0.000000
0.984489 0.114940 0.000000
1.000000 0.113004 0.000000
1.000000 0.111086 0.000000
1.000000 0.109185 0.000000
1.000000 0.107302 0.000000
1.000000 0.105436 0.000000
1.000000 0.105239 0.000000
1.000000 0.105239 0.000000
1.000000 0.105239 0.000000
0.000000 0.197814 0.001756
0.000000 0.197814 0.001756
0.000000 0.195931 0.001215
0.005900 0.193330 0.000471
0.023371 0.190749 0.000000
0.045134 0.188187 0.000000
0.071971 0.185643 0.000000
0.104655 0.183119 0.000000
0.143863 0.180614 0.000000
0.190052 0.178127 0.000000
0.243316 0.175660 0.000000
0.303250 0.173211 0.000000
0.368852 0.170782 0.000000
0.438527 0.168371 0.000000
0.510196 0.165980 0.000000
0.581530 0.163607 0.000000
0.650244 0.161253 0.000000
0.714376 0.158919 0.000000
0.772493 0.156603 0.000000
0.823768 0.154306 0.000000
0.867950 0.152028 0.000000
0.905249 0.149768 0.000000
0.936201 0.147528 0.000000
0.961518 0.145306 0.000000
0.981986 0.143103 0.000000
0.998376 0.140918 0.000000
1.000000 0.138752 0.000000
1.000000 0.136605 0.000000
1.000000 0.134476 0.000000
1.000000 0.132366 0.000000
1.000000 0.132143 0.000000
1.000000 0.132143 0.000000
1.000000 0.132143 0.000000
0.000000 0.235261 0.000000
0.000000 0.235261 0.000000
0.000000 0.233195 0.000000
0.003772 0.230342 0.000000
0.020706 0.227506 0.000000
0.041827 0.224689 0.000000
0.067912 0.221890 0.000000
0.099741 0.219110 0.000000
0.138009 0.216348 0.000000
0.183213 0.213605 0.000000
0.235507 0.210880 0.000000
0.294560 0.208174 0.000000
0.359458 0.205487 0.000000
0.428682 0.202819 0.000000
0.500211 0.200169 0.000000
0.571733 0.197539 0.000000
0.640937 0.194927 0.000000
0.705805 0.192334 0.000000
0.764821 0.189760 0.000000
0.817073 0.187205 0.000000
0.862235 0.184669 0.000000
0.900465 0.182152 0.000000
0.932257 0.179654 0.000000
0.958311 0.177174 0.000000
0.979405 0.174714 0.000000
0.996317 0.172273 0.000000
1.000000 0.169851 0.000000
1.000000 0.167448 0.000000
1.000000 0.165064 0.000000
1.000000 0.162698 0.000000
1.000000 0.162449 0.000000
1.000000 0.162449 0.000000
1.000000 0.162449 0.000000
0.000000 0.276058 0.000000
0.000000 0.276058 0.000000
0.000000 0.273820 0.000000
0.001710 0.270727 0.000000
0.018122 0.267651 0.000000
0.038615 0.264592 0.000000
0.063964 0.261550 0.000000
0.094950 0.258525 0.000000
0.132289 0.255517 0.000000
0.176512 0.252527 0.000000
0.227828 0.249555 0.000000
0.285984 0.246600 0.000000
0.350148 0.243663 0.000000
0.418883 0.240743 0.000000
0.490226 0.237842 0.000000
0.561890 0.234959 0.000000
0.631546 0.232094 0.000000
0.697120 0.229247 0.000000
0.757016 0.226419 0.000000
0.810240 0.223609 0.000000
0.856387 0.220817 0.000000
0.895555 0.218044 0.000000
0.928203 0.215289 0.000000
0.955008 0.212553 0.000000
0.976743 0.209836 0.000000
0.994191 0.207137 0.000000
1.000000 0.204457 0.000000
1.000000 0.201796 0.000000
1.000000 0.199154 0.000000
1.000000 0.196530 0.000000
1.000000 0.196253 0.000000
1.000000 0.196253 0.000000
1.000000 0.196253 0.000000
0.000000 0.319919 0.000000
0.000000 0.319919 0.000000
0.000000 0.317529 0.000000
0.000000 0.314222 0.000000
0.015616 0.310930 0.000000
0.035497 0.307652 0.000000
0.060125 0.304390 0.000000
0.090283 0.301142 0.000000
0.126703 0.297910 0.000000
0.169948 0.294694 0.000000
0.220283 0.291493 0.000000
0.277524 0.288308 0.000000
0.340927 0.285139 0.000000
0.409134 0.281987 0.000000
0.480247 0.278850 0.000000
0.552008 0.275730 0.000000
0.622076 0.272627 0.000000
0.688324 0.269540 0.000000
0.749083 0.266471 0.000000
0.803269 0.263418 0.000000
0.850403 0.260382 0.000000
0.890520 0.257364 0.000000
0.924036 0.254363 0.000000
0.951607 0.251380 0.000000
0.973999 0.248414 0.000000
0.991997 0.245466 0.000000
1.000000 0.242536 0.000000
1.000000 0.239624 0.000000
1.000000 0.236729 0.000000
1.000000 0.233853 0.000000
1.000000 0.233549 0.000000
1.000000 0.233549 0.000000
1.000000 0.233549 0.000000
0.000000 0.366411 0.000000
0.000000 0.366411 0.000000
0.000000 0.363895 0.000000
0.000000 0.360411 0.000000
0.013186 0.356938 0.000000
0.032471 0.353477 0.000000
0.056392 0.350028 0.000000
0.085737 0.346592 0.000000
0.121248 0.343168 0.000000
0.163522 0.339756 0.000000
0.212871 0.336358 0.000000
0.269185 0.332973 0.000000
0.331799 0.329601 0.000000
0.399442 0.326243 0.000000
0.470281 0.322899 0.000000
0.542093 0.319569 0.000000
0.612531 0.316253 0.000000
0.679422 0.312952 0.000000
0.741021 0.309666 0.000000
0.796162 0.306394 0.000000
0.844284 0.303137 0.000000
0.885357 0.299896 0.000000
0.919755 0.296670 0.000000
0.948107 0.293459 0.000000
0.971170 0.290264 0.000000
0.989732 0.287086 0.000000
1.000000 0.283923 0.000000
1.000000 0.280776 0.000000
1.000000 0.277646 0.000000
1.000000 0.274533 0.000000
1.000000 0.274203 0.000000
1.000000 0.274203 0.000000
1.000000 0.274203 0.000000
0.000000 0.414955 0.000000
0.000000 0.414955 0.000000
0.000000 0.412347 0.000000
0.000000 0.408732 0.000000
0.010832 0.405125 0.000000
0.029534 0.401525 0.000000
0.052764 0.397935 0.000000
0.081309 0.394352 0.000000
0.115924 0.390779 0.000000
0.157232 0.387215 0.000000
0.205595 0.383661 0.000000
0.260968 0.380117 0.000000
0.322769 0.376582 0.000000
0.389812 0.373058 0.000000
0.460334 0.369545 0.000000
0.532152 0.366043 0.000000
0.602917 0.362551 0.000000
0.670417 0.359072 0.000000
0.732834 0.355603 0.000000
0.788919 0.352147 0.000000
0.838028 0.348703 0.000000
0.880065 0.345271 0.000000
0.915356 0.341852 0.000000
0.944504 0.338446 0.000000
0.968255 0.335052 0.000000
0.987396 0.331673 0.000000
1.000000 0.328306 0.000000
1.000000 0.324954 0.000000
1.000000 0.321615 0.000000
1.000000 0.318290 0.000000
1.000000 0.317938 0.000000
1.000000 0.317938 0.000000
1.000000 0.317938 0.000000
0.000000 0.464853 0.000000
0.000000 0.464853 0.000000
0.000000 0.462193 0.000000
0.000000 0.458501 0.000000
0.008550 0.454813 0.000000
0.026684 0.451129 0.000000
0.049239 0.447449 0.000000
0.076999 0.443773 0.000000
0.110730 0.440103 0.000000
0.151079 0.436438 0.000000
0.198455 0.432778 0.000000
0.252875 0.429124 0.000000
0.313841 0.425477 0.000000
0.380250 0.421836 0.000000
0.450412 0.418201 0.000000
0.522189 0.414574 0.000000
0.593240 0.410954 0.000000
0.661313 0.407342 0.000000
0.724524 0.403737 0.000000
0.781541 0.400141 0.000000
0.831635 0.396554 0.000000
0.874642 0.392975 0.000000
0.910839 0.389405 0.000000
0.940797 0.385845 0.000000
0.965250 0.382295 0.000000
0.984985 0.378754 0.000000
1.000000 0.375224 0.000000
1.000000 0.371704 0.000000
1.000000 0.368195 0.000000
1.000000 0.364697 0.000000
1.000000 0.364326 0.000000
1.000000 0.364326 0.000000
1.000000 0.364326 0.000000
0.000000 0.515321 0.000000
0.000000 0.515321 0.000000
0.000000 0.512652 0.000000
0.000000 0.508942 0.000000
0.006339 0.505233 0.000000
0.023920 0.501522 0.000000
0.045814 0.497811 0.000000
0.072804 0.494101 0.000000
0.105663 0.490391 0.000000
0.145063 0.486682 0.000000
0.191451 0.482974 0.000000
0.244910 0.479268 0.000000
0.305019 0.475564 0.000000
0.370760 0.471861 0.000000
0.440521 0.468161 0.000000
0.512213 0.464464 0.000000
0.583504 0.460770 0.000000
0.652114 0.457080 0.000000
0.716094 0.453393 0.000000
0.774028 0.449711 0.000000
0.825105 0.446032 0.000000
0.869088 0.442359 0.000000
0.906201 0.438691 0.000000
0.936984 0.435028 0.000000
0.962155 0.431370 0.000000
0.982498 0.427719 0.000000
0.998784 0.424073 0.000000
1.000000 0.420435 0.000000
1.000000 0.416803 0.000000
1.000000 0.413179 0.000000
1.000000 0.412795 0.000000
1.000000 0.412795 0.000000
1.000000 0.412795 0.000000
0.000000 0.565540 0.000000
0.000000 0.565540 0.000000
0.000000 0.562904 0.000000
0.000000 0.559238 0.000000
0.004196 0.555567 0.000000
0.021238 0.551890 0.000000
0.042487 0.548210 0.000000
0.068723 0.544525 0.000000
0.100723 0.540836 0.000000
0.139181 0.537144 0.000000
0.184584 0.533448 0.000000
0.237074 0.529749 0.000000
0.296307 0.526048 0.000000
0.361350 0.522344 0.000000
0.430668 0.518639 0.000000
0.502229 0.514931 0.000000
0.573716 0.511223 0.000000
0.642825 0.507513 0.000000
0.707546 0.503803 0.000000
0.766382 0.500093 0.000000
0.818437 0.496382 0.000000
0.863401 0.492672 0.000000
0.901441 0.488962 0.000000
0.933063 0.485254 0.000000
0.958967 0.481547 0.000000
0.979933 0.477841 0.000000
0.996738 0.474137 0.000000
1.000000 0.470436 0.000000
1.000000 0.466737 0.000000
1.000000 0.463041 0.000000
1.000000 0.462649 0.000000
1.000000 0.462649 0.000000
1.000000 0.462649 0.000000
0.000000 0.614706 0.000000
0.000000 0.614706 0.000000
0.000000 0.612145 0.000000
0.000000 0.608579 0.000000
0.002121 0.605005 0.000000
0.018637 0.601421 0.000000
0.039257 0.597829 0.000000
0.064753 0.594228 0.000000
0.095908 0.590619 0.000000
0.133434 0.587002 0.000000
0.177855 0.583378 0.000000
0.229369 0.579747 0.000000
0.287707 0.576109 0.000000
0.352022 0.572464 0.000000
0.420859 0.568813 0.000000
0.492243 0.565155 0.000000
0.563882 0.561493 0.000000
0.633451 0.557824 0.000000
0.698884 0.554151 0.000000
0.758604 0.550473 0.000000
0.811631 0.546791 0.000000
0.857580 0.543104 0.000000
0.896557 0.539414 0.000000
0.929031 0.535720 0.000000
0.955683 0.532023 0.000000
0.977288 0.528324 0.000000
0.994626 0.524621 0.000000
1.000000 0.520917 0.000000
1.000000 0.517211 0.000000
1.000000 0.513503 0.000000
1.000000 0.513110 0.000000
1.000000 0.513110 0.000000
1.000000 0.513110 0.000000
0.000000 0.662082 0.000000
0.000000 0.662082 0.000000
0.000000 0.659632 0.000000
0.000000 0.656218 0.000000
0.000111 0.652792 0.000000
0.016116 0.649353 0.000000
0.036120 0.645902 0.000000
0.060892 0.642439 0.000000
0.091216 0.638964 0.000000
0.127821 0.635478 0.000000
0.171263 0.631980 0.000000
0.221797 0.628472 0.000000
0.279224 0.624952 0.000000
0.342782 0.621422 0.000000
0.411100 0.617882 0.000000
0.482263 0.614332 0.000000
0.554008 0.610773 0.000000
0.623996 0.607204 0.000000
0.690110 0.603625 0.000000
0.750696 0.600038 0.000000
0.804689 0.596443 0.000000
0.851623 0.592839 0.000000
0.891548 0.589227 0.000000
0.924887 0.585607 0.000000
0.952302 0.581980 0.000000
0.974560 0.578346 0.000000
0.992446 0.574705 0.000000
1.000000 0.571058 0.000000
1.000000 0.567405 0.000000
1.000000 0.563745 0.000000
1.000000 0.563357 0.000000
1.000000 0.563357 0.000000
1.000000 0.563357 0.000000
0.000000 0.707038 0.000000
0.000000 0.707038 0.000000
0.000000 0.704729 0.000000
0.000000 0.701510 0.000000
0.000000 0.698275 0.000000
0.013671 0.695025 0.000000
0.033075 0.691760 0.000000
0.057138 0.688480 0.000000
0.086646 0.685185 0.000000
0.122340 0.681875 0.000000
0.164809 0.678552 0.000000
0.214358 0.675214 0.000000
0.270860 0.671862 0.000000
0.333635 0.668496 0.000000
0.401395 0.665117 0.000000
0.472293 0.661724 0.000000
0.544099 0.658319 0.000000
0.614466 0.654900 0.000000
0.681229 0.651469 0.000000
0.742660 0.648025 0.000000
0.797609 0.644570 0.000000
0.845531 0.641102 0.000000
0.886411 0.637623 0.000000
0.920629 0.634132 0.000000
0.948822 0.630630 0.000000
0.971749 0.627117 0.000000
0.990196 0.623594 0.000000
1.000000 0.620060 0.000000
1.000000 0.616516 0.000000
1.000000 0.612962 0.000000
1.000000 0.612585 0.000000
1.000000 0.612585 0.000000
1.000000 0.612585 0.000000
0.000000 0.749081 0.000000
0.000000 0.749081 0.000000
0.000000 0.746937 0.000000
0.000000 0.743944 0.000000
0.000000 0.740933 0.000000
0.011302 0.737905 0.000000
0.030120 0.734860 0.000000
0.053489 0.731798 0.000000
0.082194 0.728718 0.000000
0.116989 0.725622 0.000000
0.158492 0.722510 0.000000
0.207054 0.719380 0.000000
0.262618 0.716235 0.000000
0.324586 0.713073 0.000000
0.391752 0.709895 0.000000
0.462342 0.706701 0.000000
0.534162 0.703491 0.000000
0.604865 0.700266 0.000000
0.672244 0.697025 0.000000
0.734499 0.693769 0.000000
0.790394 0.690498 0.000000
0.839303 0.687212 0.000000
0.881145 0.683912 0.000000
0.916254 0.680597 0.000000
0.945240 0.677267 0.000000
0.968851 0.673924 0.000000
0.987874 0.670567 0.000000
1.000000 0.667196 0.000000
1.000000 0.663812 0.000000
1.000000 0.660414 0.000000
1.000000 0.660053 0.000000
1.000000 0.660053 0.000000
1.000000 0.660053 0.000000
0.000000 0.787870 0.000000
0.000000 0.787870 0.000000
0.000000 0.785904 0.000000
0.000000 0.783157 0.000000
0.000000 0.780392 0.000000
0.009005 0.777609 0.000000
0.027253 0.774806 0.000000
0.049943 0.771986 0.000000
0.077861 0.769147 0.000000
0.111769 0.766290 0.000000
0.152312 0.763415 0.000000
0.199886 0.760521 0.000000
0.254500 0.757610 0.000000
0.315637 0.754681 0.000000
0.382176 0.751733 0.000000
0.452414 0.748769 0.000000
0.524204 0.745786 0.000000
0.595200 0.742786 0.000000
0.663160 0.739769 0.000000
0.726213 0.736734 0.000000
0.783042 0.733682 0.000000
0.832938 0.730614 0.000000
0.875749 0.727528 0.000000
0.911761 0.724425 0.000000
0.941555 0.721306 0.000000
0.965865 0.718171 0.000000
0.985478 0.715019 0.000000
1.000000 0.711851 0.000000
1.000000 0.708666 0.000000
1.000000 0.705466 0.000000
1.000000 0.705126 0.000000
1.000000 0.705126 0.000000
1.000000 0.705126 0.000000
0.000000 0.823208 0.000000
0.000000 0.823208 0.000000
0.000000 0.821428 0.000000
0.000000 0.818938 0.000000
0.000000 0.816429 0.000000
0.006780 0.813901 0.000000
0.024471 0.811354 0.000000
0.046498 0.808789 0.000000
0.073643 0.806204 0.000000
0.106677 0.803600 0.000000
0.146267 0.800978 0.000000
0.192855 0.798337 0.000000
0.246509 0.795676 0.000000
0.306793 0.792997 0.000000
0.372672 0.790300 0.000000
0.442517 0.787583 0.000000
0.514230 0.784848 0.000000
0.585476 0.782094 0.000000
0.653980 0.779322 0.000000
0.717807 0.776531 0.000000
0.775556 0.773722 0.000000
0.826435 0.770895 0.000000
0.870221 0.768049 0.000000
0.907148 0.765185 0.000000
0.937763 0.762302 0.000000
0.962788 0.759402 0.000000
0.983007 0.756484 0.000000
0.999190 0.753547 0.000000
1.000000 0.750593 0.000000
1.000000 0.747622 0.000000
1.000000 0.747306 0.000000
1.000000 0.747306 0.000000
1.000000 0.747306 0.000000
0.000000 0.855037 0.000000
0.000000 0.855037 0.000000
0.000000 0.853441 0.000000
0.000000 0.851209 0.000000
0.000000 0.848958 0.000000
0.004624 0.846688 0.000000
0.021773 0.844399 0.000000
0.043152 0.842091 0.000000
0.069539 0.839765 0.000000
0.101712 0.837419 0.000000
0.140359 0.835055 0.000000
0.185961 0.832672 0.000000
0.238647 0.830269 0.000000
0.298058 0.827848 0.000000
0.363245 0.825408 0.000000
0.432656 0.822949 0.000000
0.504247 0.820471 0.000000
0.575698 0.817974 0.000000
0.644709 0.815457 0.000000
0.709283 0.812922 0.000000
0.767937 0.810368 0.000000
0.819795 0.807795 0.000000
0.864561 0.805203 0.000000
0.902413 0.802592 0.000000
0.933864 0.799963 0.000000
0.959619 0.797314 0.000000
0.980458 0.794647 0.000000
0.997157 0.791960 0.000000
1.000000 0.789256 0.000000
1.000000 0.786532 0.000000
1.000000 0.786242 0.000000
1.000000 0.786242 0.000000
1.000000 0.786242 0.000000
0.000000 0.883410 0.000000
0.000000 0.883410 0.000000
0.000000 0.881994 0.000000
0.000000 0.880012 0.000000
0.000000 0.878012 0.000000
0.002535 0.875994 0.000000
0.019156 0.873958 0.000000
0.039902 0.871903 0.000000
0.065546 0.869831 0.000000
0.096871 0.867739 0.000000
0.134585 0.865630 0.000000
0.179204 0.863502 0.000000
0.230916 0.861356 0.000000
0.289436 0.859191 0.000000
0.353900 0.857007 0.000000
0.422837 0.854805 0.000000
0.494261 0.852584 0.000000
0.565873 0.850344 0.000000
0.635351 0.848086 0.000000
0.700643 0.845808 0.000000
0.760186 0.843512 0.000000
0.813018 0.841197 0.000000
0.858767 0.838864 0.000000
0.897554 0.836511 0.000000
0.929855 0.834139 0.000000
0.956354 0.831749 0.000000
